;FLAVOR:Marlin
;TIME:3563
;Filament used: 5.38753m
;Layer height: 0.6
;MINX:116.303
;MINY:133.847
;MINZ:0.3
;MAXX:179.764
;MAXY:166.131
;MAXZ:48.3
;Generated with Cura_SteamEngine 4.13.0
M140 S60
M105
M190 S60
M104 S200
M105
M109 S200
M82 ;absolute extrusion mode
G28 ;Home
G1 Z15.0 F2000 ;Move the platform
G92 E0
G92 E0
G1 F1500 E-6.5
;LAYER_COUNT:81
;LAYER:0
M107
M204 S1000
G0 F7500 X119.749 Y137.713 Z0.3
;TYPE:SKIRT
G1 F1500 E0
G1 X119.936 Y137.562 E0.01199
G1 X120.843 Y136.931 E0.06712
G1 X121.041 Y136.813 E0.07861
G1 X121.939 Y136.353 E0.12895
G1 X122.131 Y136.27 E0.13939
G1 X123.101 Y135.925 E0.19075
G1 X123.373 Y135.848 E0.20485
G1 X124.143 Y135.672 E0.24426
G1 X124.549 Y135.611 E0.26474
G1 X124.802 Y135.58 E0.27746
G1 X125.275 Y135.537 E0.30116
G1 X148.81 Y134.099 E1.47751
G1 X149.001 Y134.089 E1.48705
G1 X149.466 Y134.072 E1.51027
G1 X149.905 Y134.065 E1.53217
G1 X150.063 Y134.064 E1.54005
G1 X150.427 Y134.067 E1.55822
G1 X150.646 Y134.072 E1.56914
G1 X151.072 Y134.088 E1.59041
G1 X151.54 Y134.113 E1.61379
G1 X151.971 Y134.145 E1.63536
G1 X152.229 Y134.169 E1.64828
G1 X152.674 Y134.217 E1.67061
G1 X152.865 Y134.24 E1.68021
G1 X153.264 Y134.293 E1.70029
G1 X153.5 Y134.328 E1.7122
G1 X153.951 Y134.402 E1.735
G1 X154.149 Y134.437 E1.74503
G1 X154.56 Y134.517 E1.76592
G1 X154.972 Y134.603 E1.78692
G1 X155.225 Y134.66 E1.79985
G1 X155.627 Y134.758 E1.8205
G1 X155.825 Y134.809 E1.8307
G1 X156.233 Y134.921 E1.85181
G1 X156.623 Y135.035 E1.87208
G1 X156.89 Y135.117 E1.88601
G1 X157.339 Y135.264 E1.90958
G1 X157.772 Y135.414 E1.93244
G1 X158.146 Y135.552 E1.95233
G1 X158.378 Y135.642 E1.96475
G1 X158.942 Y135.873 E1.99516
G1 X159.278 Y136.019 E2.01343
G1 X159.447 Y136.095 E2.02268
G1 X159.827 Y136.271 E2.04357
G1 X160.266 Y136.485 E2.06794
G1 X160.554 Y136.632 E2.08407
G1 X161.015 Y136.879 E2.11016
G1 X161.399 Y137.094 E2.13212
G1 X161.618 Y137.223 E2.1448
G1 X162.26 Y137.616 E2.18235
G1 X162.65 Y137.869 E2.20554
G1 X162.882 Y138.025 E2.21949
G1 X163.322 Y138.334 E2.24632
G1 X163.453 Y138.428 E2.25436
G1 X163.732 Y138.634 E2.27166
G1 X163.898 Y138.76 E2.28206
G1 X164.244 Y139.03 E2.30396
G1 X164.487 Y139.228 E2.31959
G1 X165.004 Y139.666 E2.3534
G1 X165.261 Y139.894 E2.37054
G1 X165.736 Y140.332 E2.40277
G1 X166.093 Y140.681 E2.42768
G1 X166.469 Y141.062 E2.45439
G1 X166.651 Y141.253 E2.46755
G1 X166.917 Y141.543 E2.48718
G1 X167.225 Y141.89 E2.51033
G1 X167.491 Y142.201 E2.53075
G1 X167.66 Y142.404 E2.54393
G1 X167.879 Y142.676 E2.56135
G1 X168.049 Y142.894 E2.57514
G1 X168.353 Y143.297 E2.60032
G1 X168.471 Y143.457 E2.61024
G1 X168.717 Y143.804 E2.63146
G1 X169.005 Y144.226 E2.65695
G1 X169.154 Y144.453 E2.6705
G1 X169.29 Y144.668 E2.68319
G1 X169.402 Y144.844 E2.6936
G1 X169.643 Y145.245 E2.71694
G1 X169.887 Y145.683 E2.74195
G1 X170.011 Y145.923 E2.75543
G1 X170.337 Y146.642 E2.79482
G1 X170.532 Y147.196 E2.82412
G1 X170.606 Y147.435 E2.8366
G1 X170.801 Y148.2 E2.87599
G1 X170.908 Y148.884 E2.91053
G1 X170.934 Y149.119 E2.92232
G1 X170.981 Y149.908 E2.96176
G1 X170.963 Y150.503 E2.99146
G1 X170.949 Y150.71 E3.00181
G1 X170.856 Y151.495 E3.04124
G1 X170.722 Y152.125 E3.07338
G1 X170.648 Y152.413 E3.08821
G1 X170.413 Y153.167 E3.12761
G1 X170.126 Y153.845 E3.16435
G1 X170.032 Y154.041 E3.17519
G1 X169.723 Y154.621 E3.20798
G1 X169.475 Y155.039 E3.23223
G1 X169.186 Y155.497 E3.25924
G1 X169.08 Y155.661 E3.26899
G1 X168.869 Y155.978 E3.28798
G1 X168.751 Y156.151 E3.29843
G1 X168.531 Y156.463 E3.31748
G1 X168.157 Y156.968 E3.34883
G1 X167.846 Y157.367 E3.37407
G1 X167.654 Y157.604 E3.38929
G1 X167.143 Y158.205 E3.42864
G1 X166.967 Y158.405 E3.44193
G1 X166.671 Y158.726 E3.46372
G1 X166.327 Y159.085 E3.48852
G1 X166.019 Y159.394 E3.51029
G1 X165.777 Y159.63 E3.52716
G1 X165.482 Y159.907 E3.54734
G1 X165.317 Y160.057 E3.55847
G1 X164.824 Y160.489 E3.59117
G1 X164.543 Y160.726 E3.60951
G1 X164.324 Y160.905 E3.62362
G1 X163.935 Y161.211 E3.64832
G1 X163.73 Y161.366 E3.66114
G1 X163.174 Y161.772 E3.69548
G1 X162.808 Y162.024 E3.71765
G1 X162.32 Y162.345 E3.74679
G1 X161.978 Y162.561 E3.76698
G1 X161.688 Y162.736 E3.78387
G1 X161.098 Y163.075 E3.81782
G1 X160.838 Y163.217 E3.8326
G1 X160.286 Y163.504 E3.86364
G1 X159.808 Y163.739 E3.89021
G1 X159.321 Y163.962 E3.91694
G1 X159.092 Y164.063 E3.92942
G1 X158.583 Y164.276 E3.95695
G1 X158.207 Y164.424 E3.97711
G1 X157.755 Y164.593 E4.00119
G1 X157.39 Y164.721 E4.02048
G1 X156.954 Y164.864 E4.04338
G1 X156.478 Y165.01 E4.06822
G1 X155.816 Y165.194 E4.1025
G1 X155.467 Y165.282 E4.12045
G1 X154.835 Y165.425 E4.15278
G1 X154.349 Y165.525 E4.17753
G1 X154.033 Y165.584 E4.19357
G1 X153.804 Y165.624 E4.20517
G1 X153.298 Y165.703 E4.23072
G1 X153.024 Y165.74 E4.24451
G1 X152.444 Y165.809 E4.27365
G1 X152.104 Y165.843 E4.2907
G1 X151.766 Y165.871 E4.30762
G1 X151.547 Y165.886 E4.31857
G1 X151.052 Y165.913 E4.34331
G1 X150.845 Y165.922 E4.35364
G1 X150.353 Y165.934 E4.3782
G1 X149.837 Y165.935 E4.40394
G1 X149.384 Y165.925 E4.42655
G1 X149.064 Y165.913 E4.44252
G1 X148.656 Y165.892 E4.4629
G1 X140.966 Y165.42 E4.84728
G1 X140.399 Y165.387 E4.87562
G1 X140.153 Y165.37 E4.88792
G1 X138.891 Y165.295 E4.95099
G1 X138.607 Y165.276 E4.96519
G1 X138.176 Y165.252 E4.98673
G1 X127.614 Y164.608 E5.51465
G1 X125.216 Y164.458 E5.63452
G1 X124.726 Y164.412 E5.65907
G1 X124.52 Y164.386 E5.66943
G1 X123.365 Y164.15 E5.72824
G1 X123.08 Y164.069 E5.74303
G1 X122.008 Y163.678 E5.79995
G1 X121.806 Y163.587 E5.81101
G1 X120.897 Y163.103 E5.86239
G1 X120.702 Y162.982 E5.87384
G1 X119.84 Y162.362 E5.92681
G1 X119.683 Y162.232 E5.93698
G1 X118.939 Y161.528 E5.98808
G1 X118.76 Y161.335 E6.00121
G1 X118.253 Y160.73 E6.04059
G1 X118.01 Y160.389 E6.06148
G1 X117.882 Y160.199 E6.07291
G1 X117.354 Y159.289 E6.1254
G1 X117.251 Y159.08 E6.13703
G1 X116.836 Y158.063 E6.19183
G1 X116.755 Y157.816 E6.2048
G1 X116.5 Y156.817 E6.25623
G1 X116.452 Y156.56 E6.26928
G1 X116.335 Y155.62 E6.31654
G1 X116.319 Y155.367 E6.32918
G1 X116.303 Y154.874 E6.35379
G1 X116.304 Y145.094 E6.84172
G1 X116.324 Y144.535 E6.86963
G1 X116.341 Y144.299 E6.88143
G1 X116.456 Y143.414 E6.92595
G1 X116.502 Y143.17 E6.93834
G1 X116.781 Y142.107 E6.99317
G1 X116.872 Y141.839 E7.00729
G1 X117.308 Y140.806 E7.06323
G1 X117.416 Y140.594 E7.0751
G1 X117.974 Y139.664 E7.12921
G1 X118.109 Y139.471 E7.14096
G1 X118.775 Y138.645 E7.1939
G1 X118.923 Y138.485 E7.20477
G1 X119.749 Y137.713 E7.26118
G0 F7500 X120 Y138.025
G1 F1500 X120.187 Y137.874 E7.27317
G1 X121.048 Y137.274 E7.32552
G1 X121.246 Y137.156 E7.33702
G1 X122.098 Y136.721 E7.38475
G1 X122.29 Y136.638 E7.39518
G1 X123.21 Y136.31 E7.44391
G1 X123.482 Y136.233 E7.45802
G1 X124.598 Y136.008 E7.51481
G1 X124.851 Y135.977 E7.52753
G1 X125.3 Y135.936 E7.55003
G1 X148.835 Y134.498 E8.72638
G1 X149.016 Y134.489 E8.73542
G1 X149.481 Y134.472 E8.75864
G1 X149.909 Y134.465 E8.77999
G1 X150.06 Y134.464 E8.78753
G1 X150.424 Y134.467 E8.80569
G1 X150.631 Y134.472 E8.81602
G1 X151.053 Y134.488 E8.83709
G1 X151.51 Y134.512 E8.85992
G1 X151.941 Y134.544 E8.88148
G1 X152.187 Y134.567 E8.89381
G1 X152.812 Y134.636 E8.92518
G1 X153.211 Y134.689 E8.94526
G1 X153.435 Y134.723 E8.95656
G1 X153.886 Y134.797 E8.97936
G1 X154.074 Y134.83 E8.98888
G1 X154.478 Y134.908 E9.00941
G1 X154.89 Y134.994 E9.03041
G1 X155.131 Y135.049 E9.04274
G1 X155.533 Y135.147 E9.06339
G1 X155.72 Y135.195 E9.07302
G1 X156.121 Y135.305 E9.09376
G1 X156.511 Y135.419 E9.11403
G1 X156.766 Y135.497 E9.12734
G1 X157.21 Y135.643 E9.15066
G1 X157.634 Y135.79 E9.17305
G1 X158.008 Y135.928 E9.19293
G1 X158.228 Y136.013 E9.2047
G1 X158.615 Y136.17 E9.22554
G1 X158.782 Y136.24 E9.23457
G1 X159.279 Y136.458 E9.26165
G1 X159.659 Y136.634 E9.28254
G1 X160.089 Y136.844 E9.30641
G1 X160.371 Y136.988 E9.32221
G1 X160.825 Y137.231 E9.3479
G1 X161.202 Y137.442 E9.36946
G1 X161.41 Y137.564 E9.38149
G1 X161.888 Y137.855 E9.40941
G1 X162.302 Y138.119 E9.4339
G1 X162.659 Y138.357 E9.45531
G1 X162.802 Y138.455 E9.46396
G1 X163.092 Y138.66 E9.48167
G1 X163.494 Y138.956 E9.50658
G1 X163.651 Y139.075 E9.51641
G1 X163.997 Y139.345 E9.53831
G1 X164.228 Y139.533 E9.55316
G1 X164.745 Y139.971 E9.58697
G1 X164.99 Y140.187 E9.60326
G1 X165.269 Y140.442 E9.62212
G1 X165.457 Y140.619 E9.635
G1 X165.808 Y140.962 E9.65949
G1 X166.184 Y141.343 E9.68619
G1 X166.357 Y141.524 E9.69869
G1 X166.619 Y141.81 E9.71804
G1 X166.921 Y142.15 E9.74072
G1 X167.183 Y142.457 E9.76086
G1 X167.352 Y142.66 E9.77404
G1 X167.568 Y142.928 E9.79121
G1 X167.73 Y143.135 E9.80432
G1 X168.034 Y143.538 E9.82951
G1 X168.146 Y143.69 E9.83893
G1 X168.294 Y143.897 E9.85162
G1 X168.674 Y144.452 E9.88518
G1 X168.816 Y144.667 E9.89804
G1 X168.952 Y144.882 E9.91073
G1 X169.059 Y145.05 E9.92067
G1 X169.3 Y145.451 E9.94401
G1 X169.531 Y145.866 E9.9677
G1 X169.655 Y146.106 E9.98118
G1 X169.972 Y146.807 E10.01956
G1 X170.15 Y147.314 E10.04637
G1 X170.224 Y147.553 E10.05885
G1 X170.413 Y148.299 E10.09725
G1 X170.51 Y148.928 E10.129
G1 X170.536 Y149.163 E10.14079
G1 X170.581 Y149.931 E10.17918
G1 X170.564 Y150.476 E10.20638
G1 X170.55 Y150.683 E10.21673
G1 X170.458 Y151.447 E10.25512
G1 X170.334 Y152.026 E10.28466
G1 X170.26 Y152.314 E10.2995
G1 X170.03 Y153.048 E10.33787
G1 X169.765 Y153.672 E10.3717
G1 X169.671 Y153.868 E10.38254
G1 X169.378 Y154.419 E10.41368
G1 X169.133 Y154.832 E10.43763
G1 X168.848 Y155.284 E10.46429
G1 X168.536 Y155.756 E10.49252
G1 X168.424 Y155.92 E10.50243
G1 X168.204 Y156.232 E10.52147
G1 X168.007 Y156.502 E10.53815
G1 X167.841 Y156.722 E10.5519
G1 X167.53 Y157.121 E10.57714
G1 X167.348 Y157.346 E10.59157
G1 X166.839 Y157.946 E10.63083
G1 X166.672 Y158.135 E10.64341
G1 X166.382 Y158.449 E10.66474
G1 X166.038 Y158.808 E10.68954
G1 X165.737 Y159.11 E10.71081
G1 X165.388 Y159.448 E10.73505
G1 X165.052 Y159.757 E10.75783
G1 X164.561 Y160.188 E10.79042
G1 X164.285 Y160.421 E10.80844
G1 X164.077 Y160.59 E10.82181
G1 X163.688 Y160.896 E10.84651
G1 X163.494 Y161.044 E10.85868
G1 X163.091 Y161.34 E10.88363
G1 X162.753 Y161.578 E10.90425
G1 X162.588 Y161.69 E10.9142
G1 X162.104 Y162.009 E10.94312
G1 X161.771 Y162.219 E10.96276
G1 X161.481 Y162.394 E10.97966
G1 X160.899 Y162.728 E11.01314
G1 X160.653 Y162.863 E11.02714
G1 X160.281 Y163.058 E11.04809
G1 X160.11 Y163.145 E11.05766
G1 X159.632 Y163.38 E11.08424
G1 X159.153 Y163.599 E11.11051
G1 X158.936 Y163.694 E11.12233
G1 X158.435 Y163.904 E11.14943
G1 X158.066 Y164.05 E11.16923
G1 X157.77 Y164.162 E11.18502
G1 X157.429 Y164.284 E11.20309
G1 X157.265 Y164.34 E11.21173
G1 X156.666 Y164.535 E11.24316
G1 X156.362 Y164.627 E11.25901
G1 X155.709 Y164.809 E11.29283
G1 X155.378 Y164.892 E11.30985
G1 X154.753 Y165.034 E11.34183
G1 X154.439 Y165.1 E11.35784
G1 X153.959 Y165.191 E11.38221
G1 X153.743 Y165.228 E11.39314
G1 X153.237 Y165.307 E11.41869
G1 X152.977 Y165.343 E11.43179
G1 X152.402 Y165.412 E11.46068
G1 X152.071 Y165.445 E11.47728
G1 X151.733 Y165.473 E11.4942
G1 X151.525 Y165.487 E11.5046
G1 X151.03 Y165.514 E11.52933
G1 X150.834 Y165.522 E11.53912
G1 X150.351 Y165.534 E11.56322
G1 X149.845 Y165.535 E11.58847
G1 X149.397 Y165.526 E11.61082
G1 X149.084 Y165.514 E11.62645
G1 X148.68 Y165.493 E11.64663
G1 X140.948 Y165.018 E12.03311
G1 X140.427 Y164.988 E12.05915
G1 X140.21 Y164.973 E12.07
G1 X138.918 Y164.896 E12.13457
G1 X138.654 Y164.878 E12.14777
G1 X138.201 Y164.852 E12.17041
G1 X127.639 Y164.209 E12.69833
G1 X125.241 Y164.059 E12.8182
G1 X124.776 Y164.015 E12.8415
G1 X124.57 Y163.989 E12.85186
G1 X123.474 Y163.765 E12.90767
G1 X123.189 Y163.684 E12.92245
G1 X122.173 Y163.313 E12.97641
G1 X121.971 Y163.222 E12.98746
G1 X121.108 Y162.763 E13.03623
G1 X120.913 Y162.642 E13.04768
G1 X120.096 Y162.054 E13.0979
G1 X119.939 Y161.924 E13.10807
G1 X119.232 Y161.256 E13.1566
G1 X119.053 Y161.063 E13.16973
G1 X118.342 Y160.166 E13.22683
G1 X118.214 Y159.976 E13.23826
G1 X117.713 Y159.112 E13.28809
G1 X117.61 Y158.903 E13.29971
G1 X117.216 Y157.938 E13.35172
G1 X117.135 Y157.691 E13.36469
G1 X116.893 Y156.744 E13.41345
G1 X116.845 Y156.487 E13.42649
G1 X116.734 Y155.595 E13.47134
G1 X116.718 Y155.342 E13.48399
G1 X116.703 Y154.874 E13.50735
G1 X116.704 Y145.094 E13.99527
G1 X116.723 Y144.563 E14.02178
G1 X116.74 Y144.327 E14.03359
G1 X116.849 Y143.488 E14.0758
G1 X116.895 Y143.244 E14.08818
G1 X117.16 Y142.236 E14.14018
G1 X117.251 Y141.968 E14.1543
G1 X117.664 Y140.988 E14.20736
G1 X117.772 Y140.776 E14.21923
G1 X118.302 Y139.893 E14.27061
G1 X118.437 Y139.7 E14.28236
G1 X119.069 Y138.917 E14.33256
G1 X119.217 Y138.757 E14.34343
G1 X120 Y138.025 E14.39691
G0 F7500 X120.251 Y138.336
G1 F1500 X120.438 Y138.185 E14.4089
G1 X121.252 Y137.618 E14.45839
G1 X121.45 Y137.5 E14.46989
G1 X122.256 Y137.088 E14.51505
G1 X122.448 Y137.005 E14.52549
G1 X123.319 Y136.695 E14.57161
G1 X123.591 Y136.618 E14.58572
G1 X124.647 Y136.405 E14.63946
G1 X124.9 Y136.374 E14.65218
G1 X125.324 Y136.335 E14.67342
G1 X148.859 Y134.897 E15.84978
G1 X149.495 Y134.872 E15.88153
G1 X149.914 Y134.865 E15.90244
G1 X150.057 Y134.864 E15.90957
G1 X150.421 Y134.867 E15.92773
G1 X151.033 Y134.887 E15.95828
G1 X151.48 Y134.911 E15.98061
G1 X151.911 Y134.943 E16.00218
G1 X152.144 Y134.964 E16.01385
G1 X152.589 Y135.012 E16.03618
G1 X153.159 Y135.086 E16.06485
G1 X153.37 Y135.117 E16.07549
G1 X153.821 Y135.191 E16.0983
G1 X154.277 Y135.276 E16.12144
G1 X154.808 Y135.386 E16.14849
G1 X155.036 Y135.437 E16.16015
G1 X155.438 Y135.535 E16.18079
G1 X155.88 Y135.653 E16.20361
G1 X156.399 Y135.803 E16.23057
G1 X156.642 Y135.877 E16.24324
G1 X157.081 Y136.021 E16.26629
G1 X157.333 Y136.107 E16.27957
G1 X157.869 Y136.303 E16.30805
G1 X158.077 Y136.383 E16.31917
G1 X158.464 Y136.54 E16.34
G1 X158.959 Y136.753 E16.36689
G1 X159.111 Y136.821 E16.37519
G1 X159.491 Y136.997 E16.39609
G1 X160.027 Y137.26 E16.42587
G1 X160.3 Y137.402 E16.44123
G1 X160.76 Y137.652 E16.46735
G1 X161.006 Y137.791 E16.48144
G1 X161.202 Y137.906 E16.49278
G1 X161.828 Y138.289 E16.52939
G1 X162.204 Y138.533 E16.55176
G1 X162.571 Y138.782 E16.57388
G1 X162.978 Y139.072 E16.59881
G1 X163.257 Y139.278 E16.61612
G1 X163.405 Y139.39 E16.62538
G1 X163.751 Y139.66 E16.64727
G1 X163.97 Y139.838 E16.66135
G1 X164.487 Y140.276 E16.69516
G1 X164.718 Y140.481 E16.71057
G1 X165.178 Y140.906 E16.74181
G1 X165.523 Y141.243 E16.76587
G1 X165.899 Y141.624 E16.79258
G1 X166.063 Y141.795 E16.8044
G1 X166.321 Y142.077 E16.82347
G1 X166.617 Y142.41 E16.84569
G1 X166.876 Y142.713 E16.86558
G1 X167.045 Y142.916 E16.87876
G1 X167.258 Y143.18 E16.89568
G1 X167.41 Y143.375 E16.90802
G1 X167.714 Y143.778 E16.9332
G1 X167.968 Y144.13 E16.95486
G1 X168.056 Y144.255 E16.96249
G1 X168.344 Y144.677 E16.98797
G1 X168.478 Y144.881 E17.00015
G1 X168.614 Y145.096 E17.01284
G1 X168.716 Y145.256 E17.02231
G1 X168.957 Y145.657 E17.04565
G1 X169.176 Y146.05 E17.0681
G1 X169.3 Y146.29 E17.08157
G1 X169.607 Y146.972 E17.11889
G1 X169.768 Y147.433 E17.14325
G1 X169.842 Y147.672 E17.15573
G1 X170.025 Y148.397 E17.19304
G1 X170.113 Y148.972 E17.22206
G1 X170.139 Y149.207 E17.23385
G1 X170.181 Y149.954 E17.27118
G1 X170.165 Y150.449 E17.29589
G1 X170.151 Y150.656 E17.30624
G1 X170.061 Y151.399 E17.34358
G1 X169.947 Y151.926 E17.37048
G1 X169.873 Y152.214 E17.38531
G1 X169.648 Y152.928 E17.42266
G1 X169.405 Y153.499 E17.45362
G1 X169.311 Y153.695 E17.46447
G1 X169.033 Y154.216 E17.49393
G1 X168.791 Y154.625 E17.51764
G1 X168.509 Y155.071 E17.54396
G1 X168.414 Y155.218 E17.5527
G1 X168.203 Y155.535 E17.57169
G1 X168.097 Y155.69 E17.58106
G1 X167.877 Y156.002 E17.60011
G1 X167.526 Y156.476 E17.62953
G1 X167.215 Y156.875 E17.65477
G1 X167.042 Y157.088 E17.66846
G1 X166.534 Y157.686 E17.70761
G1 X166.376 Y157.865 E17.71952
G1 X166.093 Y158.172 E17.74035
G1 X165.631 Y158.652 E17.77359
G1 X165.398 Y158.882 E17.78992
G1 X165.115 Y159.155 E17.80954
G1 X164.788 Y159.457 E17.83175
G1 X164.298 Y159.887 E17.86427
G1 X163.83 Y160.276 E17.89463
G1 X163.441 Y160.582 E17.91933
G1 X163.257 Y160.722 E17.93086
G1 X162.854 Y161.018 E17.95581
G1 X162.524 Y161.25 E17.97593
G1 X162.368 Y161.356 E17.98534
G1 X161.887 Y161.672 E18.01406
G1 X161.565 Y161.876 E18.03307
G1 X161.275 Y162.051 E18.04997
G1 X161.104 Y162.151 E18.05985
G1 X160.7 Y162.381 E18.08305
G1 X160.467 Y162.509 E18.09631
G1 X160.095 Y162.704 E18.11726
G1 X159.933 Y162.786 E18.12632
G1 X159.455 Y163.021 E18.1529
G1 X158.986 Y163.235 E18.17862
G1 X158.781 Y163.326 E18.18981
G1 X158.287 Y163.533 E18.21653
G1 X157.924 Y163.676 E18.23599
G1 X157.488 Y163.839 E18.25922
G1 X157.141 Y163.96 E18.27755
G1 X156.551 Y164.152 E18.3085
G1 X156.247 Y164.244 E18.32435
G1 X155.602 Y164.423 E18.35775
G1 X155.289 Y164.502 E18.37385
G1 X154.671 Y164.642 E18.40546
G1 X154.202 Y164.739 E18.42936
G1 X153.886 Y164.798 E18.4454
G1 X153.681 Y164.833 E18.45577
G1 X153.175 Y164.912 E18.48132
G1 X152.929 Y164.946 E18.49371
G1 X152.36 Y165.014 E18.5223
G1 X152.038 Y165.046 E18.53844
G1 X151.7 Y165.074 E18.55536
G1 X151.503 Y165.088 E18.56522
G1 X151.008 Y165.115 E18.58995
G1 X150.501 Y165.131 E18.61526
G1 X150.024 Y165.136 E18.63906
G1 X149.852 Y165.135 E18.64764
G1 X149.411 Y165.126 E18.66964
G1 X149.104 Y165.114 E18.68497
G1 X148.705 Y165.094 E18.7049
G1 X140.973 Y164.619 E19.09138
G1 X140.455 Y164.589 E19.11727
G1 X140.234 Y164.574 E19.12832
G1 X138.945 Y164.497 E19.19274
G1 X138.702 Y164.48 E19.20489
G1 X138.225 Y164.453 E19.22873
G1 X127.664 Y163.809 E19.7566
G1 X125.266 Y163.659 E19.87647
G1 X124.826 Y163.618 E19.89852
G1 X124.62 Y163.592 E19.90888
G1 X123.583 Y163.38 E19.96168
G1 X123.298 Y163.299 E19.97646
G1 X122.337 Y162.948 E20.02751
G1 X122.135 Y162.857 E20.03856
G1 X121.319 Y162.423 E20.08467
G1 X121.124 Y162.302 E20.09612
G1 X120.351 Y161.746 E20.14362
G1 X120.194 Y161.616 E20.15379
G1 X119.526 Y160.984 E20.19967
G1 X119.347 Y160.791 E20.2128
G1 X118.674 Y159.942 E20.26685
G1 X118.546 Y159.752 E20.27828
G1 X118.072 Y158.935 E20.32541
G1 X117.969 Y158.726 E20.33703
G1 X117.597 Y157.813 E20.38622
G1 X117.516 Y157.566 E20.39919
G1 X117.286 Y156.67 E20.44534
G1 X117.238 Y156.413 E20.45838
G1 X117.133 Y155.57 E20.50076
G1 X117.117 Y155.317 E20.51341
G1 X117.103 Y154.874 E20.53552
G1 X117.104 Y145.094 E21.02345
G1 X117.122 Y144.592 E21.04851
G1 X117.139 Y144.356 E21.06032
G1 X117.242 Y143.562 E21.10026
G1 X117.288 Y143.318 E21.11265
G1 X117.539 Y142.364 E21.16186
G1 X117.63 Y142.096 E21.17598
G1 X118.021 Y141.17 E21.22613
G1 X118.129 Y140.958 E21.238
G1 X118.63 Y140.123 E21.28658
G1 X118.765 Y139.93 E21.29833
G1 X119.362 Y139.189 E21.34581
G1 X119.51 Y139.029 E21.35668
G1 X120.251 Y138.336 E21.4073
G0 F7500 X120.503 Y138.647
G1 F1500 X120.69 Y138.496 E21.41929
G1 X121.457 Y137.961 E21.46594
G1 X121.655 Y137.843 E21.47744
G1 X122.415 Y137.455 E21.52002
G1 X122.607 Y137.372 E21.53045
G1 X123.428 Y137.08 E21.57392
G1 X123.7 Y137.003 E21.58803
G1 X124.695 Y136.802 E21.63867
G1 X124.948 Y136.771 E21.65139
G1 X125.348 Y136.734 E21.67143
G1 X148.883 Y135.296 E22.84778
G1 X149.045 Y135.288 E22.85588
G1 X149.671 Y135.267 E22.88713
G1 X150.053 Y135.264 E22.90618
G1 X150.417 Y135.267 E22.92434
G1 X150.602 Y135.271 E22.93358
G1 X151.014 Y135.287 E22.95415
G1 X151.451 Y135.31 E22.97598
G1 X151.882 Y135.342 E22.99754
G1 X152.101 Y135.362 E23.00851
G1 X152.707 Y135.429 E23.03893
G1 X153.106 Y135.482 E23.05901
G1 X153.306 Y135.512 E23.0691
G1 X153.757 Y135.586 E23.0919
G1 X154.202 Y135.669 E23.11449
G1 X154.727 Y135.777 E23.14123
G1 X154.941 Y135.826 E23.15218
G1 X155.343 Y135.924 E23.17282
G1 X155.775 Y136.039 E23.19513
G1 X156.287 Y136.187 E23.22172
G1 X156.518 Y136.257 E23.23376
G1 X156.952 Y136.4 E23.25656
G1 X157.357 Y136.54 E23.27793
G1 X157.731 Y136.678 E23.29782
G1 X157.927 Y136.754 E23.30831
G1 X158.314 Y136.911 E23.32915
G1 X158.799 Y137.12 E23.35549
G1 X158.943 Y137.184 E23.36336
G1 X159.323 Y137.36 E23.38425
G1 X159.735 Y137.561 E23.40712
G1 X160.11 Y137.754 E23.42816
G1 X160.563 Y138 E23.45388
G1 X160.809 Y138.139 E23.46797
G1 X160.994 Y138.248 E23.47869
G1 X161.472 Y138.539 E23.50661
G1 X161.869 Y138.792 E23.53009
G1 X162.213 Y139.021 E23.55071
G1 X162.63 Y139.314 E23.57614
G1 X163.019 Y139.599 E23.6002
G1 X163.505 Y139.976 E23.63088
G1 X163.711 Y140.143 E23.64411
G1 X164.228 Y140.581 E23.67792
G1 X164.446 Y140.774 E23.69244
G1 X164.9 Y141.193 E23.72327
G1 X165.239 Y141.524 E23.7469
G1 X165.615 Y141.905 E23.77361
G1 X165.769 Y142.066 E23.78472
G1 X166.023 Y142.343 E23.80347
G1 X166.313 Y142.67 E23.82528
G1 X166.568 Y142.969 E23.84489
G1 X166.737 Y143.172 E23.85806
G1 X166.947 Y143.432 E23.87474
G1 X167.091 Y143.616 E23.88639
G1 X167.395 Y144.019 E23.91158
G1 X167.643 Y144.362 E23.9327
G1 X168.013 Y144.903 E23.96539
G1 X168.14 Y145.095 E23.97688
G1 X168.276 Y145.31 E23.98957
G1 X168.373 Y145.462 E23.99857
G1 X168.614 Y145.863 E24.02191
G1 X168.821 Y146.233 E24.04306
G1 X168.945 Y146.473 E24.05654
G1 X169.242 Y147.136 E24.09278
G1 X169.386 Y147.551 E24.1147
G1 X169.46 Y147.79 E24.12718
G1 X169.636 Y148.495 E24.16343
G1 X169.715 Y149.016 E24.18972
G1 X169.741 Y149.251 E24.20152
G1 X169.781 Y149.976 E24.23774
G1 X169.766 Y150.422 E24.26001
G1 X169.752 Y150.629 E24.27036
G1 X169.663 Y151.35 E24.3066
G1 X169.559 Y151.826 E24.33091
G1 X169.485 Y152.114 E24.34574
G1 X169.266 Y152.807 E24.382
G1 X169.044 Y153.326 E24.41017
G1 X168.95 Y153.522 E24.42101
G1 X168.688 Y154.013 E24.44878
G1 X168.448 Y154.417 E24.47222
G1 X168.171 Y154.857 E24.49816
G1 X168.081 Y154.996 E24.50642
G1 X167.87 Y155.313 E24.52542
G1 X167.77 Y155.459 E24.53425
G1 X167.55 Y155.771 E24.55329
G1 X167.211 Y156.23 E24.58176
G1 X166.9 Y156.629 E24.607
G1 X166.737 Y156.83 E24.61991
G1 X166.23 Y157.427 E24.65899
G1 X166.081 Y157.595 E24.67019
G1 X165.804 Y157.895 E24.69056
G1 X165.349 Y158.368 E24.72331
G1 X165.119 Y158.596 E24.73946
G1 X164.842 Y158.863 E24.75866
G1 X164.523 Y159.157 E24.7803
G1 X164.035 Y159.586 E24.81272
G1 X163.583 Y159.961 E24.84202
G1 X163.194 Y160.267 E24.86671
G1 X163.02 Y160.399 E24.87761
G1 X162.617 Y160.695 E24.90255
G1 X162.295 Y160.922 E24.92221
G1 X162.148 Y161.022 E24.93108
G1 X161.671 Y161.336 E24.95957
G1 X161.358 Y161.534 E24.97805
G1 X161.068 Y161.709 E24.99495
G1 X160.907 Y161.803 E25.00425
G1 X160.501 Y162.034 E25.02755
G1 X160.281 Y162.155 E25.04008
G1 X159.909 Y162.35 E25.06103
G1 X159.757 Y162.427 E25.06953
G1 X159.279 Y162.662 E25.09611
G1 X158.625 Y162.958 E25.13192
G1 X158.14 Y163.161 E25.15815
G1 X157.783 Y163.302 E25.1773
G1 X157.487 Y163.414 E25.19309
G1 X157.162 Y163.53 E25.21031
G1 X157.016 Y163.58 E25.21801
G1 X156.435 Y163.769 E25.24849
G1 X156.131 Y163.861 E25.26433
G1 X155.495 Y164.038 E25.29727
G1 X155.2 Y164.112 E25.31244
G1 X154.589 Y164.251 E25.3437
G1 X154.128 Y164.346 E25.36719
G1 X153.812 Y164.405 E25.38323
G1 X153.619 Y164.438 E25.39299
G1 X153.113 Y164.517 E25.41854
G1 X152.881 Y164.549 E25.43023
G1 X152.317 Y164.616 E25.45856
G1 X152.005 Y164.647 E25.47421
G1 X151.667 Y164.675 E25.49113
G1 X151.481 Y164.688 E25.50043
G1 X150.986 Y164.715 E25.52516
G1 X150.489 Y164.731 E25.54997
G1 X150.346 Y164.734 E25.55711
G1 X149.86 Y164.735 E25.58135
G1 X149.425 Y164.726 E25.60306
G1 X149.124 Y164.715 E25.61809
G1 X148.729 Y164.695 E25.63782
G1 X140.997 Y164.22 E26.0243
G1 X140.482 Y164.19 E26.05003
G1 X140.207 Y164.171 E26.06379
G1 X138.972 Y164.098 E26.12551
G1 X138.678 Y164.078 E26.14021
G1 X138.249 Y164.054 E26.16165
G1 X127.689 Y163.41 E26.68947
G1 X125.291 Y163.26 E26.80934
G1 X124.877 Y163.221 E26.83008
G1 X124.671 Y163.195 E26.84044
G1 X123.693 Y162.996 E26.89023
G1 X123.408 Y162.915 E26.90502
G1 X122.501 Y162.584 E26.95318
G1 X122.299 Y162.493 E26.96424
G1 X121.53 Y162.083 E27.00772
G1 X121.335 Y161.962 E27.01917
G1 X120.606 Y161.438 E27.06396
G1 X120.449 Y161.308 E27.07413
G1 X119.819 Y160.712 E27.11739
G1 X119.64 Y160.519 E27.13052
G1 X119.005 Y159.719 E27.18148
G1 X118.877 Y159.529 E27.19291
G1 X118.431 Y158.759 E27.23731
G1 X118.328 Y158.55 E27.24893
G1 X117.977 Y157.689 E27.29532
G1 X117.896 Y157.442 E27.30829
G1 X117.679 Y156.597 E27.35181
G1 X117.631 Y156.34 E27.36486
G1 X117.532 Y155.545 E27.40482
G1 X117.516 Y155.292 E27.41747
G1 X117.503 Y154.874 E27.43834
G1 X117.504 Y145.094 E27.92626
G1 X117.521 Y144.621 E27.94988
G1 X117.538 Y144.385 E27.96168
G1 X117.635 Y143.636 E27.99936
G1 X117.681 Y143.392 E28.01175
G1 X117.917 Y142.493 E28.05812
G1 X118.008 Y142.225 E28.07224
G1 X118.377 Y141.351 E28.11957
G1 X118.485 Y141.139 E28.13144
G1 X118.958 Y140.352 E28.17725
G1 X119.093 Y140.159 E28.189
G1 X119.656 Y139.46 E28.23378
G1 X119.804 Y139.3 E28.24465
G1 X120.503 Y138.647 E28.29237
G0 F7500 X120.754 Y138.958
G1 F1500 X120.941 Y138.807 E28.30437
G1 X121.662 Y138.305 E28.3482
G1 X121.86 Y138.187 E28.3597
G1 X122.574 Y137.822 E28.3997
G1 X122.766 Y137.739 E28.41014
G1 X123.537 Y137.464 E28.45098
G1 X123.809 Y137.387 E28.46508
G1 X124.744 Y137.199 E28.51266
G1 X124.997 Y137.168 E28.52538
G1 X125.373 Y137.134 E28.54421
G1 X149.059 Y135.688 E29.72811
G1 X149.676 Y135.667 E29.75891
G1 X150.05 Y135.664 E29.77757
G1 X150.414 Y135.667 E29.79573
G1 X150.588 Y135.671 E29.80442
G1 X150.994 Y135.686 E29.82469
G1 X151.262 Y135.699 E29.83807
G1 X151.852 Y135.741 E29.86758
G1 X152.058 Y135.76 E29.8779
G1 X152.654 Y135.826 E29.90782
G1 X153.053 Y135.879 E29.9279
G1 X153.241 Y135.907 E29.93738
G1 X153.692 Y135.981 E29.96018
G1 X154.127 Y136.062 E29.98226
G1 X154.645 Y136.169 E30.00865
G1 X154.846 Y136.214 E30.01892
G1 X155.248 Y136.312 E30.03957
G1 X155.671 Y136.425 E30.06141
G1 X156.175 Y136.571 E30.08759
G1 X156.393 Y136.638 E30.09897
G1 X156.822 Y136.778 E30.12148
G1 X157.218 Y136.915 E30.14239
G1 X157.592 Y137.053 E30.16228
G1 X157.777 Y137.125 E30.17218
G1 X158.164 Y137.282 E30.19302
G1 X158.64 Y137.487 E30.21887
G1 X158.775 Y137.547 E30.22624
G1 X159.289 Y137.787 E30.25454
G1 X159.66 Y137.971 E30.2752
G1 X159.92 Y138.107 E30.28984
G1 X160.366 Y138.348 E30.31513
G1 X160.612 Y138.487 E30.32923
G1 X160.786 Y138.589 E30.33929
G1 X161.264 Y138.88 E30.36721
G1 X161.653 Y139.128 E30.39023
G1 X161.99 Y139.353 E30.41044
G1 X162.399 Y139.64 E30.43537
G1 X162.782 Y139.921 E30.45907
G1 X163.259 Y140.291 E30.48919
G1 X163.453 Y140.448 E30.50164
G1 X163.97 Y140.886 E30.53545
G1 X164.174 Y141.068 E30.54908
G1 X164.621 Y141.48 E30.57941
G1 X164.954 Y141.805 E30.60263
G1 X165.33 Y142.186 E30.62933
G1 X165.474 Y142.338 E30.63978
G1 X165.725 Y142.61 E30.65824
G1 X166.009 Y142.93 E30.67959
G1 X166.261 Y143.225 E30.69895
G1 X166.43 Y143.428 E30.71212
G1 X166.772 Y143.857 E30.7395
G1 X167.076 Y144.26 E30.76468
G1 X167.318 Y144.595 E30.7853
G1 X167.683 Y145.128 E30.81753
G1 X167.802 Y145.309 E30.82834
G1 X167.938 Y145.524 E30.84103
G1 X168.03 Y145.668 E30.84955
G1 X168.271 Y146.069 E30.87289
G1 X168.465 Y146.417 E30.89277
G1 X168.589 Y146.657 E30.90625
G1 X168.876 Y147.3 E30.94138
G1 X169.004 Y147.669 E30.96086
G1 X169.078 Y147.908 E30.97335
G1 X169.247 Y148.591 E31.00845
G1 X169.317 Y149.06 E31.03211
G1 X169.343 Y149.295 E31.0439
G1 X169.381 Y149.998 E31.07903
G1 X169.367 Y150.395 E31.09884
G1 X169.353 Y150.602 E31.1092
G1 X169.266 Y151.301 E31.14434
G1 X169.172 Y151.727 E31.1661
G1 X169.098 Y152.015 E31.18094
G1 X168.884 Y152.686 E31.21608
G1 X168.683 Y153.153 E31.24144
G1 X168.589 Y153.349 E31.25229
G1 X168.344 Y153.811 E31.27838
G1 X168.163 Y154.116 E31.29607
G1 X167.924 Y154.499 E31.31859
G1 X167.748 Y154.774 E31.33488
G1 X167.443 Y155.229 E31.36221
G1 X167.223 Y155.541 E31.38126
G1 X166.895 Y155.985 E31.4088
G1 X166.584 Y156.384 E31.43403
G1 X166.431 Y156.572 E31.44613
G1 X165.926 Y157.167 E31.48506
G1 X165.786 Y157.326 E31.49563
G1 X165.516 Y157.619 E31.51551
G1 X165.067 Y158.085 E31.54779
G1 X164.841 Y158.309 E31.56367
G1 X164.569 Y158.57 E31.58248
G1 X164.259 Y158.857 E31.60355
G1 X163.772 Y159.284 E31.63587
G1 X163.335 Y159.647 E31.66421
G1 X162.946 Y159.953 E31.6889
G1 X162.783 Y160.077 E31.69912
G1 X162.38 Y160.373 E31.72407
G1 X162.066 Y160.594 E31.74322
G1 X161.928 Y160.688 E31.75155
G1 X161.455 Y160.999 E31.77979
G1 X161.151 Y161.191 E31.79773
G1 X160.71 Y161.455 E31.82338
G1 X160.302 Y161.687 E31.84679
G1 X160.095 Y161.8 E31.85856
G1 X159.58 Y162.068 E31.88752
G1 X159.102 Y162.303 E31.9141
G1 X158.651 Y162.509 E31.93883
G1 X158.469 Y162.589 E31.94875
G1 X157.992 Y162.789 E31.97455
G1 X157.641 Y162.928 E31.99339
G1 X157.221 Y163.085 E32.01576
G1 X156.891 Y163.2 E32.03319
G1 X156.319 Y163.386 E32.0632
G1 X156.015 Y163.478 E32.07905
G1 X155.388 Y163.652 E32.11151
G1 X155.111 Y163.722 E32.12577
G1 X154.506 Y163.859 E32.15671
G1 X154.055 Y163.953 E32.1797
G1 X153.739 Y164.012 E32.19574
G1 X153.557 Y164.043 E32.20495
G1 X153.051 Y164.122 E32.2305
G1 X152.834 Y164.152 E32.24143
G1 X152.275 Y164.218 E32.26951
G1 X151.972 Y164.249 E32.2847
G1 X151.634 Y164.277 E32.30162
G1 X151.46 Y164.289 E32.31033
G1 X150.965 Y164.316 E32.33506
G1 X150.8 Y164.323 E32.3433
G1 X150.343 Y164.334 E32.3661
G1 X149.867 Y164.335 E32.38985
G1 X149.439 Y164.326 E32.41121
G1 X149.144 Y164.315 E32.42594
G1 X148.754 Y164.295 E32.44542
G1 X141.055 Y163.822 E32.83025
G1 X140.51 Y163.791 E32.85748
G1 X140.265 Y163.774 E32.86974
G1 X138.999 Y163.699 E32.93301
G1 X138.712 Y163.679 E32.94736
G1 X138.274 Y163.655 E32.96924
G1 X127.714 Y163.011 E33.49706
G1 X125.316 Y162.861 E33.61693
G1 X124.927 Y162.824 E33.63643
G1 X124.721 Y162.798 E33.64679
G1 X123.802 Y162.611 E33.69358
G1 X123.517 Y162.53 E33.70836
G1 X122.665 Y162.219 E33.75361
G1 X122.463 Y162.128 E33.76466
G1 X121.741 Y161.743 E33.80548
G1 X121.546 Y161.622 E33.81693
G1 X120.861 Y161.129 E33.85904
G1 X120.704 Y160.999 E33.86921
G1 X120.112 Y160.44 E33.90983
G1 X119.933 Y160.247 E33.92296
G1 X119.337 Y159.495 E33.97083
G1 X119.209 Y159.305 E33.98226
G1 X118.79 Y158.582 E34.02395
G1 X118.687 Y158.373 E34.03558
G1 X118.357 Y157.564 E34.07917
G1 X118.276 Y157.317 E34.09214
G1 X118.072 Y156.523 E34.13304
G1 X118.024 Y156.266 E34.14608
G1 X117.931 Y155.519 E34.18364
G1 X117.915 Y155.266 E34.19628
G1 X117.903 Y154.874 E34.21585
G1 X117.904 Y145.094 E34.70377
G1 X117.92 Y144.65 E34.72594
G1 X117.937 Y144.414 E34.73775
G1 X118.028 Y143.71 E34.77316
G1 X118.074 Y143.466 E34.78555
G1 X118.296 Y142.622 E34.82909
G1 X118.387 Y142.354 E34.84321
G1 X118.734 Y141.533 E34.88768
G1 X118.842 Y141.321 E34.89955
G1 X119.286 Y140.581 E34.9426
G1 X119.421 Y140.388 E34.95435
G1 X119.95 Y139.732 E34.99639
G1 X120.098 Y139.572 E35.00727
G1 X120.754 Y138.958 E35.0521
G0 F7500 X121.005 Y139.269
G1 F1500 X121.192 Y139.118 E35.06409
G1 X121.867 Y138.649 E35.10509
G1 X122.065 Y138.531 E35.11659
G1 X122.733 Y138.189 E35.15403
G1 X122.925 Y138.106 E35.16447
G1 X123.646 Y137.849 E35.20266
G1 X123.918 Y137.772 E35.21676
G1 X124.793 Y137.596 E35.26129
G1 X125.046 Y137.565 E35.274
G1 X125.397 Y137.533 E35.29159
G1 X148.932 Y136.095 E36.46794
G1 X149.539 Y136.071 E36.49825
G1 X149.929 Y136.064 E36.51771
G1 X150.411 Y136.067 E36.54176
G1 X150.904 Y136.083 E36.56637
G1 X151.243 Y136.099 E36.5833
G1 X151.391 Y136.108 E36.5907
G1 X151.822 Y136.14 E36.61226
G1 X152.015 Y136.157 E36.62193
G1 X152.46 Y136.205 E36.64425
G1 X153.001 Y136.276 E36.67148
G1 X153.176 Y136.302 E36.6803
G1 X153.774 Y136.402 E36.71055
G1 X154.151 Y136.474 E36.7297
G1 X154.563 Y136.56 E36.7507
G1 X154.752 Y136.603 E36.76037
G1 X155.154 Y136.701 E36.78101
G1 X155.566 Y136.811 E36.80229
G1 X156.062 Y136.955 E36.82805
G1 X156.269 Y137.018 E36.83885
G1 X156.693 Y137.157 E36.86111
G1 X157.08 Y137.291 E36.88154
G1 X157.454 Y137.429 E36.90143
G1 X157.626 Y137.495 E36.91062
G1 X158.144 Y137.707 E36.93855
G1 X158.607 Y137.91 E36.96377
G1 X158.987 Y138.086 E36.98466
G1 X159.382 Y138.279 E37.00659
G1 X159.731 Y138.459 E37.02618
G1 X160.169 Y138.696 E37.05103
G1 X160.415 Y138.835 E37.06513
G1 X160.578 Y138.931 E37.07457
G1 X161.178 Y139.298 E37.10965
G1 X161.534 Y139.529 E37.13083
G1 X161.878 Y139.762 E37.15156
G1 X162.265 Y140.037 E37.17524
G1 X162.667 Y140.336 E37.20024
G1 X163.013 Y140.606 E37.22213
G1 X163.194 Y140.754 E37.2338
G1 X163.711 Y141.192 E37.2676
G1 X163.903 Y141.361 E37.28036
G1 X164.343 Y141.767 E37.31023
G1 X164.669 Y142.086 E37.33299
G1 X165.045 Y142.467 E37.35969
G1 X165.18 Y142.609 E37.36947
G1 X165.427 Y142.877 E37.38765
G1 X165.705 Y143.19 E37.40854
G1 X165.953 Y143.481 E37.42761
G1 X166.122 Y143.684 E37.44079
G1 X166.326 Y143.936 E37.45697
G1 X166.452 Y144.098 E37.46721
G1 X166.756 Y144.501 E37.49239
G1 X166.992 Y144.828 E37.51251
G1 X167.353 Y145.354 E37.54434
G1 X167.464 Y145.522 E37.55438
G1 X167.6 Y145.737 E37.56708
G1 X167.687 Y145.874 E37.57517
G1 X167.928 Y146.275 E37.59851
G1 X168.11 Y146.601 E37.61714
G1 X168.234 Y146.841 E37.63062
G1 X168.51 Y147.463 E37.66457
G1 X168.622 Y147.788 E37.68172
G1 X168.696 Y148.027 E37.6942
G1 X168.858 Y148.688 E37.72815
G1 X168.92 Y149.104 E37.74914
G1 X168.946 Y149.339 E37.76093
G1 X168.981 Y150.019 E37.7949
G1 X168.968 Y150.368 E37.81233
G1 X168.954 Y150.575 E37.82268
G1 X168.868 Y151.251 E37.85667
G1 X168.785 Y151.627 E37.87588
G1 X168.711 Y151.915 E37.89072
G1 X168.503 Y152.564 E37.92472
G1 X168.323 Y152.98 E37.94733
G1 X168.229 Y153.176 E37.95818
G1 X167.999 Y153.608 E37.9826
G1 X167.821 Y153.908 E38
G1 X167.587 Y154.284 E38.02209
G1 X167.415 Y154.553 E38.03802
G1 X167.204 Y154.87 E38.05702
G1 X166.896 Y155.31 E38.08382
G1 X166.58 Y155.739 E38.1104
G1 X166.269 Y156.138 E38.13564
G1 X166.126 Y156.314 E38.14695
G1 X165.621 Y156.907 E38.18581
G1 X165.49 Y157.056 E38.19571
G1 X165.227 Y157.342 E38.21509
G1 X164.785 Y157.801 E38.24689
G1 X164.562 Y158.022 E38.26255
G1 X164.297 Y158.278 E38.28093
G1 X163.995 Y158.556 E38.30141
G1 X163.509 Y158.983 E38.33369
G1 X163.088 Y159.333 E38.361
G1 X162.699 Y159.639 E38.38569
G1 X162.546 Y159.755 E38.39527
G1 X162.143 Y160.051 E38.42022
G1 X161.837 Y160.266 E38.43888
G1 X161.708 Y160.354 E38.44667
G1 X161.238 Y160.663 E38.47473
G1 X160.945 Y160.849 E38.49204
G1 X160.655 Y161.024 E38.50894
G1 X160.103 Y161.34 E38.54067
G1 X159.91 Y161.446 E38.55166
G1 X159.538 Y161.641 E38.57261
G1 X159.404 Y161.709 E38.58011
G1 X158.926 Y161.944 E38.60668
G1 X158.313 Y162.221 E38.64024
G1 X157.844 Y162.418 E38.66562
G1 X157.5 Y162.554 E38.68408
G1 X157.204 Y162.666 E38.69987
G1 X156.767 Y162.82 E38.72298
G1 X156.331 Y162.963 E38.74588
G1 X155.899 Y163.095 E38.76841
G1 X155.281 Y163.267 E38.80042
G1 X155.022 Y163.332 E38.81374
G1 X154.424 Y163.468 E38.84433
G1 X153.982 Y163.559 E38.86685
G1 X153.496 Y163.648 E38.8915
G1 X152.99 Y163.727 E38.91705
G1 X152.786 Y163.755 E38.92732
G1 X152.233 Y163.821 E38.95511
G1 X151.939 Y163.85 E38.96985
G1 X151.601 Y163.878 E38.98677
G1 X151.438 Y163.889 E38.99492
G1 X150.789 Y163.923 E39.02734
G1 X150.341 Y163.934 E39.0497
G1 X149.874 Y163.935 E39.073
G1 X149.453 Y163.926 E39.094
G1 X149.164 Y163.916 E39.10843
G1 X148.778 Y163.896 E39.12771
G1 X141.078 Y163.423 E39.51259
G1 X140.538 Y163.392 E39.53958
G1 X140.305 Y163.376 E39.55123
G1 X139.026 Y163.3 E39.61515
G1 X138.759 Y163.282 E39.6285
G1 X127.739 Y162.612 E40.17931
G1 X125.341 Y162.462 E40.29918
G1 X124.977 Y162.427 E40.31742
G1 X124.771 Y162.401 E40.32778
G1 X123.911 Y162.226 E40.37157
G1 X123.626 Y162.145 E40.38635
G1 X122.83 Y161.854 E40.42863
G1 X122.628 Y161.763 E40.43968
G1 X121.952 Y161.403 E40.47789
G1 X121.757 Y161.282 E40.48934
G1 X121.116 Y160.821 E40.52874
G1 X120.959 Y160.691 E40.5389
G1 X120.405 Y160.168 E40.57691
G1 X120.226 Y159.975 E40.59005
G1 X119.669 Y159.272 E40.63479
G1 X119.541 Y159.082 E40.64622
G1 X119.148 Y158.405 E40.68528
G1 X119.045 Y158.196 E40.6969
G1 X118.737 Y157.439 E40.73768
G1 X118.656 Y157.192 E40.75064
G1 X118.466 Y156.45 E40.78886
G1 X118.418 Y156.193 E40.8019
G1 X118.331 Y155.494 E40.83704
G1 X118.315 Y155.241 E40.84969
G1 X118.303 Y154.874 E40.86801
G1 X118.304 Y145.094 E41.35594
G1 X118.319 Y144.678 E41.3767
G1 X118.336 Y144.442 E41.38851
G1 X118.421 Y143.784 E41.42161
G1 X118.467 Y143.54 E41.434
G1 X118.675 Y142.75 E41.47475
G1 X118.766 Y142.482 E41.48887
G1 X119.09 Y141.714 E41.53046
G1 X119.198 Y141.502 E41.54233
G1 X119.613 Y140.811 E41.58254
G1 X119.748 Y140.618 E41.59429
G1 X120.243 Y140.004 E41.63364
G1 X120.391 Y139.844 E41.64452
G1 X121.005 Y139.269 E41.68648
G0 F7500 X121.257 Y139.581
G1 F1500 X121.444 Y139.43 E41.69847
G1 X122.072 Y138.992 E41.73667
G1 X122.27 Y138.874 E41.74817
G1 X122.891 Y138.556 E41.78298
G1 X123.083 Y138.473 E41.79342
G1 X123.755 Y138.234 E41.829
G1 X124.027 Y138.157 E41.8431
G1 X124.841 Y137.993 E41.88453
G1 X125.094 Y137.962 E41.89725
G1 X125.422 Y137.932 E41.91368
G1 X148.957 Y136.494 E43.09003
G1 X149.554 Y136.471 E43.11984
G1 X149.934 Y136.464 E43.1388
G1 X150.408 Y136.467 E43.16245
G1 X150.956 Y136.485 E43.1898
G1 X151.224 Y136.498 E43.20319
G1 X151.793 Y136.539 E43.23165
G1 X151.972 Y136.555 E43.24062
G1 X152.549 Y136.619 E43.26958
G1 X152.948 Y136.672 E43.28966
G1 X153.111 Y136.696 E43.29788
G1 X153.562 Y136.77 E43.32068
G1 X154.069 Y136.866 E43.34643
G1 X154.481 Y136.952 E43.36743
G1 X154.657 Y136.992 E43.37643
G1 X155.196 Y137.125 E43.40413
G1 X155.56 Y137.225 E43.42296
G1 X156.145 Y137.398 E43.4534
G1 X156.564 Y137.535 E43.47539
G1 X156.816 Y137.621 E43.48867
G1 X157.315 Y137.804 E43.51519
G1 X157.476 Y137.866 E43.5238
G1 X157.985 Y138.074 E43.55123
G1 X158.321 Y138.22 E43.56951
G1 X158.818 Y138.449 E43.59681
G1 X159.205 Y138.638 E43.61829
G1 X159.454 Y138.765 E43.63224
G1 X159.877 Y138.992 E43.65619
G1 X160.218 Y139.184 E43.67571
G1 X160.37 Y139.273 E43.6845
G1 X160.962 Y139.635 E43.71912
G1 X161.311 Y139.861 E43.73986
G1 X161.647 Y140.088 E43.76009
G1 X162.028 Y140.359 E43.78342
G1 X162.307 Y140.565 E43.80072
G1 X162.767 Y140.922 E43.82977
G1 X162.936 Y141.059 E43.84063
G1 X163.453 Y141.497 E43.87443
G1 X163.748 Y141.763 E43.89425
G1 X164.064 Y142.054 E43.91568
G1 X164.385 Y142.367 E43.93805
G1 X164.761 Y142.748 E43.96475
G1 X164.886 Y142.88 E43.97382
G1 X165.129 Y143.144 E43.99173
G1 X165.401 Y143.45 E44.01215
G1 X165.646 Y143.737 E44.03098
G1 X165.815 Y143.94 E44.04416
G1 X166.133 Y144.339 E44.06961
G1 X166.519 Y144.853 E44.10168
G1 X166.734 Y145.157 E44.12026
G1 X167.022 Y145.579 E44.14575
G1 X167.126 Y145.736 E44.15514
G1 X167.262 Y145.951 E44.16783
G1 X167.344 Y146.08 E44.17546
G1 X167.585 Y146.481 E44.1988
G1 X167.754 Y146.784 E44.21611
G1 X167.878 Y147.024 E44.22959
G1 X168.239 Y147.906 E44.27713
G1 X168.313 Y148.145 E44.28961
G1 X168.469 Y148.783 E44.32238
G1 X168.522 Y149.148 E44.34078
G1 X168.548 Y149.383 E44.35258
G1 X168.569 Y150.341 E44.40039
G1 X168.555 Y150.548 E44.41074
G1 X168.471 Y151.2 E44.44353
G1 X168.397 Y151.528 E44.46031
G1 X168.323 Y151.816 E44.47514
G1 X168.121 Y152.441 E44.50791
G1 X167.962 Y152.807 E44.52782
G1 X167.868 Y153.003 E44.53867
G1 X167.654 Y153.405 E44.56139
G1 X167.479 Y153.701 E44.57854
G1 X167.25 Y154.069 E44.60017
G1 X167.082 Y154.331 E44.61569
G1 X166.789 Y154.768 E44.64194
G1 X166.569 Y155.08 E44.66099
G1 X166.264 Y155.493 E44.6866
G1 X165.953 Y155.892 E44.71184
G1 X165.82 Y156.056 E44.72238
G1 X165.317 Y156.648 E44.76113
G1 X165.195 Y156.786 E44.77032
G1 X164.938 Y157.065 E44.78925
G1 X164.594 Y157.424 E44.81405
G1 X164.283 Y157.735 E44.836
G1 X164.024 Y157.985 E44.85396
G1 X163.73 Y158.256 E44.8739
G1 X163.245 Y158.682 E44.90611
G1 X162.841 Y159.018 E44.93233
G1 X162.452 Y159.324 E44.95702
G1 X162.31 Y159.432 E44.96592
G1 X161.801 Y159.804 E44.99737
G1 X161.488 Y160.02 E45.01634
G1 X161.022 Y160.326 E45.04416
G1 X160.738 Y160.506 E45.06093
G1 X160.448 Y160.681 E45.07783
G1 X159.904 Y160.993 E45.10912
G1 X159.724 Y161.092 E45.11937
G1 X159.352 Y161.287 E45.14032
G1 X158.749 Y161.585 E45.17388
G1 X158.158 Y161.852 E45.20623
G1 X157.696 Y162.046 E45.23123
G1 X157.358 Y162.18 E45.24937
G1 X156.954 Y162.331 E45.27089
G1 X156.642 Y162.44 E45.28738
G1 X156.087 Y162.621 E45.3165
G1 X155.783 Y162.713 E45.33235
G1 X155.174 Y162.881 E45.36387
G1 X154.933 Y162.942 E45.37627
G1 X154.342 Y163.077 E45.40651
G1 X154.028 Y163.143 E45.42252
G1 X153.592 Y163.225 E45.44465
G1 X153.434 Y163.252 E45.45265
G1 X152.928 Y163.331 E45.4782
G1 X152.738 Y163.358 E45.48778
G1 X152.191 Y163.423 E45.51526
G1 X151.906 Y163.452 E45.52955
G1 X151.568 Y163.48 E45.54647
G1 X150.921 Y163.517 E45.5788
G1 X150.456 Y163.532 E45.60201
G1 X150.014 Y163.536 E45.62407
G1 X149.467 Y163.527 E45.65136
G1 X149.184 Y163.516 E45.66549
G1 X148.803 Y163.497 E45.68452
G1 X141.1 Y163.024 E46.06955
G1 X140.565 Y162.993 E46.09628
G1 X140.276 Y162.973 E46.11074
G1 X139.054 Y162.901 E46.17181
G1 X138.76 Y162.881 E46.18651
G1 X138.322 Y162.856 E46.2084
G1 X127.764 Y162.212 E46.73612
G1 X125.366 Y162.062 E46.85599
G1 X125.027 Y162.03 E46.87298
G1 X124.821 Y162.004 E46.88334
G1 X124.021 Y161.841 E46.92407
G1 X123.736 Y161.76 E46.93885
G1 X122.994 Y161.489 E46.97826
G1 X122.792 Y161.398 E46.98931
G1 X122.163 Y161.063 E47.02487
G1 X121.968 Y160.942 E47.03632
G1 X121.371 Y160.513 E47.07299
G1 X121.214 Y160.383 E47.08316
G1 X120.699 Y159.896 E47.11852
G1 X120.52 Y159.703 E47.13166
G1 X120 Y159.048 E47.17338
G1 X119.872 Y158.858 E47.18481
G1 X119.507 Y158.228 E47.22114
G1 X119.404 Y158.019 E47.23276
G1 X119.117 Y157.315 E47.27069
G1 X119.036 Y157.068 E47.28366
G1 X118.859 Y156.376 E47.31929
G1 X118.811 Y156.119 E47.33234
G1 X118.73 Y155.469 E47.36502
G1 X118.714 Y155.216 E47.37766
G1 X118.703 Y154.874 E47.39473
G1 X118.704 Y145.094 E47.88266
G1 X118.718 Y144.707 E47.90198
G1 X118.735 Y144.471 E47.91379
G1 X118.814 Y143.859 E47.94457
G1 X118.86 Y143.615 E47.95696
G1 X119.054 Y142.879 E47.99493
G1 X119.145 Y142.611 E48.00905
G1 X119.446 Y141.896 E48.04776
G1 X119.554 Y141.684 E48.05963
G1 X119.941 Y141.04 E48.09711
G1 X120.076 Y140.847 E48.10886
G1 X120.537 Y140.275 E48.14551
G1 X120.685 Y140.115 E48.15639
G1 X121.257 Y139.581 E48.19543
G0 F7500 X121.508 Y139.892
G1 F1500 X121.695 Y139.741 E48.20742
G1 X122.276 Y139.336 E48.24275
G1 X122.474 Y139.218 E48.25425
G1 X123.05 Y138.923 E48.28654
G1 X123.242 Y138.84 E48.29697
G1 X123.864 Y138.619 E48.32991
G1 X124.136 Y138.542 E48.34401
G1 X124.89 Y138.39 E48.38238
G1 X125.143 Y138.359 E48.3951
G1 X125.446 Y138.331 E48.41028
G1 X148.981 Y136.893 E49.58664
G1 X149.568 Y136.87 E49.61594
G1 X149.939 Y136.864 E49.63446
G1 X150.544 Y136.87 E49.66464
G1 X150.936 Y136.885 E49.68421
G1 X151.332 Y136.906 E49.704
G1 X151.763 Y136.938 E49.72556
G1 X151.929 Y136.953 E49.73387
G1 X152.374 Y137.001 E49.7562
G1 X152.895 Y137.069 E49.78242
G1 X153.047 Y137.091 E49.79008
G1 X153.624 Y137.187 E49.81926
G1 X153.988 Y137.257 E49.83776
G1 X154.4 Y137.343 E49.85875
G1 X154.562 Y137.38 E49.86704
G1 X154.964 Y137.478 E49.88769
G1 X155.356 Y137.583 E49.90793
G1 X155.838 Y137.723 E49.93297
G1 X156.021 Y137.778 E49.94251
G1 X156.435 Y137.914 E49.96425
G1 X156.803 Y138.041 E49.98367
G1 X157.177 Y138.179 E50.00356
G1 X157.326 Y138.237 E50.01154
G1 X157.826 Y138.441 E50.03848
G1 X158.162 Y138.587 E50.05675
G1 X158.65 Y138.812 E50.08356
G1 X159.11 Y139.038 E50.10913
G1 X159.351 Y139.163 E50.12268
G1 X159.776 Y139.393 E50.14679
G1 X160.022 Y139.532 E50.16088
G1 X160.162 Y139.614 E50.16898
G1 X160.64 Y139.905 E50.1969
G1 X161.003 Y140.137 E50.21839
G1 X161.32 Y140.349 E50.23742
G1 X161.706 Y140.62 E50.26095
G1 X162.069 Y140.887 E50.28343
G1 X162.175 Y140.967 E50.29005
G1 X162.521 Y141.237 E50.31195
G1 X162.677 Y141.364 E50.32198
G1 X163.194 Y141.802 E50.35579
G1 X163.498 Y142.077 E50.37624
G1 X163.785 Y142.341 E50.3957
G1 X164.1 Y142.648 E50.41764
G1 X164.476 Y143.029 E50.44435
G1 X164.592 Y143.151 E50.45275
G1 X164.831 Y143.411 E50.47036
G1 X165.097 Y143.709 E50.49029
G1 X165.339 Y143.993 E50.50891
G1 X165.508 Y144.196 E50.52209
G1 X165.814 Y144.58 E50.54658
G1 X166.118 Y144.983 E50.57177
G1 X166.404 Y145.382 E50.59626
G1 X166.692 Y145.804 E50.62175
G1 X166.788 Y145.95 E50.63047
G1 X166.924 Y146.165 E50.64316
G1 X167.002 Y146.286 E50.65034
G1 X167.243 Y146.687 E50.67368
G1 X167.399 Y146.968 E50.68972
G1 X167.523 Y147.208 E50.70319
G1 X167.857 Y148.024 E50.74718
G1 X167.931 Y148.263 E50.75966
G1 X168.08 Y148.878 E50.79123
G1 X168.125 Y149.192 E50.80706
G1 X168.151 Y149.427 E50.81886
G1 X168.17 Y150.314 E50.86312
G1 X168.156 Y150.521 E50.87347
G1 X168.01 Y151.428 E50.9193
G1 X167.936 Y151.716 E50.93414
G1 X167.74 Y152.317 E50.96568
G1 X167.601 Y152.634 E50.98294
G1 X167.507 Y152.83 E50.99379
G1 X167.309 Y153.202 E51.01481
G1 X167.08 Y153.588 E51.03721
G1 X166.817 Y154.004 E51.06176
G1 X166.538 Y154.426 E51.087
G1 X166.242 Y154.849 E51.11276
G1 X165.949 Y155.247 E51.13741
G1 X165.638 Y155.646 E51.16265
G1 X165.514 Y155.798 E51.17244
G1 X165.012 Y156.388 E51.21109
G1 X164.9 Y156.516 E51.21957
G1 X164.649 Y156.788 E51.23804
G1 X164.22 Y157.234 E51.26891
G1 X164.004 Y157.448 E51.28408
G1 X163.751 Y157.693 E51.30165
G1 X163.466 Y157.956 E51.321
G1 X162.982 Y158.381 E51.35313
G1 X162.593 Y158.704 E51.37836
G1 X162.204 Y159.01 E51.40305
G1 X162.073 Y159.11 E51.41127
G1 X161.572 Y159.476 E51.44223
G1 X161.268 Y159.686 E51.46066
G1 X160.806 Y159.99 E51.48825
G1 X160.531 Y160.164 E51.50449
G1 X160.241 Y160.339 E51.52139
G1 X159.705 Y160.646 E51.5522
G1 X159.538 Y160.737 E51.56169
G1 X159.051 Y160.991 E51.58909
G1 X158.573 Y161.226 E51.61567
G1 X158.002 Y161.484 E51.64693
G1 X157.548 Y161.674 E51.67148
G1 X157.216 Y161.805 E51.68929
G1 X156.82 Y161.954 E51.7104
G1 X156.517 Y162.06 E51.72641
G1 X155.971 Y162.238 E51.75506
G1 X155.667 Y162.33 E51.77091
G1 X155.067 Y162.496 E51.80197
G1 X154.844 Y162.552 E51.81344
G1 X154.259 Y162.685 E51.84337
G1 X153.835 Y162.773 E51.86497
G1 X153.519 Y162.832 E51.88101
G1 X153.372 Y162.857 E51.88845
G1 X152.866 Y162.936 E51.914
G1 X152.691 Y162.96 E51.92281
G1 X152.148 Y163.025 E51.9501
G1 X151.873 Y163.053 E51.96389
G1 X151.394 Y163.091 E51.98786
G1 X150.899 Y163.118 E52.01259
G1 X150.445 Y163.132 E52.03525
G1 X150.012 Y163.136 E52.05686
G1 X149.481 Y163.127 E52.08335
G1 X149.204 Y163.117 E52.09718
G1 X148.827 Y163.098 E52.11601
G1 X141.095 Y162.622 E52.50249
G1 X140.593 Y162.594 E52.52758
G1 X140.313 Y162.575 E52.54158
G1 X139.081 Y162.501 E52.60316
G1 X138.842 Y162.485 E52.61511
G1 X138.347 Y162.457 E52.63984
G1 X127.789 Y161.813 E53.16756
G1 X125.391 Y161.663 E53.28743
G1 X125.077 Y161.634 E53.30316
G1 X124.871 Y161.608 E53.31352
G1 X124.13 Y161.457 E53.35125
G1 X123.845 Y161.376 E53.36603
G1 X123.158 Y161.125 E53.40252
G1 X122.956 Y161.034 E53.41358
G1 X122.374 Y160.724 E53.44647
G1 X122.179 Y160.603 E53.45792
G1 X121.626 Y160.205 E53.49192
G1 X121.469 Y160.075 E53.50209
G1 X120.992 Y159.624 E53.53484
G1 X120.813 Y159.431 E53.54797
G1 X120.332 Y158.825 E53.58657
G1 X120.204 Y158.635 E53.598
G1 X119.866 Y158.051 E53.63166
G1 X119.763 Y157.842 E53.64329
G1 X119.497 Y157.19 E53.67842
G1 X119.416 Y156.943 E53.69139
G1 X119.252 Y156.303 E53.72435
G1 X119.204 Y156.046 E53.73739
G1 X119.129 Y155.444 E53.76766
G1 X119.113 Y155.191 E53.7803
G1 X119.103 Y154.874 E53.79613
G1 X119.104 Y145.094 E54.28405
G1 X119.117 Y144.736 E54.30193
G1 X119.134 Y144.5 E54.31373
G1 X119.208 Y143.933 E54.34226
G1 X119.254 Y143.689 E54.35465
G1 X119.432 Y143.007 E54.38981
G1 X119.523 Y142.739 E54.40393
G1 X119.803 Y142.077 E54.43979
G1 X119.911 Y141.865 E54.45166
G1 X120.269 Y141.269 E54.48635
G1 X120.404 Y141.076 E54.4981
G1 X120.831 Y140.547 E54.53202
G1 X120.979 Y140.387 E54.54289
G1 X121.508 Y139.892 E54.57903
G0 F7500 X121.759 Y140.203
G1 F1500 X121.946 Y140.052 E54.59102
G1 X122.481 Y139.68 E54.62353
G1 X122.679 Y139.562 E54.63503
G1 X123.209 Y139.291 E54.66473
G1 X123.401 Y139.208 E54.67517
G1 X123.973 Y139.004 E54.70546
G1 X124.245 Y138.927 E54.71957
G1 X124.939 Y138.787 E54.75489
G1 X125.192 Y138.756 E54.76761
G1 X125.47 Y138.731 E54.78153
G1 X149.118 Y137.287 E55.96353
G1 X149.695 Y137.267 E55.99234
G1 X150.037 Y137.264 E56.0094
G1 X150.401 Y137.267 E56.02756
G1 X150.917 Y137.284 E56.05332
G1 X151.185 Y137.297 E56.0667
G1 X151.734 Y137.337 E56.09417
G1 X151.886 Y137.351 E56.10178
G1 X152.444 Y137.412 E56.12979
G1 X152.843 Y137.465 E56.14987
G1 X153.433 Y137.56 E56.17968
G1 X153.549 Y137.58 E56.18555
G1 X153.906 Y137.649 E56.20369
G1 X154.318 Y137.735 E56.22469
G1 X154.467 Y137.769 E56.23232
G1 X154.986 Y137.897 E56.25899
G1 X155.336 Y137.993 E56.27709
G1 X155.897 Y138.158 E56.30627
G1 X156.306 Y138.293 E56.32775
G1 X156.664 Y138.416 E56.34664
G1 X157.038 Y138.554 E56.36653
G1 X157.175 Y138.607 E56.37386
G1 X157.666 Y138.808 E56.40033
G1 X158.102 Y138.999 E56.42407
G1 X158.582 Y139.222 E56.45048
G1 X158.927 Y139.393 E56.46969
G1 X159.162 Y139.515 E56.4829
G1 X159.579 Y139.741 E56.50656
G1 X159.825 Y139.88 E56.52066
G1 X159.954 Y139.956 E56.52813
G1 X160.529 Y140.308 E56.56176
G1 X160.865 Y140.525 E56.58172
G1 X161.185 Y140.742 E56.60101
G1 X161.552 Y141.002 E56.62345
G1 X161.929 Y141.282 E56.64688
G1 X162.275 Y141.552 E56.66877
G1 X162.418 Y141.669 E56.67799
G1 X162.935 Y142.107 E56.7118
G1 X163.39 Y142.518 E56.74239
G1 X163.507 Y142.628 E56.7504
G1 X163.815 Y142.929 E56.77188
G1 X164.191 Y143.31 E56.79859
G1 X164.298 Y143.422 E56.80632
G1 X164.533 Y143.678 E56.82365
G1 X164.793 Y143.969 E56.84312
G1 X165.031 Y144.249 E56.86146
G1 X165.2 Y144.452 E56.87463
G1 X165.494 Y144.821 E56.89817
G1 X165.868 Y145.319 E56.92924
G1 X166.074 Y145.608 E56.94695
G1 X166.362 Y146.03 E56.97244
G1 X166.45 Y146.164 E56.98044
G1 X166.586 Y146.379 E56.99313
G1 X166.659 Y146.492 E56.99984
G1 X166.9 Y146.893 E57.02318
G1 X167.044 Y147.152 E57.03797
G1 X167.168 Y147.392 E57.05144
G1 X167.475 Y148.142 E57.09188
G1 X167.549 Y148.381 E57.10436
G1 X167.727 Y149.236 E57.14793
G1 X167.753 Y149.471 E57.15972
G1 X167.771 Y150.287 E57.20044
G1 X167.757 Y150.494 E57.2108
G1 X167.622 Y151.329 E57.253
G1 X167.548 Y151.617 E57.26783
G1 X167.241 Y152.461 E57.31264
G1 X167.147 Y152.657 E57.32348
G1 X166.964 Y153 E57.34288
G1 X166.738 Y153.38 E57.36493
G1 X166.479 Y153.791 E57.38917
G1 X166.205 Y154.205 E57.41394
G1 X165.915 Y154.619 E57.43916
G1 X165.633 Y155.001 E57.46285
G1 X165.322 Y155.4 E57.48809
G1 X165.209 Y155.54 E57.49706
G1 X164.708 Y156.129 E57.53564
G1 X164.604 Y156.247 E57.54349
G1 X164.36 Y156.512 E57.56146
G1 X163.938 Y156.95 E57.5918
G1 X163.725 Y157.161 E57.60676
G1 X163.478 Y157.4 E57.62391
G1 X163.201 Y157.656 E57.64272
G1 X162.719 Y158.079 E57.67472
G1 X162.346 Y158.389 E57.69892
G1 X161.957 Y158.695 E57.72361
G1 X161.836 Y158.787 E57.73119
G1 X161.343 Y159.148 E57.76168
G1 X161.048 Y159.352 E57.77957
G1 X160.589 Y159.653 E57.80695
G1 X160.325 Y159.821 E57.82257
G1 X159.923 Y160.062 E57.84595
G1 X159.506 Y160.299 E57.86988
G1 X159.353 Y160.383 E57.87859
G1 X158.875 Y160.632 E57.90548
G1 X158.397 Y160.867 E57.93205
G1 X157.846 Y161.115 E57.9622
G1 X157.401 Y161.302 E57.98628
G1 X157.075 Y161.431 E58.00377
G1 X156.687 Y161.577 E58.02445
G1 X156.393 Y161.68 E58.03999
G1 X155.855 Y161.855 E58.06822
G1 X155.551 Y161.947 E58.08406
G1 X154.96 Y162.11 E58.11465
G1 X154.755 Y162.162 E58.1252
G1 X154.177 Y162.294 E58.15478
G1 X153.761 Y162.38 E58.17597
G1 X153.311 Y162.462 E58.19879
G1 X152.805 Y162.541 E58.22434
G1 X152.643 Y162.563 E58.2325
G1 X152.106 Y162.627 E58.25948
G1 X151.84 Y162.654 E58.27282
G1 X151.373 Y162.691 E58.29619
G1 X150.756 Y162.723 E58.32702
G1 X150.333 Y162.734 E58.34813
G1 X149.896 Y162.735 E58.36993
G1 X149.495 Y162.727 E58.38994
G1 X149.224 Y162.717 E58.40347
G1 X148.852 Y162.698 E58.42205
G1 X141.145 Y162.225 E58.80728
G1 X140.62 Y162.195 E58.83351
G1 X140.364 Y162.177 E58.84632
G1 X139.108 Y162.102 E58.90909
G1 X138.865 Y162.086 E58.92124
G1 X127.814 Y161.414 E59.4736
G1 X125.416 Y161.264 E59.59347
G1 X125.127 Y161.237 E59.60795
G1 X124.921 Y161.211 E59.61831
G1 X124.239 Y161.072 E59.65303
G1 X123.954 Y160.991 E59.66781
G1 X123.323 Y160.76 E59.70134
G1 X123.121 Y160.669 E59.71239
G1 X122.585 Y160.384 E59.74268
G1 X122.39 Y160.263 E59.75413
G1 X121.881 Y159.897 E59.7854
G1 X121.724 Y159.767 E59.79557
G1 X121.285 Y159.352 E59.82571
G1 X121.106 Y159.159 E59.83884
G1 X120.664 Y158.601 E59.87436
G1 X120.536 Y158.411 E59.88579
G1 X120.225 Y157.874 E59.91675
G1 X120.122 Y157.665 E59.92837
G1 X119.877 Y157.065 E59.96071
G1 X119.796 Y156.818 E59.97367
G1 X119.645 Y156.23 E60.00396
G1 X119.597 Y155.973 E60.017
G1 X119.528 Y155.418 E60.04491
G1 X119.512 Y155.165 E60.05755
G1 X119.503 Y154.875 E60.07203
G1 X119.504 Y145.095 E60.55996
G1 X119.516 Y144.765 E60.57643
G1 X119.533 Y144.529 E60.58823
G1 X119.601 Y144.007 E60.6145
G1 X119.647 Y143.763 E60.62689
G1 X119.811 Y143.136 E60.65922
G1 X119.902 Y142.868 E60.67334
G1 X120.159 Y142.259 E60.70632
G1 X120.267 Y142.047 E60.71819
G1 X120.597 Y141.498 E60.75014
G1 X120.732 Y141.305 E60.76189
G1 X121.124 Y140.818 E60.79308
G1 X121.272 Y140.658 E60.80396
G1 X121.759 Y140.203 E60.83721
G0 F7500 X122.01 Y140.514
G1 F1500 X122.197 Y140.363 E60.8492
G1 X122.686 Y140.023 E60.87891
G1 X122.884 Y139.905 E60.89041
G1 X123.367 Y139.658 E60.91748
G1 X123.559 Y139.575 E60.92791
G1 X124.082 Y139.389 E60.95561
G1 X124.354 Y139.312 E60.96971
G1 X124.987 Y139.184 E61.00193
G1 X125.24 Y139.153 E61.01465
G1 X125.495 Y139.13 E61.02742
G1 X149.133 Y137.687 E62.20892
G1 X149.7 Y137.667 E62.23723
G1 X150.034 Y137.664 E62.25389
G1 X150.398 Y137.667 E62.27205
G1 X150.897 Y137.684 E62.29696
G1 X151.273 Y137.704 E62.31575
G1 X151.843 Y137.748 E62.34427
G1 X152.288 Y137.796 E62.3666
G1 X152.79 Y137.862 E62.39186
G1 X152.917 Y137.88 E62.39826
G1 X153.475 Y137.973 E62.42648
G1 X153.824 Y138.041 E62.44422
G1 X154.236 Y138.127 E62.46522
G1 X154.373 Y138.158 E62.47222
G1 X154.881 Y138.283 E62.49833
G1 X155.223 Y138.377 E62.51602
G1 X155.772 Y138.539 E62.54458
G1 X156.177 Y138.671 E62.56583
G1 X156.526 Y138.792 E62.58426
G1 X157.025 Y138.978 E62.61083
G1 X157.507 Y139.175 E62.6368
G1 X157.934 Y139.362 E62.66006
G1 X158.405 Y139.581 E62.68597
G1 X158.744 Y139.749 E62.70485
G1 X158.972 Y139.867 E62.71766
G1 X159.382 Y140.089 E62.74092
G1 X159.628 Y140.228 E62.75502
G1 X160.224 Y140.589 E62.78978
G1 X160.313 Y140.644 E62.795
G1 X160.642 Y140.857 E62.81455
G1 X160.954 Y141.068 E62.83334
G1 X161.315 Y141.324 E62.85542
G1 X161.683 Y141.598 E62.87831
G1 X162.029 Y141.868 E62.90021
G1 X162.16 Y141.974 E62.90862
G1 X162.677 Y142.412 E62.94242
G1 X162.978 Y142.685 E62.9627
G1 X163.228 Y142.915 E62.97964
G1 X163.53 Y143.21 E63.00071
G1 X163.906 Y143.591 E63.02741
G1 X164.004 Y143.693 E63.03447
G1 X164.235 Y143.945 E63.05152
G1 X164.489 Y144.229 E63.07053
G1 X164.724 Y144.505 E63.08862
G1 X164.893 Y144.708 E63.1018
G1 X165.175 Y145.062 E63.12438
G1 X165.543 Y145.551 E63.15491
G1 X165.743 Y145.833 E63.17216
G1 X166.031 Y146.255 E63.19765
G1 X166.247 Y146.593 E63.21766
G1 X166.316 Y146.698 E63.22393
G1 X166.557 Y147.099 E63.24727
G1 X166.688 Y147.335 E63.26073
G1 X166.812 Y147.575 E63.27421
G1 X167.093 Y148.261 E63.3112
G1 X167.167 Y148.5 E63.32368
G1 X167.33 Y149.28 E63.36343
G1 X167.356 Y149.515 E63.37523
G1 X167.371 Y150.26 E63.4124
G1 X167.357 Y150.467 E63.42275
G1 X167.235 Y151.229 E63.46126
G1 X167.161 Y151.517 E63.47609
G1 X166.88 Y152.288 E63.51703
G1 X166.786 Y152.484 E63.52788
G1 X166.62 Y152.797 E63.54555
G1 X166.453 Y153.079 E63.5619
G1 X166.238 Y153.424 E63.58218
G1 X166.083 Y153.666 E63.59652
G1 X165.808 Y154.076 E63.62115
G1 X165.588 Y154.388 E63.6402
G1 X165.318 Y154.755 E63.66293
G1 X165.007 Y155.154 E63.68817
G1 X164.903 Y155.282 E63.6964
G1 X164.404 Y155.869 E63.73483
G1 X164.309 Y155.977 E63.74201
G1 X164.072 Y156.235 E63.75949
G1 X163.728 Y156.594 E63.78429
G1 X163.446 Y156.875 E63.80415
G1 X163.205 Y157.108 E63.82088
G1 X162.937 Y157.356 E63.83909
G1 X162.456 Y157.778 E63.87102
G1 X162.099 Y158.075 E63.89419
G1 X161.71 Y158.381 E63.91888
G1 X161.599 Y158.465 E63.92582
G1 X161.114 Y158.82 E63.95581
G1 X160.828 Y159.018 E63.97316
G1 X160.373 Y159.317 E64.00033
G1 X160.118 Y159.479 E64.0154
G1 X159.726 Y159.714 E64.0382
G1 X159.167 Y160.029 E64.07021
G1 X158.698 Y160.273 E64.09659
G1 X158.22 Y160.508 E64.12316
G1 X157.691 Y160.747 E64.15212
G1 X157.253 Y160.931 E64.17582
G1 X156.933 Y161.057 E64.19298
G1 X156.553 Y161.2 E64.21324
G1 X156.268 Y161.3 E64.22831
G1 X155.74 Y161.472 E64.25601
G1 X155.436 Y161.564 E64.27186
G1 X154.853 Y161.725 E64.30203
G1 X154.665 Y161.773 E64.31171
G1 X154.095 Y161.902 E64.34087
G1 X153.688 Y161.987 E64.36161
G1 X153.249 Y162.067 E64.38388
G1 X152.743 Y162.146 E64.40943
G1 X152.595 Y162.166 E64.41688
G1 X152.064 Y162.229 E64.44355
G1 X151.807 Y162.256 E64.45645
G1 X151.351 Y162.292 E64.47927
G1 X150.856 Y162.319 E64.504
G1 X150.331 Y162.334 E64.5302
G1 X149.904 Y162.335 E64.55151
G1 X149.509 Y162.327 E64.57122
G1 X149.244 Y162.318 E64.58444
G1 X148.876 Y162.299 E64.60283
G1 X141.144 Y161.824 E64.98931
G1 X140.648 Y161.796 E65.01409
G1 X140.4 Y161.779 E65.02649
G1 X139.135 Y161.703 E65.08972
G1 X138.87 Y161.685 E65.10297
G1 X138.395 Y161.658 E65.12671
G1 X127.839 Y161.015 E65.65432
G1 X125.441 Y160.865 E65.77419
G1 X125.177 Y160.84 E65.78742
G1 X124.971 Y160.814 E65.79778
G1 X124.349 Y160.687 E65.82945
G1 X124.064 Y160.606 E65.84424
G1 X123.487 Y160.395 E65.87489
G1 X123.285 Y160.304 E65.88594
G1 X122.796 Y160.044 E65.91357
G1 X122.601 Y159.923 E65.92502
G1 X122.136 Y159.589 E65.95358
G1 X121.979 Y159.459 E65.96375
G1 X121.579 Y159.08 E65.99124
G1 X121.4 Y158.887 E66.00438
G1 X120.996 Y158.378 E66.0368
G1 X120.868 Y158.188 E66.04823
G1 X120.584 Y157.698 E66.07648
G1 X120.481 Y157.489 E66.08811
G1 X120.257 Y156.941 E66.11764
G1 X120.176 Y156.694 E66.13061
G1 X120.038 Y156.156 E66.15832
G1 X119.99 Y155.899 E66.17136
G1 X119.927 Y155.393 E66.1968
G1 X119.911 Y155.14 E66.20945
G1 X119.903 Y154.875 E66.22268
G1 X119.904 Y145.095 E66.7106
G1 X119.915 Y144.793 E66.72568
G1 X119.932 Y144.557 E66.73749
G1 X119.994 Y144.081 E66.76143
G1 X120.04 Y143.837 E66.77382
G1 X120.19 Y143.265 E66.80332
G1 X120.281 Y142.997 E66.81744
G1 X120.516 Y142.441 E66.84756
G1 X120.624 Y142.229 E66.85943
G1 X120.924 Y141.728 E66.88856
G1 X121.059 Y141.535 E66.90031
G1 X121.418 Y141.09 E66.92884
G1 X121.566 Y140.93 E66.93971
G1 X122.01 Y140.514 E66.97007
G0 F7500 X122.262 Y140.826
G1 F1500 X122.449 Y140.675 E66.98206
G1 X122.891 Y140.367 E67.00894
G1 X123.089 Y140.249 E67.02044
G1 X123.526 Y140.025 E67.04493
G1 X123.718 Y139.942 E67.05537
G1 X124.191 Y139.774 E67.08041
G1 X124.463 Y139.697 E67.09452
G1 X125.036 Y139.581 E67.12368
G1 X125.289 Y139.55 E67.1364
G1 X125.519 Y139.529 E67.14792
G1 X149.054 Y138.091 E68.32428
G1 X149.705 Y138.067 E68.35678
G1 X150.03 Y138.064 E68.37299
G1 X150.501 Y138.069 E68.39649
G1 X150.878 Y138.083 E68.41531
G1 X151.243 Y138.102 E68.43355
G1 X151.674 Y138.134 E68.45511
G1 X152.246 Y138.194 E68.48381
G1 X152.737 Y138.258 E68.50851
G1 X152.852 Y138.275 E68.51431
G1 X153.4 Y138.366 E68.54202
G1 X153.742 Y138.432 E68.5594
G1 X154.154 Y138.518 E68.5804
G1 X154.278 Y138.546 E68.58674
G1 X154.776 Y138.669 E68.61233
G1 X155.111 Y138.761 E68.62966
G1 X155.648 Y138.919 E68.65759
G1 X156.047 Y139.05 E68.67854
G1 X156.387 Y139.167 E68.69648
G1 X156.875 Y139.349 E68.72247
G1 X157.347 Y139.542 E68.74791
G1 X157.766 Y139.725 E68.77072
G1 X158.228 Y139.94 E68.79614
G1 X158.56 Y140.104 E68.81461
G1 X158.782 Y140.22 E68.82711
G1 X159.185 Y140.438 E68.84997
G1 X159.538 Y140.639 E68.87024
G1 X160.096 Y140.98 E68.90286
G1 X160.418 Y141.189 E68.92201
G1 X160.723 Y141.395 E68.94037
G1 X161.077 Y141.646 E68.96202
G1 X161.437 Y141.913 E68.98439
G1 X161.783 Y142.183 E69.00628
G1 X161.901 Y142.28 E69.0139
G1 X162.418 Y142.718 E69.04771
G1 X162.704 Y142.977 E69.06696
G1 X162.95 Y143.202 E69.08359
G1 X163.246 Y143.491 E69.10423
G1 X163.622 Y143.872 E69.13093
G1 X163.938 Y144.212 E69.15409
G1 X164.185 Y144.489 E69.17261
G1 X164.416 Y144.761 E69.19041
G1 X164.585 Y144.964 E69.20359
G1 X164.856 Y145.303 E69.22524
G1 X165.217 Y145.784 E69.25525
G1 X165.413 Y146.059 E69.27209
G1 X165.701 Y146.481 E69.29758
G1 X165.909 Y146.807 E69.31688
G1 X165.973 Y146.905 E69.32272
G1 X166.214 Y147.306 E69.34606
G1 X166.333 Y147.519 E69.35823
G1 X166.457 Y147.759 E69.37171
G1 X166.711 Y148.379 E69.40513
G1 X166.785 Y148.618 E69.41762
G1 X166.932 Y149.324 E69.45359
G1 X166.958 Y149.559 E69.46539
G1 X166.972 Y150.233 E69.49902
G1 X166.958 Y150.44 E69.50937
G1 X166.847 Y151.13 E69.54424
G1 X166.773 Y151.418 E69.55908
G1 X166.519 Y152.115 E69.59609
G1 X166.425 Y152.311 E69.60693
G1 X166.275 Y152.594 E69.62291
G1 X166.111 Y152.871 E69.63897
G1 X165.9 Y153.209 E69.65885
G1 X165.75 Y153.445 E69.6728
G1 X165.482 Y153.846 E69.69686
G1 X165.262 Y154.158 E69.71591
G1 X165.002 Y154.509 E69.7377
G1 X164.691 Y154.908 E69.76294
G1 X164.597 Y155.024 E69.77039
G1 X164.099 Y155.61 E69.80876
G1 X164.014 Y155.707 E69.81519
G1 X163.783 Y155.958 E69.83221
G1 X163.374 Y156.383 E69.86164
G1 X163.168 Y156.588 E69.87614
G1 X162.932 Y156.816 E69.89251
G1 X162.673 Y157.056 E69.91012
G1 X162.193 Y157.477 E69.94198
G1 X161.851 Y157.761 E69.96416
G1 X161.462 Y158.067 E69.98885
G1 X161.362 Y158.143 E69.99511
G1 X160.885 Y158.492 E70.0246
G1 X160.608 Y158.683 E70.04139
G1 X160.157 Y158.98 E70.06833
G1 X159.911 Y159.137 E70.08289
G1 X159.529 Y159.366 E70.10511
G1 X158.981 Y159.675 E70.13649
G1 X158.522 Y159.914 E70.16231
G1 X158.044 Y160.149 E70.18889
G1 X157.535 Y160.378 E70.21673
G1 X157.105 Y160.559 E70.24001
G1 X156.792 Y160.683 E70.2568
G1 X156.42 Y160.823 E70.27663
G1 X156.143 Y160.92 E70.29128
G1 X155.624 Y161.089 E70.31851
G1 X155.32 Y161.181 E70.33435
G1 X154.746 Y161.34 E70.36407
G1 X154.576 Y161.383 E70.37282
G1 X154.013 Y161.511 E70.40162
G1 X153.699 Y161.577 E70.41763
G1 X153.187 Y161.672 E70.44361
G1 X152.681 Y161.751 E70.46916
G1 X152.548 Y161.769 E70.47586
G1 X152.021 Y161.832 E70.50234
G1 X151.774 Y161.857 E70.51472
G1 X151.329 Y161.892 E70.53699
G1 X150.733 Y161.924 E70.56677
G1 X150.328 Y161.934 E70.58698
G1 X149.911 Y161.935 E70.60778
G1 X149.523 Y161.928 E70.62715
G1 X149.264 Y161.918 E70.64008
G1 X148.901 Y161.9 E70.65821
G1 X141.169 Y161.425 E71.04469
G1 X140.676 Y161.397 E71.06932
G1 X140.387 Y161.377 E71.08378
G1 X139.162 Y161.304 E71.145
G1 X138.91 Y161.287 E71.1576
G1 X138.42 Y161.259 E71.18209
G1 X127.864 Y160.616 E71.7097
G1 X125.466 Y160.466 E71.82957
G1 X125.021 Y160.417 E71.85191
G1 X124.458 Y160.302 E71.88058
G1 X124.173 Y160.221 E71.89536
G1 X123.651 Y160.031 E71.92307
G1 X123.449 Y159.94 E71.93413
G1 X123.006 Y159.704 E71.95917
G1 X122.811 Y159.583 E71.97062
G1 X122.391 Y159.281 E71.99643
G1 X122.234 Y159.151 E72.0066
G1 X121.872 Y158.808 E72.03148
G1 X121.693 Y158.615 E72.04461
G1 X121.327 Y158.154 E72.07397
G1 X121.199 Y157.964 E72.0854
G1 X120.942 Y157.521 E72.11096
G1 X120.839 Y157.312 E72.12258
G1 X120.637 Y156.816 E72.1493
G1 X120.556 Y156.569 E72.16227
G1 X120.432 Y156.083 E72.18729
G1 X120.384 Y155.826 E72.20033
G1 X120.327 Y155.368 E72.22336
G1 X120.311 Y155.115 E72.23601
G1 X120.303 Y154.875 E72.24799
G1 X120.304 Y145.095 E72.73591
G1 X120.314 Y144.822 E72.74954
G1 X120.331 Y144.586 E72.76135
G1 X120.387 Y144.155 E72.78303
G1 X120.433 Y143.911 E72.79542
G1 X120.569 Y143.393 E72.82214
G1 X120.66 Y143.125 E72.83626
G1 X120.872 Y142.622 E72.86349
G1 X120.98 Y142.41 E72.87536
G1 X121.252 Y141.957 E72.90172
G1 X121.387 Y141.764 E72.91347
G1 X121.711 Y141.362 E72.93923
G1 X121.859 Y141.202 E72.95011
G1 X122.262 Y140.826 E72.9776
G0 F7500 X122.513 Y141.137
G1 F1500 X122.7 Y140.986 E72.9896
G1 X123.095 Y140.71 E73.01364
G1 X123.293 Y140.592 E73.02514
G1 X123.685 Y140.392 E73.04709
G1 X123.877 Y140.309 E73.05753
G1 X124.3 Y140.159 E73.07992
G1 X124.572 Y140.082 E73.09402
G1 X125.084 Y139.978 E73.12009
G1 X125.337 Y139.947 E73.1328
G1 X125.544 Y139.928 E73.14317
G1 X149.162 Y138.486 E74.32367
G1 X149.71 Y138.467 E74.35103
G1 X150.027 Y138.464 E74.36685
G1 X150.486 Y138.469 E74.38975
G1 X150.859 Y138.483 E74.40837
G1 X151.214 Y138.501 E74.4261
G1 X151.645 Y138.533 E74.44767
G1 X152.203 Y138.592 E74.47566
G1 X152.685 Y138.655 E74.49991
G1 X152.788 Y138.67 E74.5051
G1 X153.325 Y138.759 E74.53226
G1 X153.661 Y138.824 E74.54933
G1 X154.073 Y138.91 E74.57033
G1 X154.585 Y139.033 E74.5966
G1 X154.936 Y139.127 E74.61473
G1 X155.524 Y139.299 E74.6453
G1 X155.918 Y139.428 E74.66598
G1 X156.249 Y139.542 E74.68345
G1 X156.724 Y139.719 E74.70873
G1 X157.188 Y139.909 E74.73375
G1 X157.598 Y140.088 E74.75607
G1 X158.051 Y140.299 E74.781
G1 X158.377 Y140.46 E74.79914
G1 X158.592 Y140.572 E74.81123
G1 X158.989 Y140.786 E74.83374
G1 X159.235 Y140.925 E74.84783
G1 X159.808 Y141.272 E74.88125
G1 X160.138 Y141.483 E74.90079
G1 X160.493 Y141.722 E74.92214
G1 X160.84 Y141.968 E74.94337
G1 X161.191 Y142.229 E74.96519
G1 X161.537 Y142.499 E74.98708
G1 X161.643 Y142.585 E74.99389
G1 X162.16 Y143.023 E75.0277
G1 X162.584 Y143.408 E75.05627
G1 X162.671 Y143.489 E75.0622
G1 X162.961 Y143.772 E75.08242
G1 X163.337 Y144.153 E75.10912
G1 X163.64 Y144.478 E75.13129
G1 X163.881 Y144.749 E75.14938
G1 X164.109 Y145.017 E75.16694
G1 X164.278 Y145.22 E75.18012
G1 X164.536 Y145.543 E75.20074
G1 X164.892 Y146.017 E75.23032
G1 X165.082 Y146.284 E75.24667
G1 X165.37 Y146.706 E75.27215
G1 X165.571 Y147.02 E75.29076
G1 X165.63 Y147.111 E75.29617
G1 X165.871 Y147.512 E75.31951
G1 X165.978 Y147.702 E75.33039
G1 X166.102 Y147.942 E75.34386
G1 X166.329 Y148.497 E75.37378
G1 X166.403 Y148.736 E75.38626
G1 X166.534 Y149.368 E75.41846
G1 X166.56 Y149.603 E75.43026
G1 X166.573 Y150.206 E75.46035
G1 X166.559 Y150.413 E75.4707
G1 X166.46 Y151.03 E75.50188
G1 X166.386 Y151.318 E75.51671
G1 X166.159 Y151.942 E75.54984
G1 X166.065 Y152.138 E75.56068
G1 X165.93 Y152.391 E75.57499
G1 X165.712 Y152.758 E75.59629
G1 X165.464 Y153.151 E75.61947
G1 X165.155 Y153.615 E75.64728
G1 X164.935 Y153.927 E75.66633
G1 X164.687 Y154.263 E75.68716
G1 X164.376 Y154.662 E75.7124
G1 X164.292 Y154.765 E75.71903
G1 X163.795 Y155.35 E75.75733
G1 X163.549 Y155.622 E75.77563
G1 X163.15 Y156.04 E75.80446
G1 X162.889 Y156.301 E75.82287
G1 X162.659 Y156.523 E75.83882
G1 X162.408 Y156.755 E75.85587
G1 X161.93 Y157.176 E75.88765
G1 X161.604 Y157.446 E75.90877
G1 X161.126 Y157.82 E75.93905
G1 X160.656 Y158.164 E75.96811
G1 X160.388 Y158.349 E75.98435
G1 X159.787 Y158.743 E76.02021
G1 X159.415 Y158.969 E76.04192
G1 X158.909 Y159.258 E76.07099
G1 X158.796 Y159.32 E76.07742
G1 X158.345 Y159.555 E76.1028
G1 X157.867 Y159.79 E76.12937
G1 X157.379 Y160.01 E76.15608
G1 X156.957 Y160.187 E76.17891
G1 X156.65 Y160.309 E76.19539
G1 X156.286 Y160.446 E76.21479
G1 X156.019 Y160.54 E76.22891
G1 X155.508 Y160.706 E76.25572
G1 X155.204 Y160.798 E76.27156
G1 X154.639 Y160.954 E76.30081
G1 X154.487 Y160.993 E76.30864
G1 X153.93 Y161.119 E76.33713
G1 X153.541 Y161.2 E76.35695
G1 X153.125 Y161.276 E76.37805
G1 X152.5 Y161.372 E76.4096
G1 X151.979 Y161.434 E76.43577
G1 X151.741 Y161.458 E76.44771
G1 X151.307 Y161.493 E76.46943
G1 X150.722 Y161.524 E76.49865
G1 X150.326 Y161.534 E76.51842
G1 X149.918 Y161.535 E76.53877
G1 X149.537 Y161.528 E76.55778
G1 X149.284 Y161.519 E76.57041
G1 X148.926 Y161.501 E76.5883
G1 X141.194 Y161.026 E76.97478
G1 X140.703 Y160.998 E76.99931
G1 X140.418 Y160.978 E77.01357
G1 X139.189 Y160.905 E77.07499
G1 X138.933 Y160.888 E77.08779
G1 X138.444 Y160.86 E77.11222
G1 X127.889 Y160.216 E77.6398
G1 X125.491 Y160.066 E77.75967
G1 X125.071 Y160.02 E77.78074
G1 X124.567 Y159.917 E77.80641
G1 X124.282 Y159.836 E77.82119
G1 X123.815 Y159.666 E77.84599
G1 X123.613 Y159.575 E77.85704
G1 X123.217 Y159.364 E77.87942
G1 X123.022 Y159.243 E77.89087
G1 X122.647 Y158.973 E77.91393
G1 X122.49 Y158.843 E77.9241
G1 X122.165 Y158.536 E77.9464
G1 X121.986 Y158.343 E77.95953
G1 X121.659 Y157.931 E77.98578
G1 X121.531 Y157.741 E77.99721
G1 X121.301 Y157.344 E78.0201
G1 X121.198 Y157.135 E78.03172
G1 X121.017 Y156.691 E78.05564
G1 X120.936 Y156.444 E78.06861
G1 X120.825 Y156.009 E78.09101
G1 X120.777 Y155.752 E78.10405
G1 X120.726 Y155.343 E78.12461
G1 X120.71 Y155.09 E78.13726
G1 X120.703 Y154.875 E78.14799
G1 X120.704 Y145.095 E78.63592
G1 X120.73 Y144.615 E78.6599
G1 X120.78 Y144.229 E78.67932
G1 X120.826 Y143.985 E78.69171
G1 X120.948 Y143.522 E78.7156
G1 X121.039 Y143.254 E78.72972
G1 X121.228 Y142.804 E78.75407
G1 X121.336 Y142.592 E78.76594
G1 X121.58 Y142.186 E78.78957
G1 X121.715 Y141.993 E78.80132
G1 X122.005 Y141.633 E78.82438
G1 X122.153 Y141.473 E78.83526
G1 X122.513 Y141.137 E78.85982
G0 F7500 X122.764 Y141.448
G1 F1500 X122.951 Y141.297 E78.87182
G1 X123.3 Y141.054 E78.89303
G1 X123.498 Y140.936 E78.90453
G1 X123.844 Y140.759 E78.92392
G1 X124.036 Y140.676 E78.93436
G1 X124.409 Y140.543 E78.95411
G1 X124.681 Y140.466 E78.96822
G1 X125.133 Y140.375 E78.99122
G1 X125.386 Y140.344 E79.00394
G1 X125.568 Y140.328 E79.01305
G1 X149.176 Y138.886 E80.19305
G1 X149.715 Y138.867 E80.21996
G1 X150.024 Y138.864 E80.23538
G1 X150.472 Y138.869 E80.25773
G1 X150.839 Y138.883 E80.27605
G1 X151.184 Y138.9 E80.29329
G1 X151.715 Y138.941 E80.31986
G1 X152.233 Y138.998 E80.34586
G1 X152.632 Y139.051 E80.36594
G1 X153.25 Y139.152 E80.39718
G1 X153.579 Y139.215 E80.41389
G1 X154.089 Y139.323 E80.4399
G1 X154.567 Y139.441 E80.46446
G1 X154.887 Y139.528 E80.48101
G1 X155.4 Y139.679 E80.50769
G1 X155.789 Y139.807 E80.52812
G1 X156.111 Y139.917 E80.54509
G1 X156.485 Y140.055 E80.56498
G1 X156.961 Y140.247 E80.59059
G1 X157.43 Y140.451 E80.61611
G1 X157.875 Y140.658 E80.64059
G1 X158.194 Y140.815 E80.65833
G1 X158.403 Y140.924 E80.67009
G1 X158.792 Y141.134 E80.69214
G1 X159.038 Y141.273 E80.70624
G1 X159.663 Y141.653 E80.74273
G1 X159.972 Y141.852 E80.76107
G1 X160.262 Y142.048 E80.77853
G1 X160.602 Y142.29 E80.79935
G1 X160.945 Y142.544 E80.82065
G1 X161.291 Y142.814 E80.84254
G1 X161.384 Y142.89 E80.84853
G1 X161.901 Y143.328 E80.88234
G1 X162.316 Y143.705 E80.91031
G1 X162.392 Y143.776 E80.9155
G1 X162.676 Y144.053 E80.93529
G1 X163.122 Y144.507 E80.96704
G1 X163.342 Y144.745 E80.98321
G1 X163.577 Y145.009 E81.00085
G1 X163.802 Y145.273 E81.01815
G1 X163.971 Y145.476 E81.03133
G1 X164.217 Y145.784 E81.051
G1 X164.566 Y146.249 E81.08
G1 X164.752 Y146.51 E81.09599
G1 X165.04 Y146.932 E81.12148
G1 X165.233 Y147.234 E81.13936
G1 X165.287 Y147.317 E81.1443
G1 X165.528 Y147.718 E81.16764
G1 X165.622 Y147.886 E81.17725
G1 X165.746 Y148.126 E81.19072
G1 X165.947 Y148.616 E81.21715
G1 X166.021 Y148.855 E81.22963
G1 X166.137 Y149.412 E81.25802
G1 X166.163 Y149.647 E81.26981
G1 X166.174 Y150.179 E81.29636
G1 X166.16 Y150.386 E81.30671
G1 X166.073 Y150.931 E81.33424
G1 X165.999 Y151.219 E81.34908
G1 X165.798 Y151.769 E81.37829
G1 X165.704 Y151.965 E81.38914
G1 X165.585 Y152.189 E81.40179
G1 X165.37 Y152.551 E81.4228
G1 X165.226 Y152.779 E81.43625
G1 X165.084 Y153.001 E81.4494
G1 X164.828 Y153.385 E81.47242
G1 X164.608 Y153.697 E81.49147
G1 X164.371 Y154.017 E81.51134
G1 X164.06 Y154.416 E81.53658
G1 X163.986 Y154.507 E81.54243
G1 X163.491 Y155.091 E81.58062
G1 X163.205 Y155.405 E81.60181
G1 X162.81 Y155.815 E81.63021
G1 X162.61 Y156.014 E81.64429
G1 X162.387 Y156.231 E81.65981
G1 X162.144 Y156.455 E81.6763
G1 X161.667 Y156.874 E81.70798
G1 X161.357 Y157.132 E81.7281
G1 X160.889 Y157.498 E81.75774
G1 X160.427 Y157.836 E81.7863
G1 X160.168 Y158.015 E81.80201
G1 X159.57 Y158.407 E81.83768
G1 X159.208 Y158.627 E81.85881
G1 X158.61 Y158.966 E81.89311
G1 X158.169 Y159.196 E81.91792
G1 X157.691 Y159.431 E81.9445
G1 X157.224 Y159.641 E81.97004
G1 X156.809 Y159.816 E81.99251
G1 X156.509 Y159.935 E82.00861
G1 X156.153 Y160.069 E82.02759
G1 X155.894 Y160.16 E82.04129
G1 X155.392 Y160.323 E82.06762
G1 X155.088 Y160.415 E82.08346
G1 X154.532 Y160.569 E82.11225
G1 X154.398 Y160.603 E82.11914
G1 X153.848 Y160.728 E82.14728
G1 X153.468 Y160.807 E82.16665
G1 X153.064 Y160.881 E82.18714
G1 X152.452 Y160.975 E82.21803
G1 X151.937 Y161.036 E82.2439
G1 X151.708 Y161.06 E82.25539
G1 X151.285 Y161.094 E82.27656
G1 X150.711 Y161.124 E82.30524
G1 X150.324 Y161.134 E82.32455
G1 X149.926 Y161.135 E82.34441
G1 X149.551 Y161.128 E82.36312
G1 X149.304 Y161.119 E82.37545
G1 X148.95 Y161.101 E82.39314
G1 X141.234 Y160.627 E82.77881
G1 X140.731 Y160.599 E82.80395
G1 X140.471 Y160.581 E82.81695
G1 X139.216 Y160.506 E82.87967
G1 X138.928 Y160.486 E82.89408
G1 X138.468 Y160.46 E82.91706
G1 X127.914 Y159.817 E83.44458
G1 X125.516 Y159.667 E83.56445
G1 X125.121 Y159.623 E83.58428
G1 X124.677 Y159.533 E83.60688
G1 X124.392 Y159.452 E83.62166
G1 X123.98 Y159.301 E83.64355
G1 X123.778 Y159.21 E83.65461
G1 X123.428 Y159.024 E83.67438
G1 X123.233 Y158.903 E83.68583
G1 X122.902 Y158.665 E83.70617
G1 X122.745 Y158.535 E83.71634
G1 X122.458 Y158.264 E83.73603
G1 X122.279 Y158.071 E83.74917
G1 X121.991 Y157.707 E83.77232
G1 X121.863 Y157.517 E83.78375
G1 X121.66 Y157.167 E83.80394
G1 X121.557 Y156.958 E83.81556
G1 X121.397 Y156.567 E83.83664
G1 X121.316 Y156.32 E83.84961
G1 X121.218 Y155.936 E83.86938
G1 X121.17 Y155.679 E83.88242
G1 X121.125 Y155.317 E83.90062
G1 X121.109 Y155.064 E83.91327
G1 X121.103 Y154.875 E83.9227
G1 X121.104 Y145.095 E84.41063
G1 X121.129 Y144.643 E84.43322
G1 X121.173 Y144.303 E84.45032
G1 X121.219 Y144.059 E84.46271
G1 X121.326 Y143.65 E84.4838
G1 X121.417 Y143.382 E84.49792
G1 X121.585 Y142.985 E84.51943
G1 X121.693 Y142.773 E84.5313
G1 X121.908 Y142.415 E84.55213
G1 X122.043 Y142.222 E84.56388
G1 X122.299 Y141.905 E84.58421
G1 X122.447 Y141.745 E84.59508
G1 X122.764 Y141.448 E84.61676
G0 F7500 X123.016 Y141.759
G1 F1500 X123.203 Y141.608 E84.62875
G1 X123.505 Y141.398 E84.6471
G1 X123.703 Y141.28 E84.6586
G1 X124.002 Y141.126 E84.67538
G1 X124.194 Y141.043 E84.68581
G1 X124.518 Y140.928 E84.70297
G1 X124.79 Y140.851 E84.71707
G1 X125.182 Y140.772 E84.73702
G1 X125.435 Y140.741 E84.74974
G1 X125.592 Y140.727 E84.7576
G1 X149.191 Y139.286 E85.93715
G1 X149.72 Y139.267 E85.96356
G1 X150.02 Y139.264 E85.97853
G1 X150.457 Y139.269 E86.00033
G1 X150.82 Y139.282 E86.01845
G1 X151.155 Y139.299 E86.03519
G1 X151.672 Y139.339 E86.06106
G1 X152.18 Y139.395 E86.08656
G1 X152.658 Y139.459 E86.11062
G1 X153.175 Y139.545 E86.13676
G1 X153.497 Y139.607 E86.15312
G1 X153.994 Y139.712 E86.17847
G1 X154.462 Y139.827 E86.20251
G1 X154.774 Y139.912 E86.21864
G1 X155.275 Y140.06 E86.24471
G1 X155.66 Y140.185 E86.2649
G1 X155.972 Y140.293 E86.28137
G1 X156.423 Y140.461 E86.30538
G1 X156.869 Y140.642 E86.3294
G1 X157.262 Y140.814 E86.3508
G1 X157.698 Y141.017 E86.37479
G1 X158.01 Y141.171 E86.39215
G1 X158.213 Y141.276 E86.40355
G1 X158.595 Y141.482 E86.42521
G1 X158.914 Y141.664 E86.44353
G1 X159.447 Y141.989 E86.47467
G1 X159.749 Y142.184 E86.49261
G1 X160.031 Y142.375 E86.5096
G1 X160.364 Y142.611 E86.52996
G1 X160.699 Y142.859 E86.55076
G1 X161.045 Y143.129 E86.57265
G1 X161.126 Y143.195 E86.57787
G1 X161.643 Y143.633 E86.61167
G1 X162.114 Y144.063 E86.64349
G1 X162.392 Y144.334 E86.66286
G1 X162.828 Y144.778 E86.69391
G1 X163.044 Y145.012 E86.70979
G1 X163.272 Y145.269 E86.72693
G1 X163.494 Y145.528 E86.74395
G1 X163.663 Y145.731 E86.75713
G1 X163.898 Y146.025 E86.77591
G1 X164.241 Y146.482 E86.80441
G1 X164.422 Y146.735 E86.81993
G1 X164.71 Y147.157 E86.84542
G1 X164.945 Y147.523 E86.86712
G1 X165.186 Y147.924 E86.89046
G1 X165.267 Y148.07 E86.89879
G1 X165.391 Y148.31 E86.91227
G1 X165.565 Y148.734 E86.93514
G1 X165.639 Y148.973 E86.94762
G1 X165.739 Y149.456 E86.97223
G1 X165.765 Y149.691 E86.98402
G1 X165.775 Y150.152 E87.00703
G1 X165.761 Y150.359 E87.01738
G1 X165.685 Y150.831 E87.04123
G1 X165.611 Y151.119 E87.05607
G1 X165.437 Y151.596 E87.0814
G1 X165.24 Y151.986 E87.1032
G1 X165.028 Y152.343 E87.12391
G1 X164.751 Y152.78 E87.14972
G1 X164.501 Y153.154 E87.17217
G1 X164.281 Y153.466 E87.19121
G1 X164.056 Y153.771 E87.21012
G1 X163.745 Y154.17 E87.23536
G1 X163.681 Y154.249 E87.24043
G1 X163.128 Y154.898 E87.28297
G1 X162.916 Y155.128 E87.29858
G1 X162.528 Y155.532 E87.32652
G1 X162.331 Y155.727 E87.34035
G1 X162.114 Y155.938 E87.35545
G1 X161.88 Y156.155 E87.37137
G1 X161.403 Y156.573 E87.40302
G1 X161.109 Y156.818 E87.42211
G1 X160.72 Y157.124 E87.4468
G1 X160.198 Y157.508 E87.47913
G1 X159.948 Y157.681 E87.4943
G1 X159.508 Y157.971 E87.52059
G1 X159.291 Y158.109 E87.53342
G1 X158.938 Y158.321 E87.55396
G1 X158.424 Y158.612 E87.58343
G1 X157.992 Y158.837 E87.60773
G1 X157.514 Y159.072 E87.63431
G1 X157.068 Y159.273 E87.65871
G1 X156.662 Y159.444 E87.68069
G1 X156.367 Y159.561 E87.69652
G1 X156.019 Y159.692 E87.71508
G1 X155.769 Y159.78 E87.7283
G1 X155.276 Y159.941 E87.75417
G1 X154.972 Y160.033 E87.77002
G1 X154.309 Y160.213 E87.80429
G1 X153.766 Y160.336 E87.83207
G1 X153.394 Y160.414 E87.85103
G1 X153.002 Y160.486 E87.87092
G1 X152.496 Y160.565 E87.89647
G1 X151.895 Y160.638 E87.92667
G1 X151.675 Y160.661 E87.93771
G1 X151.264 Y160.694 E87.95828
G1 X150.7 Y160.724 E87.98646
G1 X150.321 Y160.734 E88.00537
G1 X149.933 Y160.736 E88.02473
G1 X149.565 Y160.728 E88.04309
G1 X149.324 Y160.72 E88.05512
G1 X148.975 Y160.702 E88.07256
G1 X141.257 Y160.228 E88.45833
G1 X140.758 Y160.2 E88.48327
G1 X140.469 Y160.179 E88.49773
G1 X139.244 Y160.107 E88.55895
G1 X138.978 Y160.089 E88.57225
G1 X138.493 Y160.061 E88.59648
G1 X127.939 Y159.418 E89.124
G1 X125.541 Y159.268 E89.24387
G1 X125.171 Y159.227 E89.26244
G1 X124.786 Y159.148 E89.28205
G1 X124.501 Y159.067 E89.29683
G1 X124.144 Y158.937 E89.31579
G1 X123.942 Y158.846 E89.32684
G1 X123.639 Y158.684 E89.34398
G1 X123.444 Y158.563 E89.35543
G1 X123.157 Y158.357 E89.37306
G1 X123 Y158.227 E89.38323
G1 X122.752 Y157.992 E89.40027
G1 X122.573 Y157.799 E89.41341
G1 X122.323 Y157.484 E89.43347
G1 X122.195 Y157.294 E89.4449
G1 X122.019 Y156.99 E89.46242
G1 X121.916 Y156.781 E89.47405
G1 X121.777 Y156.442 E89.49233
G1 X121.696 Y156.195 E89.5053
G1 X121.611 Y155.862 E89.52244
G1 X121.563 Y155.605 E89.53549
G1 X121.524 Y155.292 E89.55122
G1 X121.508 Y155.039 E89.56387
G1 X121.503 Y154.875 E89.57206
G1 X121.504 Y145.095 E90.05998
G1 X121.528 Y144.672 E90.08112
G1 X121.566 Y144.377 E90.09596
G1 X121.612 Y144.133 E90.10835
G1 X121.705 Y143.779 E90.12661
G1 X121.796 Y143.511 E90.14073
G1 X121.941 Y143.167 E90.15935
G1 X122.049 Y142.955 E90.17122
G1 X122.235 Y142.645 E90.18926
G1 X122.37 Y142.452 E90.20101
G1 X122.592 Y142.176 E90.21868
G1 X122.74 Y142.016 E90.22955
G1 X123.016 Y141.759 E90.24837
G0 F7500 X123.267 Y142.07
G1 F1500 X123.454 Y141.919 E90.26036
G1 X123.71 Y141.741 E90.27592
G1 X123.908 Y141.623 E90.28742
G1 X124.161 Y141.494 E90.30158
G1 X124.353 Y141.411 E90.31202
G1 X124.627 Y141.313 E90.32654
G1 X124.899 Y141.236 E90.34064
G1 X125.23 Y141.169 E90.35749
G1 X125.483 Y141.138 E90.37021
G1 X125.617 Y141.126 E90.37692
G1 X149.206 Y139.685 E91.55597
G1 X149.724 Y139.667 E91.58183
G1 X150.017 Y139.664 E91.59645
G1 X150.443 Y139.668 E91.6177
G1 X150.801 Y139.682 E91.63558
G1 X151.125 Y139.698 E91.65176
G1 X151.629 Y139.737 E91.67698
G1 X152.128 Y139.791 E91.70202
G1 X152.593 Y139.854 E91.72543
G1 X153.1 Y139.938 E91.75107
G1 X153.416 Y139.998 E91.76712
G1 X153.828 Y140.084 E91.78812
G1 X154.357 Y140.213 E91.81528
G1 X154.662 Y140.296 E91.83105
G1 X155.151 Y140.44 E91.85648
G1 X155.531 Y140.564 E91.87643
G1 X155.834 Y140.668 E91.89241
G1 X156.273 Y140.831 E91.91577
G1 X156.71 Y141.009 E91.93931
G1 X157.094 Y141.177 E91.96022
G1 X157.521 Y141.375 E91.98371
G1 X157.827 Y141.527 E92.00075
G1 X158.023 Y141.628 E92.01175
G1 X158.398 Y141.831 E92.03303
G1 X158.706 Y142.006 E92.0507
G1 X159.23 Y142.326 E92.08133
G1 X159.526 Y142.516 E92.09888
G1 X159.8 Y142.702 E92.1154
G1 X160.127 Y142.933 E92.13538
G1 X160.452 Y143.175 E92.15559
G1 X160.867 Y143.5 E92.18189
G1 X161.384 Y143.938 E92.21569
G1 X161.835 Y144.35 E92.24617
G1 X162.107 Y144.615 E92.26512
G1 X162.534 Y145.049 E92.29549
G1 X162.746 Y145.279 E92.3111
G1 X162.968 Y145.529 E92.32778
G1 X163.187 Y145.784 E92.34455
G1 X163.356 Y145.987 E92.35772
G1 X163.578 Y146.266 E92.37551
G1 X163.916 Y146.714 E92.40351
G1 X164.091 Y146.961 E92.41861
G1 X164.421 Y147.447 E92.44792
G1 X164.557 Y147.662 E92.46061
G1 X164.602 Y147.729 E92.46464
G1 X164.843 Y148.13 E92.48798
G1 X164.912 Y148.253 E92.49502
G1 X165.036 Y148.493 E92.5085
G1 X165.183 Y148.852 E92.52785
G1 X165.257 Y149.091 E92.54033
G1 X165.342 Y149.5 E92.56117
G1 X165.368 Y149.735 E92.57297
G1 X165.376 Y150.125 E92.59243
G1 X165.362 Y150.332 E92.60278
G1 X165.298 Y150.731 E92.62294
G1 X165.224 Y151.019 E92.63778
G1 X165.077 Y151.423 E92.65922
G1 X164.895 Y151.783 E92.67935
G1 X164.686 Y152.136 E92.69982
G1 X164.418 Y152.558 E92.72476
G1 X164.174 Y152.924 E92.7467
G1 X163.954 Y153.236 E92.76575
G1 X163.74 Y153.525 E92.78369
G1 X163.375 Y153.991 E92.81322
G1 X162.882 Y154.572 E92.85124
G1 X162.663 Y154.813 E92.86748
G1 X162.246 Y155.248 E92.89755
G1 X162.052 Y155.441 E92.9112
G1 X161.841 Y155.646 E92.92588
G1 X161.615 Y155.855 E92.94123
G1 X161.14 Y156.272 E92.97277
G1 X160.862 Y156.503 E92.9908
G1 X160.415 Y156.853 E93.01912
G1 X159.969 Y157.18 E93.04671
G1 X159.728 Y157.347 E93.06134
G1 X159.138 Y157.734 E93.09654
G1 X158.795 Y157.942 E93.11656
G1 X158.238 Y158.258 E93.14851
G1 X157.816 Y158.478 E93.17225
G1 X157.338 Y158.713 E93.19882
G1 X156.912 Y158.905 E93.22214
G1 X156.514 Y159.072 E93.24367
G1 X156.226 Y159.187 E93.25914
G1 X155.885 Y159.315 E93.27731
G1 X155.645 Y159.399 E93.29
G1 X155.16 Y159.558 E93.31546
G1 X154.856 Y159.65 E93.33131
G1 X154.22 Y159.823 E93.36419
G1 X153.684 Y159.945 E93.39162
G1 X153.321 Y160.021 E93.41012
G1 X152.94 Y160.091 E93.42945
G1 X152.434 Y160.17 E93.455
G1 X151.852 Y160.241 E93.48425
G1 X151.642 Y160.262 E93.49478
G1 X151.242 Y160.295 E93.5148
G1 X150.688 Y160.324 E93.54248
G1 X150.319 Y160.334 E93.56089
G1 X149.941 Y160.336 E93.57975
G1 X149.578 Y160.329 E93.59787
G1 X149.344 Y160.32 E93.60955
G1 X148.999 Y160.303 E93.62678
G1 X141.279 Y159.829 E94.01266
G1 X140.786 Y159.801 E94.03729
G1 X140.497 Y159.781 E94.05175
G1 X139.271 Y159.708 E94.11302
G1 X138.977 Y159.688 E94.12772
G1 X138.517 Y159.662 E94.15071
G1 X127.964 Y159.019 E94.67818
G1 X125.566 Y158.869 E94.79805
G1 X125.222 Y158.83 E94.81532
G1 X124.896 Y158.763 E94.83192
G1 X124.611 Y158.682 E94.84671
G1 X124.308 Y158.572 E94.86279
G1 X124.106 Y158.481 E94.87384
G1 X123.85 Y158.344 E94.88833
G1 X123.655 Y158.223 E94.89978
G1 X123.412 Y158.049 E94.91469
G1 X123.255 Y157.919 E94.92486
G1 X123.045 Y157.72 E94.93929
G1 X122.866 Y157.527 E94.95242
G1 X122.654 Y157.26 E94.96943
G1 X122.526 Y157.07 E94.98086
G1 X122.378 Y156.814 E94.99561
G1 X122.275 Y156.605 E95.00724
G1 X122.158 Y156.318 E95.0227
G1 X122.077 Y156.071 E95.03567
G1 X122.004 Y155.789 E95.0502
G1 X121.956 Y155.532 E95.06325
G1 X121.923 Y155.267 E95.07657
G1 X121.907 Y155.014 E95.08922
G1 X121.903 Y154.875 E95.09615
G1 X121.904 Y145.095 E95.58408
G1 X121.927 Y144.701 E95.60377
G1 X121.959 Y144.451 E95.61634
G1 X122.005 Y144.207 E95.62873
G1 X122.084 Y143.908 E95.64416
G1 X122.175 Y143.64 E95.65828
G1 X122.298 Y143.348 E95.67409
G1 X122.406 Y143.136 E95.68596
G1 X122.563 Y142.874 E95.7012
G1 X122.698 Y142.681 E95.71295
G1 X122.886 Y142.448 E95.72788
G1 X123.034 Y142.288 E95.73876
G1 X123.267 Y142.07 E95.75468
G0 F7500 X123.518 Y142.382
G1 F1500 X123.705 Y142.231 E95.76667
G1 X123.915 Y142.085 E95.77943
G1 X124.32 Y141.861 E95.80252
G1 X124.736 Y141.698 E95.82481
G1 X125.008 Y141.621 E95.83891
G1 X125.279 Y141.566 E95.85271
G1 X125.532 Y141.535 E95.86543
G1 X125.641 Y141.525 E95.87089
G1 X149.22 Y140.085 E97.04944
G1 X149.729 Y140.067 E97.07485
G1 X150.014 Y140.064 E97.08907
G1 X150.428 Y140.068 E97.10972
G1 X150.781 Y140.081 E97.12735
G1 X151.095 Y140.097 E97.14303
G1 X151.586 Y140.134 E97.1676
G1 X152.075 Y140.188 E97.19214
G1 X152.528 Y140.249 E97.21495
G1 X153.025 Y140.331 E97.24008
G1 X153.334 Y140.39 E97.25577
G1 X153.804 Y140.489 E97.27974
G1 X154.252 Y140.599 E97.30275
G1 X154.55 Y140.68 E97.31816
G1 X155.027 Y140.82 E97.34296
G1 X155.401 Y140.942 E97.36259
G1 X155.695 Y141.043 E97.37809
G1 X156.123 Y141.202 E97.40087
G1 X156.55 Y141.376 E97.42388
G1 X156.925 Y141.54 E97.4443
G1 X157.344 Y141.734 E97.46733
G1 X157.644 Y141.882 E97.48402
G1 X157.834 Y141.98 E97.49469
G1 X158.201 Y142.179 E97.51552
G1 X158.498 Y142.348 E97.53256
G1 X159.014 Y142.662 E97.5627
G1 X159.302 Y142.848 E97.5798
G1 X159.569 Y143.028 E97.59587
G1 X159.889 Y143.255 E97.61544
G1 X160.206 Y143.49 E97.63513
G1 X160.609 Y143.806 E97.66068
G1 X161.185 Y144.296 E97.69841
G1 X161.557 Y144.637 E97.72358
G1 X161.822 Y144.896 E97.74207
G1 X162.24 Y145.321 E97.77181
G1 X162.448 Y145.546 E97.7871
G1 X162.664 Y145.789 E97.80332
G1 X162.879 Y146.04 E97.81981
G1 X163.048 Y146.243 E97.83299
G1 X163.259 Y146.507 E97.84985
G1 X163.59 Y146.947 E97.87732
G1 X163.761 Y147.186 E97.89198
G1 X164.049 Y147.608 E97.91747
G1 X164.259 Y147.935 E97.93686
G1 X164.5 Y148.336 E97.9602
G1 X164.556 Y148.437 E97.96596
G1 X164.68 Y148.677 E97.97944
G1 X164.8 Y148.971 E97.99528
G1 X164.874 Y149.21 E98.00776
G1 X164.944 Y149.544 E98.02479
G1 X164.97 Y149.779 E98.03658
G1 X164.977 Y150.098 E98.0525
G1 X164.963 Y150.305 E98.06285
G1 X164.91 Y150.632 E98.07938
G1 X164.836 Y150.92 E98.09421
G1 X164.716 Y151.25 E98.11173
G1 X164.551 Y151.58 E98.13014
G1 X164.323 Y151.963 E98.15238
G1 X164.085 Y152.336 E98.17445
G1 X163.847 Y152.693 E98.19586
G1 X163.627 Y153.005 E98.2149
G1 X163.425 Y153.28 E98.23193
G1 X163.114 Y153.679 E98.25716
G1 X162.885 Y153.952 E98.27494
G1 X162.537 Y154.358 E98.30162
G1 X162.339 Y154.574 E98.31624
G1 X161.964 Y154.964 E98.34323
G1 X161.774 Y155.154 E98.35664
G1 X161.568 Y155.353 E98.37093
G1 X161.351 Y155.555 E98.38572
G1 X160.877 Y155.971 E98.41718
G1 X160.665 Y156.147 E98.43093
G1 X160.615 Y156.189 E98.43419
G1 X160.179 Y156.531 E98.46183
G1 X159.74 Y156.852 E98.48896
G1 X159.508 Y157.013 E98.50305
G1 X159.075 Y157.298 E98.52891
G1 X158.878 Y157.424 E98.54058
G1 X158.544 Y157.625 E98.56003
G1 X158.053 Y157.903 E98.58818
G1 X157.639 Y158.119 E98.61148
G1 X157.161 Y158.354 E98.63805
G1 X156.757 Y158.536 E98.66016
G1 X156.366 Y158.701 E98.68133
G1 X156.084 Y158.813 E98.69647
G1 X155.752 Y158.938 E98.71417
G1 X155.52 Y159.019 E98.72642
G1 X155.044 Y159.175 E98.75142
G1 X154.74 Y159.267 E98.76726
G1 X154.131 Y159.433 E98.79875
G1 X153.601 Y159.554 E98.82587
G1 X153.247 Y159.627 E98.84391
G1 X152.879 Y159.695 E98.86258
G1 X152.309 Y159.783 E98.89135
G1 X151.81 Y159.843 E98.91643
G1 X151.609 Y159.864 E98.92651
G1 X151.22 Y159.895 E98.94598
G1 X150.677 Y159.924 E98.97311
G1 X150.316 Y159.934 E98.99112
G1 X149.948 Y159.936 E99.00948
G1 X149.592 Y159.929 E99.02725
G1 X149.364 Y159.921 E99.03863
G1 X149.024 Y159.904 E99.05561
G1 X141.292 Y159.428 E99.4421
G1 X140.814 Y159.402 E99.46598
G1 X140.525 Y159.382 E99.48043
G1 X139.298 Y159.309 E99.54175
G1 X139.004 Y159.289 E99.55646
G1 X138.541 Y159.263 E99.57959
G1 X127.989 Y158.619 E100.10701
G1 X125.591 Y158.469 E100.22688
G1 X125.272 Y158.433 E100.2429
G1 X125.005 Y158.378 E100.2565
G1 X124.72 Y158.297 E100.27128
G1 X124.473 Y158.207 E100.2844
G1 X124.061 Y158.004 E100.30731
G1 X123.667 Y157.74 E100.33097
G1 X123.338 Y157.448 E100.35292
G1 X123.159 Y157.255 E100.36605
G1 X122.986 Y157.037 E100.37994
G1 X122.736 Y156.637 E100.40347
G1 X122.633 Y156.428 E100.41509
G1 X122.538 Y156.193 E100.42774
G1 X122.457 Y155.946 E100.44071
G1 X122.398 Y155.715 E100.4526
G1 X122.35 Y155.458 E100.46565
G1 X122.323 Y155.242 E100.47651
G1 X122.307 Y154.989 E100.48915
G1 X122.303 Y154.875 E100.49485
G1 X122.304 Y145.095 E100.98277
G1 X122.326 Y144.73 E101.00101
G1 X122.398 Y144.282 E101.02365
G1 X122.463 Y144.036 E101.03635
G1 X122.554 Y143.768 E101.05047
G1 X122.654 Y143.53 E101.06335
G1 X122.762 Y143.318 E101.07522
G1 X122.891 Y143.103 E101.08773
G1 X123.18 Y142.72 E101.11166
G1 X123.328 Y142.56 E101.12254
G1 X123.518 Y142.382 E101.13553
G0 F7500 X123.956 Y142.542
G1 F1500 X124.317 Y142.31 E101.15693
G1 X124.67 Y142.145 E101.17637
G1 X124.845 Y142.083 E101.18564
G1 X125.117 Y142.006 E101.19974
G1 X125.328 Y141.963 E101.21048
G1 X125.581 Y141.932 E101.2232
G1 X125.666 Y141.925 E101.22746
G1 X149.235 Y140.485 E102.40551
G1 X149.734 Y140.467 E102.43042
G1 X150.011 Y140.464 E102.44424
G1 X150.414 Y140.468 E102.46435
G1 X150.762 Y140.481 E102.48172
G1 X151.066 Y140.496 E102.49691
G1 X151.543 Y140.532 E102.52077
G1 X152.022 Y140.584 E102.54481
G1 X152.464 Y140.643 E102.56706
G1 X152.95 Y140.724 E102.59164
G1 X153.252 Y140.782 E102.60698
G1 X153.71 Y140.878 E102.63033
G1 X154.147 Y140.985 E102.65277
G1 X154.438 Y141.064 E102.66782
G1 X154.903 Y141.2 E102.69199
G1 X155.272 Y141.321 E102.71136
G1 X155.557 Y141.419 E102.7264
G1 X155.972 Y141.573 E102.74848
G1 X156.391 Y141.743 E102.77104
G1 X156.757 Y141.903 E102.79097
G1 X157.168 Y142.093 E102.81356
G1 X157.461 Y142.238 E102.82987
G1 X157.644 Y142.332 E102.84013
G1 X158.005 Y142.527 E102.8606
G1 X158.29 Y142.689 E102.87696
G1 X158.798 Y142.999 E102.90665
G1 X159.079 Y143.18 E102.92332
G1 X159.338 Y143.355 E102.93892
G1 X159.652 Y143.577 E102.9581
G1 X159.96 Y143.805 E102.97722
G1 X160.35 Y144.111 E103.00195
G1 X160.867 Y144.549 E103.03576
G1 X161.278 Y144.924 E103.06352
G1 X161.537 Y145.177 E103.08158
G1 X161.946 Y145.592 E103.11065
G1 X162.15 Y145.813 E103.12565
G1 X162.36 Y146.048 E103.14138
G1 X162.572 Y146.296 E103.15766
G1 X162.741 Y146.499 E103.17083
G1 X162.94 Y146.748 E103.18674
G1 X163.265 Y147.18 E103.21371
G1 X163.43 Y147.412 E103.22791
G1 X163.745 Y147.875 E103.25585
G1 X163.916 Y148.141 E103.27162
G1 X164.157 Y148.542 E103.29497
G1 X164.201 Y148.62 E103.29943
G1 X164.325 Y148.86 E103.31291
G1 X164.418 Y149.089 E103.32524
G1 X164.492 Y149.328 E103.33772
G1 X164.547 Y149.588 E103.35098
G1 X164.578 Y150.071 E103.37513
G1 X164.564 Y150.278 E103.38548
G1 X164.523 Y150.532 E103.39832
G1 X164.449 Y150.82 E103.41315
G1 X164.355 Y151.077 E103.4268
G1 X164.206 Y151.378 E103.44356
G1 X163.986 Y151.748 E103.46504
G1 X163.752 Y152.115 E103.48675
G1 X163.52 Y152.463 E103.50762
G1 X163.3 Y152.775 E103.52666
G1 X163.14 Y152.992 E103.54011
G1 X162.798 Y153.433 E103.56796
G1 X162.585 Y153.687 E103.58449
G1 X162.242 Y154.088 E103.61082
G1 X162.05 Y154.298 E103.62502
G1 X161.682 Y154.681 E103.65152
G1 X161.495 Y154.867 E103.66467
G1 X161.295 Y155.061 E103.67858
G1 X161.086 Y155.255 E103.6928
G1 X160.614 Y155.669 E103.72412
G1 X160.368 Y155.874 E103.7401
G1 X159.942 Y156.208 E103.76711
G1 X159.511 Y156.524 E103.79377
G1 X159.288 Y156.679 E103.80732
G1 X158.705 Y157.061 E103.84209
G1 X158.347 Y157.277 E103.86295
G1 X157.914 Y157.523 E103.8878
G1 X157.495 Y157.744 E103.91143
G1 X156.985 Y157.995 E103.93979
G1 X156.601 Y158.168 E103.9608
G1 X156.218 Y158.329 E103.98153
G1 X155.942 Y158.438 E103.99633
G1 X155.618 Y158.561 E104.01362
G1 X155.395 Y158.639 E104.02541
G1 X154.929 Y158.792 E104.04988
G1 X154.553 Y158.904 E104.06945
G1 X154.5 Y158.917 E104.07218
G1 X154.042 Y159.043 E104.09588
G1 X153.519 Y159.162 E104.12264
G1 X153.174 Y159.234 E104.14022
G1 X152.817 Y159.3 E104.15833
G1 X152.262 Y159.386 E104.18635
G1 X151.768 Y159.445 E104.21117
G1 X151.576 Y159.465 E104.2208
G1 X151.198 Y159.496 E104.23972
G1 X150.666 Y159.524 E104.2663
G1 X150.314 Y159.534 E104.28387
G1 X149.955 Y159.536 E104.30178
G1 X149.606 Y159.529 E104.3192
G1 X149.384 Y159.521 E104.33028
G1 X149.048 Y159.504 E104.34706
G1 X141.324 Y159.03 E104.73314
G1 X140.841 Y159.003 E104.75728
G1 X140.566 Y158.984 E104.77103
G1 X139.325 Y158.91 E104.83305
G1 X139.039 Y158.891 E104.84735
G1 X128.014 Y158.22 E105.39841
G1 X125.616 Y158.07 E105.51828
G1 X125.322 Y158.036 E105.53304
G1 X125.114 Y157.994 E105.54363
G1 X124.829 Y157.913 E105.55841
G1 X124.435 Y157.751 E105.57967
G1 X124.077 Y157.544 E105.6003
G1 X123.765 Y157.302 E105.62
G1 X123.632 Y157.176 E105.62914
G1 X123.453 Y156.983 E105.64227
G1 X123.19 Y156.623 E105.66451
G1 X122.992 Y156.251 E105.68554
G1 X122.918 Y156.068 E105.69539
G1 X122.837 Y155.821 E105.70835
G1 X122.791 Y155.642 E105.71757
G1 X122.743 Y155.385 E105.73062
G1 X122.722 Y155.216 E105.73911
G1 X122.706 Y154.963 E105.75176
G1 X122.703 Y154.875 E105.75615
G1 X122.704 Y145.095 E106.24408
G1 X122.725 Y144.758 E106.26093
G1 X122.791 Y144.356 E106.28125
G1 X122.841 Y144.165 E106.2911
G1 X122.932 Y143.897 E106.30522
G1 X123.119 Y143.5 E106.32711
G1 X123.354 Y143.14 E106.34856
G1 X123.621 Y142.831 E106.36894
G1 X123.956 Y142.542 E106.39101
G0 F7500 X124.208 Y142.853
G1 F1500 X124.522 Y142.654 E106.40956
G1 X124.829 Y142.512 E106.42643
G1 X124.954 Y142.468 E106.43304
G1 X125.226 Y142.391 E106.44715
G1 X125.376 Y142.36 E106.45479
G1 X125.629 Y142.329 E106.46751
G1 X149.225 Y140.886 E107.64691
G1 X149.739 Y140.867 E107.67257
G1 X150.007 Y140.864 E107.68595
G1 X150.399 Y140.868 E107.7055
G1 X150.742 Y140.88 E107.72263
G1 X151.036 Y140.895 E107.73731
G1 X151.5 Y140.93 E107.76053
G1 X151.97 Y140.981 E107.78411
G1 X152.399 Y141.038 E107.80571
G1 X152.875 Y141.117 E107.82978
G1 X153.17 Y141.173 E107.84476
G1 X153.615 Y141.266 E107.86744
G1 X154.042 Y141.371 E107.88938
G1 X154.326 Y141.448 E107.90406
G1 X154.779 Y141.58 E107.9276
G1 X155.143 Y141.7 E107.94672
G1 X155.418 Y141.794 E107.96122
G1 X155.822 Y141.943 E107.9827
G1 X156.232 Y142.11 E108.00479
G1 X156.589 Y142.266 E108.02422
G1 X156.991 Y142.452 E108.04632
G1 X157.277 Y142.593 E108.06223
G1 X157.454 Y142.685 E108.07218
G1 X157.808 Y142.875 E108.09223
G1 X158.082 Y143.031 E108.10796
G1 X158.581 Y143.335 E108.13711
G1 X158.856 Y143.512 E108.15343
G1 X159.107 Y143.681 E108.16852
G1 X159.414 Y143.899 E108.18731
G1 X159.714 Y144.121 E108.20593
G1 X160.091 Y144.416 E108.22981
G1 X160.641 Y144.883 E108.26581
G1 X160.999 Y145.211 E108.29003
G1 X161.253 Y145.458 E108.30771
G1 X161.652 Y145.863 E108.33607
G1 X161.852 Y146.08 E108.35079
G1 X162.056 Y146.308 E108.36606
G1 X162.265 Y146.552 E108.38208
G1 X162.434 Y146.755 E108.39526
G1 X162.62 Y146.989 E108.41018
G1 X162.939 Y147.412 E108.43661
G1 X163.1 Y147.637 E108.45041
G1 X163.407 Y148.088 E108.47763
G1 X163.573 Y148.347 E108.49298
G1 X163.814 Y148.748 E108.51632
G1 X163.845 Y148.804 E108.51951
G1 X163.969 Y149.044 E108.53299
G1 X164.036 Y149.207 E108.54178
G1 X164.11 Y149.446 E108.55426
G1 X164.175 Y149.867 E108.57552
G1 X164.165 Y150.251 E108.59468
G1 X164.136 Y150.433 E108.60387
G1 X164.062 Y150.721 E108.61871
G1 X163.901 Y151.1 E108.63925
G1 X163.861 Y151.175 E108.64349
G1 X163.66 Y151.514 E108.66316
G1 X163.419 Y151.893 E108.68556
G1 X163.193 Y152.232 E108.70589
G1 X162.973 Y152.544 E108.72494
G1 X162.794 Y152.788 E108.74003
G1 X162.458 Y153.217 E108.76722
G1 X161.969 Y153.793 E108.80492
G1 X161.761 Y154.021 E108.82031
G1 X161.4 Y154.397 E108.84632
G1 X161.216 Y154.58 E108.85927
G1 X161.022 Y154.768 E108.87274
G1 X160.822 Y154.954 E108.88637
G1 X160.351 Y155.368 E108.91766
G1 X160.12 Y155.56 E108.93264
G1 X159.705 Y155.886 E108.95897
G1 X159.282 Y156.196 E108.98513
G1 X159.068 Y156.345 E108.99814
G1 X158.643 Y156.625 E109.02353
G1 X158.465 Y156.739 E109.03408
G1 X158.15 Y156.928 E109.05241
G1 X157.681 Y157.195 E109.07933
G1 X157.286 Y157.401 E109.10156
G1 X156.75 Y157.663 E109.13132
G1 X156.475 Y157.786 E109.14635
G1 X156.07 Y157.957 E109.16828
G1 X155.801 Y158.064 E109.18273
G1 X155.485 Y158.184 E109.19959
G1 X155.271 Y158.259 E109.2109
G1 X154.813 Y158.409 E109.23495
G1 X154.509 Y158.501 E109.25079
G1 X153.953 Y158.653 E109.27955
G1 X153.437 Y158.771 E109.30596
G1 X153.101 Y158.841 E109.32308
G1 X152.755 Y158.905 E109.34064
G1 X152.214 Y158.989 E109.36795
G1 X151.726 Y159.047 E109.39247
G1 X151.543 Y159.067 E109.40165
G1 X151.176 Y159.097 E109.42002
G1 X150.655 Y159.125 E109.44605
G1 X150.311 Y159.134 E109.46322
G1 X149.963 Y159.136 E109.48058
G1 X149.62 Y159.129 E109.4977
G1 X149.404 Y159.122 E109.50848
G1 X149.073 Y159.105 E109.52502
G1 X141.341 Y158.63 E109.9115
G1 X140.869 Y158.604 E109.93508
G1 X140.58 Y158.583 E109.94954
G1 X139.352 Y158.511 E110.01091
G1 X139.058 Y158.49 E110.02561
G1 X138.59 Y158.464 E110.049
G1 X128.039 Y157.821 E110.57636
G1 X125.641 Y157.671 E110.69623
G1 X125.372 Y157.639 E110.70975
G1 X125.224 Y157.609 E110.71728
G1 X124.939 Y157.528 E110.73207
G1 X124.599 Y157.387 E110.75043
G1 X124.288 Y157.204 E110.76843
G1 X124.02 Y156.994 E110.78542
G1 X123.925 Y156.904 E110.79195
G1 X123.746 Y156.711 E110.80508
G1 X123.522 Y156.4 E110.8242
G1 X123.351 Y156.074 E110.84257
G1 X123.298 Y155.944 E110.84957
G1 X123.217 Y155.697 E110.86254
G1 X123.184 Y155.569 E110.86913
G1 X123.136 Y155.312 E110.88218
G1 X123.121 Y155.191 E110.88826
G1 X123.105 Y154.938 E110.90091
G1 X123.103 Y154.875 E110.90405
G1 X123.104 Y145.095 E111.39198
G1 X123.124 Y144.787 E111.40738
G1 X123.184 Y144.43 E111.42544
G1 X123.22 Y144.293 E111.43251
G1 X123.311 Y144.025 E111.44663
G1 X123.475 Y143.681 E111.46564
G1 X123.682 Y143.369 E111.48432
G1 X123.915 Y143.103 E111.50196
G1 X124.208 Y142.853 E111.52118
G0 F7500 X124.459 Y143.164
G1 F1500 X124.727 Y142.998 E111.5369
G1 X124.988 Y142.879 E111.55121
G1 X125.063 Y142.853 E111.55518
G1 X125.335 Y142.776 E111.56928
G1 X125.425 Y142.757 E111.57387
G1 X125.714 Y142.723 E111.58839
G1 X149.264 Y141.284 E112.76549
G1 X149.744 Y141.267 E112.78945
G1 X150.004 Y141.264 E112.80243
G1 X150.385 Y141.267 E112.82143
G1 X150.723 Y141.28 E112.83831
G1 X151.006 Y141.294 E112.85245
G1 X151.457 Y141.327 E112.87501
G1 X151.917 Y141.377 E112.89809
G1 X152.334 Y141.433 E112.91908
G1 X152.8 Y141.51 E112.94265
G1 X153.089 Y141.565 E112.95732
G1 X153.52 Y141.655 E112.97929
G1 X153.937 Y141.757 E113.00071
G1 X154.213 Y141.832 E113.01498
G1 X154.654 Y141.961 E113.0379
G1 X155.014 Y142.078 E113.05679
G1 X155.28 Y142.169 E113.07081
G1 X155.672 Y142.314 E113.09166
G1 X156.072 Y142.477 E113.11321
G1 X156.421 Y142.629 E113.1322
G1 X156.814 Y142.811 E113.15381
G1 X157.094 Y142.949 E113.16938
G1 X157.265 Y143.037 E113.17898
G1 X157.611 Y143.224 E113.1986
G1 X157.874 Y143.373 E113.21368
G1 X158.365 Y143.671 E113.24234
G1 X158.633 Y143.844 E113.25825
G1 X158.876 Y144.008 E113.27288
G1 X159.176 Y144.22 E113.2912
G1 X159.468 Y144.436 E113.30932
G1 X159.833 Y144.721 E113.33243
G1 X160.37 Y145.177 E113.36758
G1 X160.721 Y145.498 E113.39131
G1 X160.968 Y145.739 E113.40852
G1 X161.358 Y146.134 E113.43622
G1 X161.554 Y146.347 E113.45066
G1 X161.752 Y146.568 E113.46546
G1 X161.957 Y146.808 E113.48121
G1 X162.153 Y147.046 E113.49659
G1 X162.301 Y147.23 E113.50837
G1 X162.614 Y147.645 E113.5343
G1 X162.77 Y147.863 E113.54768
G1 X163.069 Y148.302 E113.57418
G1 X163.23 Y148.553 E113.58905
G1 X163.49 Y148.988 E113.61434
G1 X163.614 Y149.228 E113.62781
G1 X163.654 Y149.326 E113.6331
G1 X163.728 Y149.565 E113.64558
G1 X163.777 Y149.911 E113.66301
G1 X163.766 Y150.224 E113.67864
G1 X163.748 Y150.333 E113.68415
G1 X163.674 Y150.621 E113.69898
G1 X163.54 Y150.927 E113.71565
G1 X163.516 Y150.972 E113.71819
G1 X163.311 Y151.318 E113.73826
G1 X163.086 Y151.671 E113.75914
G1 X162.866 Y152.002 E113.77897
G1 X162.646 Y152.314 E113.79802
G1 X162.478 Y152.542 E113.81215
G1 X162.152 Y152.959 E113.83855
G1 X161.651 Y153.549 E113.87717
G1 X161.472 Y153.744 E113.89038
G1 X161.118 Y154.113 E113.91589
G1 X160.937 Y154.293 E113.92862
G1 X160.749 Y154.476 E113.94171
G1 X160.558 Y154.654 E113.95474
G1 X160.088 Y155.067 E113.98595
G1 X159.873 Y155.246 E113.99991
G1 X159.468 Y155.564 E114.0256
G1 X159.053 Y155.868 E114.05126
G1 X158.848 Y156.011 E114.06373
G1 X158.426 Y156.289 E114.08895
G1 X158.258 Y156.397 E114.09891
G1 X157.953 Y156.58 E114.11666
G1 X157.496 Y156.84 E114.14289
G1 X157.11 Y157.042 E114.16462
G1 X156.597 Y157.293 E114.19312
G1 X156.307 Y157.423 E114.20897
G1 X155.923 Y157.586 E114.22978
G1 X155.659 Y157.69 E114.24394
G1 X155.351 Y157.807 E114.26038
G1 X155.146 Y157.879 E114.27122
G1 X154.697 Y158.026 E114.29479
G1 X154.362 Y158.127 E114.31224
G1 X154.309 Y158.14 E114.31497
G1 X153.89 Y158.256 E114.33666
G1 X153.365 Y158.377 E114.36354
G1 X153.027 Y158.448 E114.38077
G1 X152.694 Y158.51 E114.39767
G1 X152.166 Y158.592 E114.42432
G1 X151.683 Y158.65 E114.44859
G1 X151.51 Y158.668 E114.45727
G1 X151.155 Y158.697 E114.47504
G1 X150.644 Y158.725 E114.50057
G1 X150.309 Y158.734 E114.51729
G1 X149.97 Y158.736 E114.53421
G1 X149.634 Y158.73 E114.55097
G1 X149.424 Y158.722 E114.56146
G1 X149.097 Y158.706 E114.57779
G1 X141.365 Y158.231 E114.96427
G1 X140.897 Y158.205 E114.98765
G1 X140.608 Y158.185 E115.0021
G1 X139.379 Y158.112 E115.06353
G1 X139.085 Y158.092 E115.07823
G1 X138.614 Y158.065 E115.10177
G1 X128.064 Y157.422 E115.62908
G1 X125.666 Y157.272 E115.74896
G1 X125.333 Y157.224 E115.76574
G1 X125.048 Y157.143 E115.78052
G1 X124.764 Y157.022 E115.79592
G1 X124.499 Y156.864 E115.81132
G1 X124.275 Y156.686 E115.82559
G1 X124.218 Y156.632 E115.82951
G1 X124.039 Y156.439 E115.84264
G1 X123.853 Y156.176 E115.85871
G1 X123.71 Y155.897 E115.87435
G1 X123.678 Y155.819 E115.87856
G1 X123.597 Y155.572 E115.89153
G1 X123.577 Y155.495 E115.8955
G1 X123.529 Y155.238 E115.90854
G1 X123.52 Y155.166 E115.91216
G1 X123.503 Y154.875 E115.9267
G1 X123.504 Y145.095 E116.41463
G1 X123.523 Y144.816 E116.42858
G1 X123.577 Y144.504 E116.44438
G1 X123.599 Y144.422 E116.44861
G1 X123.69 Y144.154 E116.46273
G1 X123.831 Y143.863 E116.47887
G1 X124.009 Y143.598 E116.49479
G1 X124.209 Y143.375 E116.50974
G1 X124.459 Y143.164 E116.52606
G0 F7500 X124.523 Y143.626
G1 F1500 X124.734 Y143.459 E116.53948
G1 X124.955 Y143.329 E116.55227
G1 X125.172 Y143.238 E116.56401
