;FLAVOR:Marlin
;TIME:477
;Filament used: 0.508035m
;Layer height: 0.6
;MINX:137.061
;MINY:95.661
;MINZ:0.3
;MAXX:162.939
;MAXY:121.539
;MAXZ:30.9
;Generated with Cura_SteamEngine 4.13.0
M140 S60
M105
M190 S60
M104 S200
M105
M109 S200
M82 ;absolute extrusion mode
G28 ;Home
G1 Z15.0 F2000 ;Move the platform
G92 E0
G92 E0
G1 F1500 E-6.5
;LAYER_COUNT:52
;LAYER:0
M107
M204 S1000
G0 F7500 X139.743 Y100.7 Z0.3
;TYPE:SKIRT
G1 F1500 E0
G1 X140.007 Y100.37 E0.02108
G1 X140.202 Y100.135 E0.03632
G1 X140.649 Y99.647 E0.06934
G1 X141.03 Y99.265 E0.09625
G1 X141.661 Y98.698 E0.13858
G1 X142.082 Y98.359 E0.16554
G1 X142.718 Y97.897 E0.20476
G1 X143.168 Y97.604 E0.23155
G1 X143.878 Y97.194 E0.27245
G1 X144.358 Y96.949 E0.29934
G1 X145.124 Y96.608 E0.34117
G1 X145.63 Y96.415 E0.36819
G1 X146.348 Y96.18 E0.40588
G1 X146.876 Y96.037 E0.43317
G1 X146.989 Y96.008 E0.43899
G1 X147.704 Y95.86 E0.47542
G1 X148.239 Y95.775 E0.50245
G1 X149.057 Y95.689 E0.54348
G1 X149.594 Y95.661 E0.57031
G1 X150.406 Y95.661 E0.61082
G1 X150.943 Y95.689 E0.63765
G1 X151.761 Y95.775 E0.67868
G1 X152.296 Y95.86 E0.70571
G1 X153.107 Y96.033 E0.74708
G1 X153.625 Y96.173 E0.77385
G1 X154.37 Y96.415 E0.81293
G1 X154.876 Y96.608 E0.83995
G1 X155.642 Y96.949 E0.88178
G1 X156.12 Y97.193 E0.90855
G1 X156.824 Y97.599 E0.9491
G1 X157.278 Y97.894 E0.97611
G1 X157.898 Y98.342 E1.01427
G1 X158.227 Y98.605 E1.03529
G1 X158.465 Y98.802 E1.0507
G1 X158.942 Y99.238 E1.08294
G1 X159.242 Y99.536 E1.10404
G1 X159.441 Y99.74 E1.11826
G1 X159.889 Y100.246 E1.15197
G1 X160.229 Y100.666 E1.17893
G1 X160.703 Y101.318 E1.21915
G1 X160.996 Y101.768 E1.24594
G1 X161.406 Y102.478 E1.28684
G1 X161.651 Y102.958 E1.31373
G1 X161.992 Y103.724 E1.35556
G1 X162.185 Y104.23 E1.38258
G1 X162.42 Y104.948 E1.42027
G1 X162.563 Y105.476 E1.44756
G1 X162.592 Y105.589 E1.45338
G1 X162.74 Y106.3 E1.48961
G1 X162.825 Y106.833 E1.51654
G1 X162.911 Y107.656 E1.55782
G1 X162.939 Y108.194 E1.5847
G1 X162.939 Y109.004 E1.62511
G1 X162.911 Y109.542 E1.65199
G1 X162.825 Y110.361 E1.69307
G1 X162.74 Y110.896 E1.7201
G1 X162.57 Y111.694 E1.76081
G1 X162.431 Y112.212 E1.78756
G1 X162.182 Y112.979 E1.8278
G1 X161.989 Y113.483 E1.85472
G1 X161.652 Y114.24 E1.89606
G1 X161.407 Y114.72 E1.92295
G1 X160.999 Y115.427 E1.96367
G1 X160.705 Y115.879 E1.99057
G1 X160.236 Y116.525 E2.0304
G1 X159.897 Y116.945 E2.05733
G1 X159.357 Y117.547 E2.09767
G1 X158.978 Y117.928 E2.12449
G1 X158.296 Y118.529 E2.16984
G1 X158.299 Y118.533 E2.17009
G1 X157.94 Y118.824 E2.19314
G1 X157.281 Y119.304 E2.23382
G1 X156.829 Y119.598 E2.26072
G1 X156.122 Y120.006 E2.30144
G1 X155.642 Y120.251 E2.32833
G1 X154.876 Y120.592 E2.37016
G1 X154.37 Y120.785 E2.39718
G1 X153.625 Y121.027 E2.43626
G1 X153.107 Y121.167 E2.46303
G1 X152.296 Y121.34 E2.5044
G1 X151.761 Y121.425 E2.53143
G1 X150.943 Y121.511 E2.57246
G1 X150.406 Y121.539 E2.59929
G1 X149.594 Y121.539 E2.6398
G1 X149.057 Y121.511 E2.66663
G1 X148.239 Y121.425 E2.70766
G1 X147.704 Y121.34 E2.73469
G1 X146.893 Y121.167 E2.77606
G1 X146.375 Y121.027 E2.80283
G1 X145.63 Y120.785 E2.84191
G1 X145.124 Y120.592 E2.86893
G1 X144.358 Y120.251 E2.91076
G1 X143.878 Y120.006 E2.93765
G1 X143.171 Y119.598 E2.97837
G1 X142.719 Y119.304 E3.00527
G1 X142.102 Y118.858 E3.04325
G1 X141.773 Y118.595 E3.06427
G1 X141.521 Y118.385 E3.08063
G1 X141.056 Y117.96 E3.11206
G1 X140.758 Y117.664 E3.13302
G1 X140.559 Y117.46 E3.14723
G1 X140.111 Y116.954 E3.18095
G1 X139.771 Y116.534 E3.20791
G1 X139.295 Y115.879 E3.24831
G1 X139.001 Y115.427 E3.27521
G1 X138.593 Y114.72 E3.31593
G1 X138.348 Y114.24 E3.34282
G1 X138.006 Y113.471 E3.38481
G1 X137.814 Y112.967 E3.41171
G1 X137.58 Y112.252 E3.44925
G1 X137.437 Y111.724 E3.47654
G1 X137.408 Y111.611 E3.48236
G1 X137.26 Y110.896 E3.51879
G1 X137.175 Y110.361 E3.54581
G1 X137.089 Y109.544 E3.5868
G1 X137.061 Y109.008 E3.61358
G1 X137.061 Y108.196 E3.65409
G1 X137.089 Y107.658 E3.68096
G1 X137.175 Y106.839 E3.72205
G1 X137.26 Y106.304 E3.74907
G1 X137.433 Y105.493 E3.79045
G1 X137.573 Y104.975 E3.81722
G1 X137.814 Y104.233 E3.85614
G1 X138.006 Y103.729 E3.88305
G1 X138.348 Y102.96 E3.92503
G1 X138.593 Y102.48 E3.95192
G1 X138.997 Y101.78 E3.99224
G1 X139.291 Y101.327 E4.01919
G1 X139.743 Y100.7 E4.05775
G0 F7500 X140.056 Y100.95
G1 F1500 X140.434 Y100.48 E4.08784
G1 X140.508 Y100.392 E4.09357
G1 X140.933 Y99.929 E4.12493
G1 X141.314 Y99.547 E4.15185
G1 X141.912 Y99.009 E4.19198
G1 X142.333 Y98.67 E4.21894
G1 X142.936 Y98.233 E4.2561
G1 X143.386 Y97.94 E4.28289
G1 X144.06 Y97.55 E4.32174
G1 X144.54 Y97.305 E4.34862
G1 X145.267 Y96.982 E4.38831
G1 X145.773 Y96.789 E4.41533
G1 X146.454 Y96.566 E4.45108
G1 X146.975 Y96.424 E4.47802
G1 X147.088 Y96.395 E4.48384
G1 X147.767 Y96.255 E4.51843
G1 X148.302 Y96.17 E4.54546
G1 X149.078 Y96.088 E4.58439
G1 X149.615 Y96.06 E4.61122
G1 X150.385 Y96.06 E4.64963
G1 X150.922 Y96.088 E4.67646
G1 X151.698 Y96.17 E4.71539
G1 X152.233 Y96.255 E4.74241
G1 X153.003 Y96.419 E4.78169
G1 X153.521 Y96.559 E4.80846
G1 X154.227 Y96.789 E4.84551
G1 X154.733 Y96.982 E4.87252
G1 X155.46 Y97.305 E4.91221
G1 X155.938 Y97.549 E4.93899
G1 X156.606 Y97.935 E4.97748
G1 X157.06 Y98.23 E5.00449
G1 X157.649 Y98.655 E5.04073
G1 X158.12 Y99.034 E5.07089
G1 X158.208 Y99.108 E5.07662
G1 X158.66 Y99.522 E5.1072
G1 X159.072 Y99.933 E5.13624
G1 X159.153 Y100.017 E5.14206
G1 X159.578 Y100.498 E5.17408
G1 X159.918 Y100.918 E5.20104
G1 X160.367 Y101.536 E5.23915
G1 X160.66 Y101.986 E5.26594
G1 X161.05 Y102.66 E5.30479
G1 X161.295 Y103.14 E5.33168
G1 X161.618 Y103.867 E5.37137
G1 X161.811 Y104.373 E5.39839
G1 X162.034 Y105.054 E5.43414
G1 X162.176 Y105.575 E5.46108
G1 X162.205 Y105.688 E5.4669
G1 X162.345 Y106.363 E5.50129
G1 X162.43 Y106.896 E5.52822
G1 X162.512 Y107.676 E5.56735
G1 X162.54 Y108.214 E5.59422
G1 X162.54 Y108.984 E5.63264
G1 X162.512 Y109.522 E5.65952
G1 X162.43 Y110.298 E5.69845
G1 X162.345 Y110.833 E5.72547
G1 X162.184 Y111.59 E5.76408
G1 X162.045 Y112.108 E5.79084
G1 X161.809 Y112.836 E5.82902
G1 X161.616 Y113.34 E5.85595
G1 X161.296 Y114.058 E5.89517
G1 X161.051 Y114.538 E5.92205
G1 X160.663 Y115.209 E5.96072
G1 X160.369 Y115.661 E5.98762
G1 X159.924 Y116.274 E6.02541
G1 X159.585 Y116.694 E6.05234
G1 X159.073 Y117.265 E6.0906
G1 X158.694 Y117.646 E6.11742
G1 X158.044 Y118.219 E6.16065
G1 X158.047 Y118.223 E6.16089
G1 X157.688 Y118.514 E6.18395
G1 X157.063 Y118.968 E6.22249
G1 X156.611 Y119.262 E6.24939
G1 X155.94 Y119.65 E6.28806
G1 X155.46 Y119.895 E6.31495
G1 X154.733 Y120.218 E6.35464
G1 X154.227 Y120.411 E6.38165
G1 X153.521 Y120.641 E6.4187
G1 X153.003 Y120.781 E6.44547
G1 X152.233 Y120.945 E6.48475
G1 X151.698 Y121.03 E6.51177
G1 X150.922 Y121.112 E6.5507
G1 X150.385 Y121.14 E6.57753
G1 X149.615 Y121.14 E6.61595
G1 X149.078 Y121.112 E6.64277
G1 X148.302 Y121.03 E6.6817
G1 X147.767 Y120.945 E6.70873
G1 X146.997 Y120.781 E6.74801
G1 X146.479 Y120.641 E6.77478
G1 X145.773 Y120.411 E6.81182
G1 X145.267 Y120.218 E6.83884
G1 X144.54 Y119.895 E6.87853
G1 X144.06 Y119.65 E6.90542
G1 X143.389 Y119.262 E6.94409
G1 X142.937 Y118.968 E6.97099
G1 X142.351 Y118.545 E7.00704
G1 X142.022 Y118.282 E7.02806
G1 X141.779 Y118.08 E7.04382
G1 X141.338 Y117.676 E7.07366
G1 X140.928 Y117.267 E7.10255
G1 X140.847 Y117.183 E7.10837
G1 X140.422 Y116.702 E7.1404
G1 X140.082 Y116.282 E7.16736
G1 X139.631 Y115.661 E7.20565
G1 X139.337 Y115.209 E7.23255
G1 X138.949 Y114.538 E7.27122
G1 X138.704 Y114.058 E7.2981
G1 X138.38 Y113.328 E7.33795
G1 X138.188 Y112.824 E7.36486
G1 X137.966 Y112.146 E7.40045
G1 X137.824 Y111.625 E7.42739
G1 X137.795 Y111.512 E7.43321
G1 X137.655 Y110.833 E7.4678
G1 X137.57 Y110.298 E7.49483
G1 X137.488 Y109.523 E7.53371
G1 X137.46 Y108.987 E7.56048
G1 X137.46 Y108.216 E7.59895
G1 X137.488 Y107.678 E7.62583
G1 X137.57 Y106.902 E7.66476
G1 X137.655 Y106.367 E7.69178
G1 X137.819 Y105.597 E7.73106
G1 X137.959 Y105.079 E7.75783
G1 X138.188 Y104.376 E7.79472
G1 X138.38 Y103.872 E7.82162
G1 X138.704 Y103.142 E7.86147
G1 X138.949 Y102.662 E7.88836
G1 X139.333 Y101.997 E7.92667
G1 X139.627 Y101.544 E7.95361
G1 X140.056 Y100.95 E7.99017
G0 F7500 X140.368 Y101.2
G1 F1500 X140.74 Y100.738 E8.01976
G1 X140.814 Y100.65 E8.02549
G1 X141.216 Y100.212 E8.05515
G1 X141.597 Y99.83 E8.08207
G1 X142.163 Y99.321 E8.12005
G1 X142.584 Y98.982 E8.14702
G1 X143.155 Y98.568 E8.1822
G1 X143.605 Y98.275 E8.20899
G1 X144.242 Y97.906 E8.24572
G1 X144.722 Y97.661 E8.27261
G1 X145.409 Y97.356 E8.31011
G1 X145.915 Y97.163 E8.33712
G1 X146.56 Y96.952 E8.37098
G1 X147.075 Y96.812 E8.39761
G1 X147.188 Y96.783 E8.40343
G1 X147.83 Y96.65 E8.43614
G1 X148.365 Y96.565 E8.46316
G1 X149.099 Y96.487 E8.49999
G1 X149.636 Y96.459 E8.52682
G1 X150.364 Y96.459 E8.56314
G1 X150.901 Y96.487 E8.58996
G1 X151.635 Y96.565 E8.62679
G1 X152.17 Y96.65 E8.65382
G1 X152.898 Y96.805 E8.69095
G1 X153.416 Y96.945 E8.71772
G1 X154.085 Y97.163 E8.75282
G1 X154.591 Y97.356 E8.77984
G1 X155.279 Y97.661 E8.81739
G1 X155.757 Y97.905 E8.84416
G1 X156.388 Y98.27 E8.88053
G1 X156.842 Y98.565 E8.90754
G1 X157.399 Y98.967 E8.94181
G1 X157.728 Y99.23 E8.96283
G1 X157.95 Y99.414 E8.97721
G1 X158.378 Y99.806 E9.00617
G1 X158.784 Y100.211 E9.03478
G1 X158.865 Y100.295 E9.0406
G1 X159.267 Y100.75 E9.07089
G1 X159.607 Y101.17 E9.09785
G1 X160.032 Y101.755 E9.13393
G1 X160.325 Y102.205 E9.16072
G1 X160.694 Y102.842 E9.19744
G1 X160.939 Y103.322 E9.22433
G1 X161.244 Y104.009 E9.26183
G1 X161.437 Y104.515 E9.28885
G1 X161.648 Y105.16 E9.32271
G1 X161.788 Y105.675 E9.34933
G1 X161.817 Y105.788 E9.35515
G1 X161.95 Y106.426 E9.38767
G1 X162.035 Y106.959 E9.41459
G1 X162.113 Y107.697 E9.45162
G1 X162.141 Y108.235 E9.47849
G1 X162.141 Y108.963 E9.51481
G1 X162.113 Y109.501 E9.54169
G1 X162.035 Y110.235 E9.57852
G1 X161.95 Y110.77 E9.60554
G1 X161.798 Y111.486 E9.64206
G1 X161.659 Y112.004 E9.66882
G1 X161.435 Y112.693 E9.70496
G1 X161.242 Y113.197 E9.73189
G1 X160.94 Y113.876 E9.76896
G1 X160.695 Y114.356 E9.79585
G1 X160.328 Y114.991 E9.83244
G1 X160.034 Y115.443 E9.85934
G1 X159.613 Y116.023 E9.8951
G1 X159.274 Y116.443 E9.92203
G1 X158.79 Y116.983 E9.9582
G1 X158.411 Y117.364 E9.98502
G1 X157.792 Y117.909 E10.02616
G1 X157.436 Y118.203 E10.0492
G1 X156.845 Y118.633 E10.08566
G1 X156.393 Y118.927 E10.11256
G1 X155.758 Y119.294 E10.14915
G1 X155.278 Y119.539 E10.17604
G1 X154.591 Y119.844 E10.21354
G1 X154.085 Y120.037 E10.24056
G1 X153.416 Y120.255 E10.27566
G1 X152.898 Y120.395 E10.30243
G1 X152.17 Y120.55 E10.33956
G1 X151.635 Y120.635 E10.36659
G1 X150.901 Y120.713 E10.40342
G1 X150.364 Y120.741 E10.43024
G1 X149.636 Y120.741 E10.46656
G1 X149.099 Y120.713 E10.49339
G1 X148.365 Y120.635 E10.53022
G1 X147.83 Y120.55 E10.55724
G1 X147.102 Y120.395 E10.59438
G1 X146.584 Y120.255 E10.62115
G1 X145.915 Y120.037 E10.65625
G1 X145.409 Y119.844 E10.68327
G1 X144.722 Y119.539 E10.72077
G1 X144.242 Y119.294 E10.74766
G1 X143.607 Y118.927 E10.78425
G1 X143.155 Y118.633 E10.81115
G1 X142.601 Y118.233 E10.84524
G1 X142.272 Y117.97 E10.86625
G1 X142.037 Y117.774 E10.88152
G1 X141.62 Y117.392 E10.90973
G1 X141.216 Y116.989 E10.9382
G1 X141.135 Y116.905 E10.94402
G1 X140.733 Y116.45 E10.97432
G1 X140.393 Y116.03 E11.00127
G1 X139.966 Y115.443 E11.03749
G1 X139.672 Y114.991 E11.06439
G1 X139.305 Y114.356 E11.10098
G1 X139.06 Y113.876 E11.12787
G1 X138.754 Y113.186 E11.16552
G1 X138.562 Y112.682 E11.19243
G1 X138.352 Y112.04 E11.22613
G1 X138.212 Y111.525 E11.25276
G1 X138.183 Y111.412 E11.25858
G1 X138.05 Y110.77 E11.29129
G1 X137.965 Y110.235 E11.31831
G1 X137.888 Y109.502 E11.35508
G1 X137.86 Y108.966 E11.38186
G1 X137.859 Y108.237 E11.41823
G1 X137.887 Y107.699 E11.44511
G1 X137.965 Y106.965 E11.48193
G1 X138.05 Y106.43 E11.50896
G1 X138.205 Y105.702 E11.54609
G1 X138.345 Y105.184 E11.57286
G1 X138.562 Y104.518 E11.60781
G1 X138.754 Y104.014 E11.63472
G1 X139.06 Y103.324 E11.67238
G1 X139.305 Y102.844 E11.69926
G1 X139.668 Y102.215 E11.73549
G1 X139.962 Y101.762 E11.76244
G1 X140.368 Y101.2 E11.79703
G0 F7500 X140.68 Y101.45
G1 F1500 X140.944 Y101.12 E11.81811
G1 X141.121 Y100.907 E11.83193
G1 X141.499 Y100.494 E11.85986
G1 X141.88 Y100.112 E11.88678
G1 X142.414 Y99.632 E11.9226
G1 X142.835 Y99.293 E11.94956
G1 X143.373 Y98.903 E11.98272
G1 X143.823 Y98.61 E12.00951
G1 X144.424 Y98.262 E12.04415
G1 X144.904 Y98.017 E12.07104
G1 X145.552 Y97.729 E12.10642
G1 X146.058 Y97.536 E12.13344
G1 X146.665 Y97.338 E12.16529
G1 X147.174 Y97.199 E12.19161
G1 X147.287 Y97.17 E12.19743
G1 X147.892 Y97.045 E12.22826
G1 X148.427 Y96.96 E12.25528
G1 X149.119 Y96.887 E12.29
G1 X149.656 Y96.859 E12.31683
G1 X150.344 Y96.859 E12.35115
G1 X150.881 Y96.887 E12.37798
G1 X151.573 Y96.96 E12.41269
G1 X152.108 Y97.045 E12.43972
G1 X152.794 Y97.192 E12.47472
G1 X153.312 Y97.332 E12.50149
G1 X153.942 Y97.536 E12.53453
G1 X154.448 Y97.729 E12.56155
G1 X155.097 Y98.018 E12.59699
G1 X155.575 Y98.262 E12.62377
G1 X156.17 Y98.606 E12.65805
G1 X156.624 Y98.901 E12.68507
G1 X157.149 Y99.28 E12.71737
G1 X157.605 Y99.647 E12.74657
G1 X157.693 Y99.721 E12.75231
G1 X158.096 Y100.09 E12.77957
G1 X158.496 Y100.489 E12.80776
G1 X158.577 Y100.573 E12.81358
G1 X158.956 Y101.001 E12.8421
G1 X159.296 Y101.421 E12.86906
G1 X159.697 Y101.973 E12.9031
G1 X159.99 Y102.423 E12.92989
G1 X160.338 Y103.024 E12.96454
G1 X160.583 Y103.504 E12.99142
G1 X160.871 Y104.152 E13.0268
G1 X161.064 Y104.658 E13.05382
G1 X161.262 Y105.265 E13.08567
G1 X161.401 Y105.774 E13.112
G1 X161.43 Y105.887 E13.11782
G1 X161.555 Y106.489 E13.14849
G1 X161.64 Y107.022 E13.17542
G1 X161.713 Y107.718 E13.21033
G1 X161.741 Y108.256 E13.23721
G1 X161.741 Y108.942 E13.27144
G1 X161.713 Y109.48 E13.29831
G1 X161.64 Y110.173 E13.33308
G1 X161.555 Y110.708 E13.3601
G1 X161.411 Y111.383 E13.39454
G1 X161.272 Y111.901 E13.42129
G1 X161.062 Y112.55 E13.45533
G1 X160.869 Y113.054 E13.48225
G1 X160.584 Y113.694 E13.5172
G1 X160.339 Y114.174 E13.54409
G1 X159.993 Y114.773 E13.5786
G1 X159.699 Y115.225 E13.6055
G1 X159.302 Y115.771 E13.63918
G1 X158.963 Y116.191 E13.66611
G1 X158.506 Y116.701 E13.70028
G1 X158.127 Y117.082 E13.72709
G1 X157.541 Y117.598 E13.76604
G1 X157.184 Y117.892 E13.78911
G1 X156.627 Y118.298 E13.8235
G1 X156.175 Y118.592 E13.8504
G1 X155.576 Y118.938 E13.88491
G1 X155.096 Y119.183 E13.9118
G1 X154.448 Y119.471 E13.94718
G1 X153.942 Y119.664 E13.9742
G1 X153.312 Y119.868 E14.00723
G1 X152.794 Y120.008 E14.034
G1 X152.108 Y120.155 E14.06901
G1 X151.573 Y120.24 E14.09603
G1 X150.881 Y120.313 E14.13075
G1 X150.344 Y120.341 E14.15758
G1 X149.656 Y120.341 E14.1919
G1 X149.119 Y120.313 E14.21873
G1 X148.427 Y120.24 E14.25344
G1 X147.892 Y120.155 E14.28047
G1 X147.206 Y120.008 E14.31547
G1 X146.688 Y119.868 E14.34224
G1 X146.058 Y119.664 E14.37528
G1 X145.552 Y119.471 E14.4023
G1 X144.904 Y119.183 E14.43767
G1 X144.424 Y118.938 E14.46456
G1 X143.825 Y118.592 E14.49907
G1 X143.373 Y118.298 E14.52597
G1 X142.851 Y117.92 E14.55813
G1 X142.385 Y117.545 E14.58797
G1 X142.295 Y117.469 E14.59385
G1 X141.902 Y117.109 E14.62044
G1 X141.604 Y116.813 E14.64139
G1 X141.423 Y116.627 E14.65434
G1 X141.044 Y116.199 E14.68286
G1 X140.704 Y115.779 E14.70982
G1 X140.301 Y115.225 E14.744
G1 X140.007 Y114.773 E14.7709
G1 X139.661 Y114.174 E14.80541
G1 X139.416 Y113.694 E14.8323
G1 X139.127 Y113.044 E14.86779
G1 X138.935 Y112.54 E14.89469
G1 X138.738 Y111.935 E14.92644
G1 X138.599 Y111.426 E14.95276
G1 X138.57 Y111.313 E14.95858
G1 X138.445 Y110.708 E14.9894
G1 X138.36 Y110.173 E15.01643
G1 X138.287 Y109.481 E15.05114
G1 X138.259 Y108.945 E15.07792
G1 X138.259 Y108.258 E15.1122
G1 X138.287 Y107.72 E15.13907
G1 X138.36 Y107.027 E15.17384
G1 X138.445 Y106.492 E15.20086
G1 X138.592 Y105.806 E15.23587
G1 X138.732 Y105.288 E15.26264
G1 X138.935 Y104.66 E15.29556
G1 X139.127 Y104.156 E15.32247
G1 X139.416 Y103.506 E15.35796
G1 X139.661 Y103.026 E15.38485
G1 X140.004 Y102.433 E15.41902
G1 X140.298 Y101.98 E15.44597
G1 X140.68 Y101.45 E15.47856
G0 F7500 X140.993 Y101.7
G1 F1500 X141.353 Y101.253 E15.5072
G1 X141.427 Y101.165 E15.51293
G1 X141.782 Y100.777 E15.53917
G1 X142.163 Y100.395 E15.56609
G1 X142.665 Y99.944 E15.59975
G1 X143.086 Y99.605 E15.62672
G1 X143.591 Y99.238 E15.65787
G1 X144.041 Y98.945 E15.68466
G1 X144.605 Y98.619 E15.71716
G1 X145.085 Y98.374 E15.74404
G1 X145.694 Y98.103 E15.7773
G1 X146.2 Y97.91 E15.80432
G1 X146.771 Y97.724 E15.83428
G1 X147.274 Y97.587 E15.86029
G1 X147.387 Y97.558 E15.86611
G1 X147.955 Y97.44 E15.89505
G1 X148.49 Y97.355 E15.92207
G1 X149.14 Y97.286 E15.95469
G1 X149.677 Y97.258 E15.98151
G1 X150.323 Y97.258 E16.01374
G1 X150.86 Y97.286 E16.04057
G1 X151.51 Y97.355 E16.07318
G1 X152.045 Y97.44 E16.10021
G1 X152.69 Y97.578 E16.13311
G1 X153.208 Y97.718 E16.15988
G1 X153.8 Y97.91 E16.19093
G1 X154.306 Y98.103 E16.21795
G1 X154.915 Y98.374 E16.25121
G1 X155.393 Y98.618 E16.27798
G1 X155.952 Y98.941 E16.31019
G1 X156.406 Y99.236 E16.3372
G1 X156.899 Y99.592 E16.36754
G1 X157.228 Y99.855 E16.38856
G1 X157.435 Y100.027 E16.40198
G1 X157.814 Y100.373 E16.42759
G1 X158.208 Y100.766 E16.45535
G1 X158.289 Y100.85 E16.46117
G1 X158.645 Y101.253 E16.488
G1 X158.985 Y101.673 E16.51496
G1 X159.362 Y102.191 E16.54692
G1 X159.655 Y102.641 E16.57371
G1 X159.981 Y103.205 E16.60621
G1 X160.226 Y103.685 E16.6331
G1 X160.497 Y104.294 E16.66635
G1 X160.69 Y104.8 E16.69337
G1 X160.876 Y105.371 E16.72333
G1 X161.013 Y105.874 E16.74934
G1 X161.042 Y105.987 E16.75516
G1 X161.16 Y106.552 E16.78396
G1 X161.245 Y107.085 E16.81088
G1 X161.314 Y107.739 E16.84369
G1 X161.342 Y108.277 E16.87057
G1 X161.342 Y108.921 E16.9027
G1 X161.314 Y109.459 E16.92958
G1 X161.245 Y110.11 E16.96224
G1 X161.16 Y110.645 E16.98926
G1 X161.025 Y111.279 E17.0216
G1 X160.886 Y111.797 E17.04836
G1 X160.688 Y112.407 E17.08036
G1 X160.495 Y112.911 E17.10728
G1 X160.227 Y113.513 E17.14016
G1 X159.982 Y113.993 E17.16704
G1 X159.657 Y114.555 E17.19943
G1 X159.363 Y115.007 E17.22633
G1 X158.991 Y115.52 E17.25795
G1 X158.652 Y115.94 E17.28488
G1 X158.223 Y116.419 E17.31696
G1 X157.844 Y116.8 E17.34377
G1 X157.289 Y117.288 E17.38064
G1 X156.932 Y117.581 E17.40368
G1 X156.409 Y117.962 E17.43596
G1 X155.957 Y118.256 E17.46286
G1 X155.395 Y118.581 E17.49525
G1 X154.915 Y118.826 E17.52214
G1 X154.306 Y119.097 E17.55539
G1 X153.8 Y119.29 E17.58241
G1 X153.208 Y119.482 E17.61346
G1 X152.69 Y119.622 E17.64023
G1 X152.045 Y119.76 E17.67314
G1 X151.51 Y119.845 E17.70017
G1 X150.86 Y119.914 E17.73278
G1 X150.323 Y119.942 E17.7596
G1 X149.677 Y119.942 E17.79183
G1 X149.14 Y119.914 E17.81866
G1 X148.49 Y119.845 E17.85127
G1 X147.955 Y119.76 E17.8783
G1 X147.31 Y119.622 E17.91121
G1 X146.792 Y119.482 E17.93798
G1 X146.2 Y119.29 E17.96903
G1 X145.694 Y119.097 E17.99604
G1 X145.085 Y118.826 E18.0293
G1 X144.605 Y118.581 E18.05619
G1 X144.043 Y118.256 E18.08857
G1 X143.591 Y117.962 E18.11548
G1 X143.101 Y117.608 E18.14563
G1 X142.772 Y117.345 E18.16665
G1 X142.553 Y117.163 E18.18085
G1 X142.184 Y116.825 E18.20582
G1 X141.792 Y116.434 E18.23344
G1 X141.711 Y116.35 E18.23926
G1 X141.355 Y115.947 E18.26609
G1 X141.015 Y115.527 E18.29305
G1 X140.637 Y115.007 E18.32512
G1 X140.343 Y114.555 E18.35202
G1 X140.018 Y113.993 E18.38441
G1 X139.773 Y113.513 E18.4113
G1 X139.501 Y112.901 E18.44471
G1 X139.309 Y112.397 E18.47162
G1 X139.124 Y111.829 E18.50142
G1 X138.987 Y111.326 E18.52743
G1 X138.958 Y111.213 E18.53325
G1 X138.84 Y110.645 E18.56219
G1 X138.755 Y110.11 E18.58922
G1 X138.686 Y109.46 E18.62183
G1 X138.658 Y108.924 E18.64861
G1 X138.658 Y108.279 E18.68079
G1 X138.686 Y107.741 E18.70767
G1 X138.755 Y107.09 E18.74033
G1 X138.84 Y106.555 E18.76735
G1 X138.978 Y105.91 E18.80026
G1 X139.118 Y105.392 E18.82703
G1 X139.309 Y104.803 E18.85792
G1 X139.501 Y104.299 E18.88483
G1 X139.773 Y103.687 E18.91824
G1 X140.018 Y103.207 E18.94513
G1 X140.339 Y102.651 E18.97716
G1 X140.633 Y102.198 E19.0041
G1 X140.993 Y101.7 E19.03476
G0 F7500 X141.305 Y101.95
G1 F1500 X141.659 Y101.51 E19.06293
G1 X141.733 Y101.422 E19.06867
G1 X142.065 Y101.059 E19.09321
G1 X142.446 Y100.677 E19.12013
G1 X142.915 Y100.255 E19.1516
G1 X143.336 Y99.916 E19.17857
G1 X143.809 Y99.573 E19.20772
G1 X144.259 Y99.28 E19.23451
G1 X144.787 Y98.975 E19.26493
G1 X145.267 Y98.73 E19.29182
G1 X145.837 Y98.477 E19.32293
G1 X146.343 Y98.284 E19.34995
G1 X146.877 Y98.109 E19.37798
G1 X147.373 Y97.974 E19.40363
G1 X147.486 Y97.945 E19.40945
G1 X148.018 Y97.835 E19.43655
G1 X148.553 Y97.75 E19.46358
G1 X149.161 Y97.686 E19.49408
G1 X149.698 Y97.658 E19.52091
G1 X150.302 Y97.658 E19.55104
G1 X150.839 Y97.686 E19.57787
G1 X151.447 Y97.75 E19.60837
G1 X151.982 Y97.835 E19.6354
G1 X152.585 Y97.964 E19.66616
G1 X153.103 Y98.104 E19.69293
G1 X153.657 Y98.284 E19.72199
G1 X154.163 Y98.477 E19.74901
G1 X154.733 Y98.73 E19.78012
G1 X155.211 Y98.974 E19.8069
G1 X155.734 Y99.277 E19.83705
G1 X156.188 Y99.572 E19.86407
G1 X156.65 Y99.905 E19.89248
G1 X157.09 Y100.259 E19.92065
G1 X157.178 Y100.333 E19.92639
G1 X157.532 Y100.657 E19.95033
G1 X157.92 Y101.044 E19.97767
G1 X158.001 Y101.128 E19.98349
G1 X158.334 Y101.505 E20.00859
G1 X158.674 Y101.925 E20.03555
G1 X159.027 Y102.409 E20.06543
G1 X159.32 Y102.859 E20.09222
G1 X159.625 Y103.387 E20.12264
G1 X159.87 Y103.867 E20.14953
G1 X160.123 Y104.437 E20.18064
G1 X160.316 Y104.943 E20.20766
G1 X160.491 Y105.477 E20.2357
G1 X160.626 Y105.973 E20.26134
G1 X160.655 Y106.086 E20.26716
G1 X160.765 Y106.615 E20.29412
G1 X160.85 Y107.148 E20.32105
G1 X160.914 Y107.76 E20.35175
G1 X160.942 Y108.298 E20.37862
G1 X160.942 Y108.9 E20.40866
G1 X160.914 Y109.438 E20.43554
G1 X160.85 Y110.047 E20.46609
G1 X160.765 Y110.582 E20.49311
G1 X160.639 Y111.175 E20.52336
G1 X160.5 Y111.693 E20.55011
G1 X160.314 Y112.264 E20.58008
G1 X160.121 Y112.768 E20.607
G1 X159.871 Y113.331 E20.63773
G1 X159.626 Y113.811 E20.66462
G1 X159.322 Y114.336 E20.69489
G1 X159.028 Y114.788 E20.72179
G1 X158.679 Y115.269 E20.75144
G1 X158.34 Y115.689 E20.77836
G1 X157.939 Y116.136 E20.80832
G1 X157.56 Y116.517 E20.83513
G1 X157.037 Y116.978 E20.86992
G1 X156.68 Y117.271 E20.89296
G1 X156.19 Y117.627 E20.92317
G1 X155.738 Y117.921 E20.95008
G1 X155.213 Y118.225 E20.98034
G1 X154.733 Y118.47 E21.00723
G1 X154.163 Y118.723 E21.03834
G1 X153.657 Y118.916 E21.06536
G1 X153.103 Y119.096 E21.09442
G1 X152.585 Y119.236 E21.12119
G1 X151.982 Y119.365 E21.15196
G1 X151.447 Y119.45 E21.17898
G1 X150.839 Y119.514 E21.20948
G1 X150.302 Y119.542 E21.23631
G1 X149.698 Y119.542 E21.26644
G1 X149.161 Y119.514 E21.29327
G1 X148.553 Y119.45 E21.32377
G1 X148.018 Y119.365 E21.3508
G1 X147.415 Y119.236 E21.38156
G1 X146.897 Y119.096 E21.40833
G1 X146.343 Y118.916 E21.43739
G1 X145.837 Y118.723 E21.46441
G1 X145.267 Y118.47 E21.49553
G1 X144.787 Y118.225 E21.52241
G1 X144.262 Y117.921 E21.55268
G1 X143.81 Y117.627 E21.57958
G1 X143.35 Y117.295 E21.60788
G1 X143.021 Y117.032 E21.6289
G1 X142.811 Y116.857 E21.64253
G1 X142.466 Y116.541 E21.66588
G1 X142.08 Y116.156 E21.69307
G1 X141.999 Y116.072 E21.6989
G1 X141.666 Y115.695 E21.72399
G1 X141.326 Y115.275 E21.75095
G1 X140.972 Y114.788 E21.78099
G1 X140.678 Y114.336 E21.80789
G1 X140.374 Y113.811 E21.83816
G1 X140.129 Y113.331 E21.86504
G1 X139.875 Y112.759 E21.89627
G1 X139.683 Y112.255 E21.92317
G1 X139.509 Y111.723 E21.9511
G1 X139.374 Y111.227 E21.97674
G1 X139.345 Y111.114 E21.98256
G1 X139.235 Y110.582 E22.00967
G1 X139.15 Y110.047 E22.03669
G1 X139.086 Y109.44 E22.06714
G1 X139.058 Y108.904 E22.09392
G1 X139.058 Y108.3 E22.12406
G1 X139.086 Y107.762 E22.15093
G1 X139.15 Y107.153 E22.18148
G1 X139.235 Y106.618 E22.20851
G1 X139.364 Y106.015 E22.23927
G1 X139.504 Y105.497 E22.26604
G1 X139.683 Y104.945 E22.295
G1 X139.875 Y104.441 E22.3219
G1 X140.129 Y103.869 E22.35313
G1 X140.374 Y103.389 E22.38001
G1 X140.675 Y102.868 E22.41003
G1 X140.969 Y102.415 E22.43698
G1 X141.305 Y101.95 E22.4656
G0 F7500 X141.617 Y102.2
G1 F1500 X141.881 Y101.87 E22.48668
G1 X142.039 Y101.68 E22.49901
G1 X142.349 Y101.342 E22.52189
G1 X142.73 Y100.96 E22.54881
G1 X143.166 Y100.567 E22.57809
G1 X143.587 Y100.228 E22.60506
G1 X144.028 Y99.909 E22.63221
G1 X144.478 Y99.616 E22.659
G1 X144.969 Y99.331 E22.68733
G1 X145.449 Y99.086 E22.71421
G1 X145.98 Y98.851 E22.74318
G1 X146.486 Y98.658 E22.7702
G1 X146.983 Y98.495 E22.7963
G1 X147.473 Y98.362 E22.82163
G1 X147.586 Y98.333 E22.82745
G1 X148.081 Y98.23 E22.85267
G1 X148.616 Y98.145 E22.8797
G1 X149.182 Y98.085 E22.90809
G1 X149.719 Y98.057 E22.93492
G1 X150.281 Y98.057 E22.96296
G1 X150.818 Y98.085 E22.98979
G1 X151.384 Y98.145 E23.01818
G1 X151.919 Y98.23 E23.04521
G1 X152.481 Y98.35 E23.07388
G1 X152.999 Y98.49 E23.10065
G1 X153.514 Y98.658 E23.12768
G1 X154.02 Y98.851 E23.15469
G1 X154.551 Y99.086 E23.18366
G1 X155.029 Y99.33 E23.21044
G1 X155.516 Y99.612 E23.23852
G1 X155.97 Y99.907 E23.26553
G1 X156.4 Y100.217 E23.29197
G1 X156.729 Y100.48 E23.31299
G1 X156.92 Y100.639 E23.32539
G1 X157.251 Y100.941 E23.34774
G1 X157.551 Y101.239 E23.36884
G1 X157.713 Y101.406 E23.38044
G1 X158.023 Y101.756 E23.40377
G1 X158.363 Y102.176 E23.43073
G1 X158.691 Y102.628 E23.45859
G1 X158.984 Y103.078 E23.48538
G1 X159.269 Y103.569 E23.51371
G1 X159.514 Y104.049 E23.54059
G1 X159.749 Y104.58 E23.56956
G1 X159.942 Y105.086 E23.59658
G1 X160.105 Y105.583 E23.62268
G1 X160.238 Y106.073 E23.64801
G1 X160.267 Y106.186 E23.65383
G1 X160.37 Y106.678 E23.6789
G1 X160.455 Y107.211 E23.70583
G1 X160.515 Y107.78 E23.73438
G1 X160.543 Y108.318 E23.76125
G1 X160.543 Y108.88 E23.78929
G1 X160.515 Y109.418 E23.81617
G1 X160.455 Y109.984 E23.84457
G1 X160.37 Y110.519 E23.87159
G1 X160.252 Y111.072 E23.8998
G1 X160.113 Y111.59 E23.92656
G1 X159.941 Y112.121 E23.95441
G1 X159.748 Y112.625 E23.98133
G1 X159.515 Y113.149 E24.00994
G1 X159.27 Y113.629 E24.03683
G1 X158.987 Y114.118 E24.06502
G1 X158.693 Y114.57 E24.09192
G1 X158.368 Y115.018 E24.11953
G1 X158.029 Y115.438 E24.14646
G1 X157.655 Y115.854 E24.17437
G1 X157.276 Y116.235 E24.20118
G1 X156.744 Y116.705 E24.23659
G1 X156.428 Y116.96 E24.25685
G1 X155.972 Y117.292 E24.28499
G1 X155.52 Y117.586 E24.31189
G1 X155.031 Y117.869 E24.34008
G1 X154.551 Y118.114 E24.36697
G1 X154.02 Y118.349 E24.39594
G1 X153.514 Y118.542 E24.42296
G1 X152.999 Y118.71 E24.44998
G1 X152.481 Y118.85 E24.47675
G1 X151.919 Y118.97 E24.50542
G1 X151.384 Y119.055 E24.53245
G1 X150.818 Y119.115 E24.56084
G1 X150.281 Y119.143 E24.58767
G1 X149.719 Y119.143 E24.61571
G1 X149.182 Y119.115 E24.64254
G1 X148.616 Y119.055 E24.67093
G1 X148.081 Y118.97 E24.69796
G1 X147.519 Y118.85 E24.72663
G1 X147.001 Y118.71 E24.7534
G1 X146.486 Y118.542 E24.78043
G1 X145.98 Y118.349 E24.80744
G1 X145.449 Y118.114 E24.83641
G1 X144.969 Y117.869 E24.8633
G1 X144.48 Y117.586 E24.89149
G1 X144.028 Y117.292 E24.91839
G1 X143.6 Y116.983 E24.94473
G1 X143.271 Y116.72 E24.96574
G1 X143.069 Y116.552 E24.97885
G1 X142.748 Y116.257 E25.0006
G1 X142.368 Y115.878 E25.02737
G1 X142.287 Y115.794 E25.0332
G1 X141.977 Y115.444 E25.05652
G1 X141.637 Y115.024 E25.08348
G1 X141.307 Y114.57 E25.11148
G1 X141.013 Y114.118 E25.13838
G1 X140.73 Y113.629 E25.16657
G1 X140.485 Y113.149 E25.19346
G1 X140.249 Y112.616 E25.22254
G1 X140.057 Y112.112 E25.24945
G1 X139.895 Y111.617 E25.27543
G1 X139.762 Y111.127 E25.30076
G1 X139.733 Y111.014 E25.30658
G1 X139.63 Y110.519 E25.33181
G1 X139.545 Y109.984 E25.35883
G1 X139.485 Y109.419 E25.38718
G1 X139.457 Y108.883 E25.41396
G1 X139.457 Y108.32 E25.44204
G1 X139.485 Y107.782 E25.46892
G1 X139.545 Y107.216 E25.49732
G1 X139.63 Y106.681 E25.52434
G1 X139.75 Y106.119 E25.55301
G1 X139.89 Y105.601 E25.57978
G1 X140.057 Y105.088 E25.6067
G1 X140.249 Y104.584 E25.63361
G1 X140.485 Y104.051 E25.66269
G1 X140.73 Y103.571 E25.68957
G1 X141.01 Y103.086 E25.71751
G1 X141.304 Y102.633 E25.74446
G1 X141.617 Y102.2 E25.77111
G0 F7500 X141.93 Y102.45
G1 F1500 X142.271 Y102.025 E25.7983
G1 X142.345 Y101.937 E25.80403
G1 X142.632 Y101.624 E25.82522
G1 X143.013 Y101.242 E25.85214
G1 X143.417 Y100.879 E25.87923
G1 X143.838 Y100.54 E25.9062
G1 X144.246 Y100.244 E25.93135
G1 X144.696 Y99.951 E25.95814
G1 X145.151 Y99.688 E25.98436
G1 X145.631 Y99.443 E26.01124
G1 X146.122 Y99.224 E26.03807
G1 X146.628 Y99.031 E26.06508
G1 X147.088 Y98.881 E26.08922
G1 X147.572 Y98.749 E26.11425
G1 X147.685 Y98.72 E26.12007
G1 X148.143 Y98.625 E26.14341
G1 X148.678 Y98.54 E26.17043
G1 X149.203 Y98.485 E26.19677
G1 X149.74 Y98.457 E26.2236
G1 X150.26 Y98.457 E26.24954
G1 X150.797 Y98.485 E26.27637
G1 X151.322 Y98.54 E26.3027
G1 X151.857 Y98.625 E26.32973
G1 X152.377 Y98.736 E26.35626
G1 X152.895 Y98.876 E26.38303
G1 X153.372 Y99.031 E26.40805
G1 X153.878 Y99.224 E26.43507
G1 X154.369 Y99.443 E26.46189
G1 X154.847 Y99.687 E26.48867
G1 X155.298 Y99.947 E26.51464
G1 X155.752 Y100.242 E26.54165
G1 X156.15 Y100.529 E26.56613
G1 X156.575 Y100.871 E26.59335
G1 X156.663 Y100.945 E26.59908
G1 X156.969 Y101.225 E26.61978
G1 X157.344 Y101.599 E26.6462
G1 X157.425 Y101.683 E26.65202
G1 X157.712 Y102.008 E26.67365
G1 X158.052 Y102.428 E26.70061
G1 X158.356 Y102.846 E26.7264
G1 X158.649 Y103.296 E26.75319
G1 X158.912 Y103.751 E26.77941
G1 X159.157 Y104.231 E26.80629
G1 X159.376 Y104.722 E26.83311
G1 X159.569 Y105.228 E26.86013
G1 X159.719 Y105.688 E26.88427
G1 X159.851 Y106.172 E26.9093
G1 X159.88 Y106.285 E26.91512
G1 X159.975 Y106.741 E26.93836
G1 X160.06 Y107.274 E26.96529
G1 X160.115 Y107.801 E26.99172
G1 X160.143 Y108.339 E27.0186
G1 X160.143 Y108.859 E27.04454
G1 X160.115 Y109.397 E27.07142
G1 X160.06 Y109.922 E27.09776
G1 X159.975 Y110.457 E27.12478
G1 X159.866 Y110.968 E27.15085
G1 X159.727 Y111.486 E27.17761
G1 X159.567 Y111.978 E27.20342
G1 X159.374 Y112.482 E27.23034
G1 X159.158 Y112.967 E27.25683
G1 X158.913 Y113.447 E27.28372
G1 X158.651 Y113.9 E27.30982
G1 X158.357 Y114.352 E27.33673
G1 X158.057 Y114.766 E27.36223
G1 X157.718 Y115.186 E27.38916
G1 X157.372 Y115.572 E27.41502
G1 X156.993 Y115.953 E27.44183
G1 X156.5 Y116.388 E27.47464
G1 X156.459 Y116.419 E27.4772
G1 X156.176 Y116.649 E27.49539
G1 X155.754 Y116.956 E27.52143
G1 X155.302 Y117.25 E27.54833
G1 X154.849 Y117.512 E27.57444
G1 X154.369 Y117.757 E27.60132
G1 X153.878 Y117.976 E27.62815
G1 X153.372 Y118.169 E27.65517
G1 X152.895 Y118.324 E27.68019
G1 X152.377 Y118.464 E27.70696
G1 X151.857 Y118.575 E27.73349
G1 X151.322 Y118.66 E27.76051
G1 X150.797 Y118.715 E27.78685
G1 X150.26 Y118.743 E27.81367
G1 X149.74 Y118.743 E27.83962
G1 X149.203 Y118.715 E27.86644
G1 X148.678 Y118.66 E27.89278
G1 X148.143 Y118.575 E27.91981
G1 X147.623 Y118.464 E27.94633
G1 X147.105 Y118.324 E27.9731
G1 X146.628 Y118.169 E27.99813
G1 X146.122 Y117.976 E28.02515
G1 X145.631 Y117.757 E28.05197
G1 X145.151 Y117.512 E28.07885
G1 X144.698 Y117.25 E28.10496
G1 X144.246 Y116.956 E28.13186
G1 X143.85 Y116.671 E28.1562
G1 X143.521 Y116.408 E28.17722
G1 X143.327 Y116.246 E28.18983
G1 X143.029 Y115.973 E28.20999
G1 X142.656 Y115.601 E28.23627
G1 X142.575 Y115.517 E28.24209
G1 X142.288 Y115.192 E28.26373
G1 X141.948 Y114.772 E28.29068
G1 X141.643 Y114.352 E28.31658
G1 X141.349 Y113.9 E28.34348
G1 X141.087 Y113.447 E28.36959
G1 X140.842 Y112.967 E28.39648
G1 X140.623 Y112.474 E28.42339
G1 X140.431 Y111.97 E28.4503
G1 X140.281 Y111.512 E28.47434
G1 X140.149 Y111.028 E28.49937
G1 X140.12 Y110.915 E28.50519
G1 X140.025 Y110.457 E28.52853
G1 X139.94 Y109.922 E28.55555
G1 X139.885 Y109.398 E28.58184
G1 X139.857 Y108.862 E28.60862
G1 X139.857 Y108.341 E28.63461
G1 X139.885 Y107.803 E28.66149
G1 X139.94 Y107.278 E28.68782
G1 X140.025 Y106.743 E28.71485
G1 X140.136 Y106.223 E28.74138
G1 X140.276 Y105.705 E28.76815
G1 X140.431 Y105.23 E28.79307
G1 X140.623 Y104.726 E28.81998
G1 X140.842 Y104.233 E28.84689
G1 X141.087 Y103.753 E28.87378
G1 X141.346 Y103.304 E28.89964
G1 X141.64 Y102.851 E28.92658
G1 X141.93 Y102.45 E28.95127
G0 F7500 X142.242 Y102.699
G1 F1500 X142.577 Y102.282 E28.97796
G1 X142.651 Y102.194 E28.9837
G1 X142.915 Y101.907 E29.00315
G1 X143.296 Y101.525 E29.03007
G1 X143.668 Y101.19 E29.05504
G1 X144.089 Y100.851 E29.08201
G1 X144.464 Y100.579 E29.10512
G1 X144.914 Y100.286 E29.13191
G1 X145.333 Y100.044 E29.15605
G1 X145.813 Y99.799 E29.18294
G1 X146.265 Y99.598 E29.20762
G1 X146.771 Y99.405 E29.23464
G1 X147.194 Y99.267 E29.25683
G1 X147.672 Y99.136 E29.28156
G1 X147.785 Y99.107 E29.28738
G1 X148.206 Y99.02 E29.30883
G1 X148.741 Y98.935 E29.33585
G1 X149.223 Y98.884 E29.36004
G1 X149.76 Y98.856 E29.38686
G1 X150.24 Y98.856 E29.41081
G1 X150.777 Y98.884 E29.43764
G1 X151.259 Y98.935 E29.46182
G1 X151.794 Y99.02 E29.48885
G1 X152.272 Y99.122 E29.51323
G1 X152.79 Y99.262 E29.54
G1 X153.229 Y99.405 E29.56303
G1 X153.735 Y99.598 E29.59005
G1 X154.187 Y99.799 E29.61473
G1 X154.665 Y100.043 E29.64151
G1 X155.08 Y100.283 E29.66543
G1 X155.534 Y100.578 E29.69244
G1 X155.9 Y100.842 E29.71495
G1 X156.318 Y101.177 E29.74168
G1 X156.406 Y101.251 E29.74741
G1 X156.687 Y101.508 E29.76641
G1 X156.987 Y101.806 E29.78751
G1 X157.137 Y101.961 E29.79827
G1 X157.401 Y102.26 E29.81817
G1 X157.741 Y102.68 E29.84513
G1 X158.021 Y103.064 E29.86884
G1 X158.314 Y103.514 E29.89563
G1 X158.556 Y103.933 E29.91977
G1 X158.801 Y104.413 E29.94665
G1 X159.002 Y104.865 E29.97133
G1 X159.195 Y105.371 E29.99835
G1 X159.333 Y105.794 E30.02055
G1 X159.464 Y106.272 E30.04528
G1 X159.493 Y106.385 E30.0511
G1 X159.58 Y106.804 E30.07245
G1 X159.665 Y107.337 E30.09937
G1 X159.716 Y107.822 E30.1237
G1 X159.744 Y108.36 E30.15058
G1 X159.744 Y108.838 E30.17443
G1 X159.716 Y109.376 E30.20131
G1 X159.665 Y109.859 E30.22554
G1 X159.58 Y110.394 E30.25256
G1 X159.48 Y110.864 E30.27654
G1 X159.341 Y111.382 E30.30329
G1 X159.194 Y111.835 E30.32705
G1 X159.001 Y112.339 E30.35398
G1 X158.802 Y112.785 E30.37835
G1 X158.557 Y113.265 E30.40523
G1 X158.316 Y113.682 E30.42926
G1 X158.022 Y114.134 E30.45616
G1 X157.745 Y114.515 E30.47966
G1 X157.406 Y114.935 E30.50659
G1 X157.088 Y115.29 E30.53037
G1 X156.709 Y115.671 E30.55718
G1 X156.256 Y116.071 E30.58733
G1 X155.925 Y116.338 E30.60855
G1 X155.536 Y116.621 E30.63254
G1 X155.084 Y116.915 E30.65945
G1 X154.667 Y117.156 E30.68347
G1 X154.187 Y117.401 E30.71036
G1 X153.735 Y117.602 E30.73504
G1 X153.229 Y117.795 E30.76206
G1 X152.79 Y117.938 E30.78509
G1 X152.272 Y118.078 E30.81186
G1 X151.794 Y118.18 E30.83625
G1 X151.259 Y118.265 E30.86327
G1 X150.777 Y118.316 E30.88746
G1 X150.24 Y118.344 E30.91428
G1 X149.76 Y118.344 E30.93823
G1 X149.223 Y118.316 E30.96506
G1 X148.741 Y118.265 E30.98924
G1 X148.206 Y118.18 E31.01627
G1 X147.728 Y118.078 E31.04065
G1 X147.21 Y117.938 E31.06742
G1 X146.771 Y117.795 E31.09045
G1 X146.265 Y117.602 E31.11747
G1 X145.813 Y117.401 E31.14215
G1 X145.333 Y117.156 E31.16904
G1 X144.916 Y116.915 E31.19307
G1 X144.464 Y116.621 E31.21997
G1 X144.1 Y116.358 E31.24237
G1 X143.675 Y116.017 E31.26956
G1 X143.585 Y115.941 E31.27543
G1 X143.311 Y115.69 E31.29397
G1 X143.013 Y115.394 E31.31493
G1 X142.863 Y115.239 E31.32569
G1 X142.599 Y114.94 E31.34559
G1 X142.259 Y114.52 E31.37255
G1 X141.978 Y114.134 E31.39637
G1 X141.684 Y113.682 E31.42327
G1 X141.443 Y113.265 E31.4473
G1 X141.198 Y112.785 E31.47418
G1 X140.996 Y112.332 E31.49893
G1 X140.804 Y111.828 E31.52584
G1 X140.667 Y111.406 E31.54797
G1 X140.536 Y110.928 E31.5727
G1 X140.507 Y110.815 E31.57852
G1 X140.42 Y110.394 E31.59997
G1 X140.335 Y109.859 E31.62699
G1 X140.284 Y109.377 E31.65117
G1 X140.256 Y108.841 E31.67795
G1 X140.256 Y108.362 E31.70185
G1 X140.284 Y107.824 E31.72873
G1 X140.335 Y107.341 E31.75296
G1 X140.42 Y106.806 E31.77998
G1 X140.522 Y106.328 E31.80437
G1 X140.662 Y105.81 E31.83114
G1 X140.804 Y105.372 E31.85411
G1 X140.996 Y104.868 E31.88102
G1 X141.198 Y104.415 E31.90576
G1 X141.443 Y103.935 E31.93265
G1 X141.681 Y103.522 E31.95643
G1 X141.975 Y103.069 E31.98337
G1 X142.242 Y102.699 E32.00614
G0 F7500 X142.554 Y102.949
G1 F1500 X142.883 Y102.54 E32.03232
G1 X142.957 Y102.452 E32.03806
G1 X143.198 Y102.189 E32.05586
G1 X143.579 Y101.807 E32.08277
G1 X143.919 Y101.502 E32.10556
G1 X144.34 Y101.163 E32.13253
G1 X144.682 Y100.914 E32.15363
G1 X145.132 Y100.621 E32.18042
G1 X145.515 Y100.4 E32.20249
G1 X145.995 Y100.155 E32.22937
G1 X146.407 Y99.972 E32.25186
G1 X146.913 Y99.779 E32.27888
G1 X147.3 Y99.652 E32.2992
G1 X147.771 Y99.524 E32.32355
G1 X147.884 Y99.495 E32.32937
G1 X148.269 Y99.415 E32.34899
G1 X148.804 Y99.33 E32.37602
G1 X149.244 Y99.284 E32.39809
G1 X149.781 Y99.256 E32.42492
G1 X150.219 Y99.256 E32.44677
G1 X150.756 Y99.284 E32.47359
G1 X151.196 Y99.33 E32.49567
G1 X151.731 Y99.415 E32.52269
G1 X152.168 Y99.508 E32.54498
G1 X152.686 Y99.648 E32.57175
G1 X153.087 Y99.779 E32.5928
G1 X153.593 Y99.972 E32.61982
G1 X154.006 Y100.155 E32.64235
G1 X154.484 Y100.399 E32.66913
G1 X154.862 Y100.618 E32.69092
G1 X155.316 Y100.913 E32.71794
G1 X155.651 Y101.154 E32.73852
G1 X156.06 Y101.483 E32.76471
G1 X156.148 Y101.557 E32.77045
G1 X156.405 Y101.792 E32.78782
G1 X156.705 Y102.09 E32.80892
G1 X156.849 Y102.239 E32.81926
G1 X157.09 Y102.511 E32.83739
G1 X157.43 Y102.931 E32.86435
G1 X157.686 Y103.282 E32.88602
G1 X157.979 Y103.732 E32.91281
G1 X158.2 Y104.115 E32.93487
G1 X158.445 Y104.595 E32.96176
G1 X158.628 Y105.007 E32.98425
G1 X158.821 Y105.513 E33.01127
G1 X158.948 Y105.9 E33.03159
G1 X159.076 Y106.371 E33.05594
G1 X159.105 Y106.484 E33.06176
G1 X159.185 Y106.867 E33.08128
G1 X159.27 Y107.4 E33.10821
G1 X159.316 Y107.843 E33.13043
G1 X159.344 Y108.381 E33.1573
G1 X159.344 Y108.817 E33.17906
G1 X159.316 Y109.355 E33.20593
G1 X159.27 Y109.796 E33.22805
G1 X159.185 Y110.331 E33.25508
G1 X159.093 Y110.761 E33.27702
G1 X158.954 Y111.279 E33.30378
G1 X158.82 Y111.692 E33.32544
G1 X158.627 Y112.196 E33.35236
G1 X158.446 Y112.603 E33.37459
G1 X158.201 Y113.083 E33.40147
G1 X157.981 Y113.464 E33.42342
G1 X157.687 Y113.916 E33.45032
G1 X157.434 Y114.264 E33.47179
G1 X157.095 Y114.684 E33.49872
G1 X156.805 Y115.008 E33.52041
G1 X156.426 Y115.389 E33.54722
G1 X156.032 Y115.737 E33.57345
G1 X155.673 Y116.028 E33.5965
G1 X155.318 Y116.286 E33.6184
G1 X154.866 Y116.58 E33.6453
G1 X154.485 Y116.8 E33.66725
G1 X154.005 Y117.045 E33.69413
G1 X153.593 Y117.228 E33.71662
G1 X153.087 Y117.421 E33.74364
G1 X152.686 Y117.552 E33.76469
G1 X152.168 Y117.692 E33.79146
G1 X151.731 Y117.785 E33.81375
G1 X151.196 Y117.87 E33.84078
G1 X150.756 Y117.916 E33.86285
G1 X150.219 Y117.944 E33.88968
G1 X149.781 Y117.944 E33.91153
G1 X149.244 Y117.916 E33.93835
G1 X148.804 Y117.87 E33.96043
G1 X148.269 Y117.785 E33.98745
G1 X147.832 Y117.692 E34.00974
G1 X147.314 Y117.552 E34.03651
G1 X146.913 Y117.421 E34.05756
G1 X146.407 Y117.228 E34.08458
G1 X145.995 Y117.045 E34.10707
G1 X145.515 Y116.8 E34.13395
G1 X145.134 Y116.58 E34.1559
G1 X144.682 Y116.286 E34.18281
G1 X144.349 Y116.046 E34.20328
G1 X144.02 Y115.783 E34.2243
G1 X143.843 Y115.635 E34.23581
G1 X143.593 Y115.406 E34.25272
G1 X143.295 Y115.11 E34.27368
G1 X143.151 Y114.961 E34.28402
G1 X142.91 Y114.689 E34.30215
G1 X142.57 Y114.269 E34.32911
G1 X142.313 Y113.916 E34.35089
G1 X142.019 Y113.464 E34.37779
G1 X141.799 Y113.083 E34.39974
G1 X141.554 Y112.603 E34.42663
G1 X141.37 Y112.189 E34.44923
G1 X141.178 Y111.685 E34.47614
G1 X141.052 Y111.3 E34.49635
G1 X140.924 Y110.829 E34.5207
G1 X140.895 Y110.716 E34.52652
G1 X140.815 Y110.331 E34.54614
G1 X140.73 Y109.796 E34.57316
G1 X140.684 Y109.356 E34.59523
G1 X140.656 Y108.82 E34.62201
G1 X140.656 Y108.383 E34.64381
G1 X140.684 Y107.845 E34.67069
G1 X140.73 Y107.404 E34.69281
G1 X140.815 Y106.869 E34.71984
G1 X140.908 Y106.432 E34.74213
G1 X141.048 Y105.914 E34.7689
G1 X141.178 Y105.515 E34.78983
G1 X141.37 Y105.011 E34.81674
G1 X141.554 Y104.597 E34.83934
G1 X141.799 Y104.117 E34.86623
G1 X142.017 Y103.74 E34.88796
G1 X142.311 Y103.287 E34.9149
G1 X142.554 Y102.949 E34.93567
G0 F7500 X142.867 Y103.199
G1 F1500 X143.19 Y102.797 E34.9614
G1 X143.264 Y102.709 E34.96713
G1 X143.481 Y102.472 E34.98316
G1 X143.862 Y102.09 E35.01008
G1 X144.17 Y101.813 E35.03075
G1 X144.591 Y101.474 E35.05771
G1 X144.901 Y101.25 E35.07679
G1 X145.351 Y100.957 E35.10358
G1 X145.696 Y100.756 E35.12351
G1 X146.176 Y100.511 E35.15039
G1 X146.55 Y100.346 E35.17079
G1 X147.056 Y100.153 E35.1978
G1 X147.406 Y100.038 E35.21618
G1 X147.87 Y99.911 E35.24018
G1 X147.983 Y99.882 E35.246
G1 X148.332 Y99.81 E35.26378
G1 X148.867 Y99.725 E35.29081
G1 X149.265 Y99.683 E35.31078
G1 X149.802 Y99.655 E35.3376
G1 X150.198 Y99.655 E35.35736
G1 X150.735 Y99.683 E35.38419
G1 X151.133 Y99.725 E35.40415
G1 X151.668 Y99.81 E35.43118
G1 X152.063 Y99.895 E35.45134
G1 X152.581 Y100.035 E35.47811
G1 X152.944 Y100.153 E35.49715
G1 X153.45 Y100.346 E35.52417
G1 X153.824 Y100.511 E35.54456
G1 X154.302 Y100.755 E35.57134
G1 X154.644 Y100.954 E35.59108
G1 X155.098 Y101.249 E35.61809
G1 X155.401 Y101.467 E35.63671
G1 X155.803 Y101.79 E35.66244
G1 X155.891 Y101.864 E35.66818
G1 X156.123 Y102.076 E35.68386
G1 X156.48 Y102.432 E35.70901
G1 X156.561 Y102.516 E35.71483
G1 X156.78 Y102.763 E35.7313
G1 X157.12 Y103.183 E35.75826
G1 X157.35 Y103.501 E35.77784
G1 X157.643 Y103.951 E35.80463
G1 X157.844 Y104.296 E35.82455
G1 X158.089 Y104.776 E35.85144
G1 X158.254 Y105.15 E35.87183
G1 X158.447 Y105.656 E35.89885
G1 X158.562 Y106.006 E35.91723
G1 X158.689 Y106.47 E35.94123
G1 X158.718 Y106.583 E35.94705
G1 X158.79 Y106.93 E35.96473
G1 X158.875 Y107.463 E35.99166
G1 X158.917 Y107.863 E36.01172
G1 X158.945 Y108.401 E36.0386
G1 X158.945 Y108.797 E36.05836
G1 X158.917 Y109.335 E36.08523
G1 X158.875 Y109.733 E36.1052
G1 X158.79 Y110.268 E36.13223
G1 X158.707 Y110.657 E36.15207
G1 X158.568 Y111.175 E36.17883
G1 X158.447 Y111.549 E36.19844
G1 X158.254 Y112.053 E36.22537
G1 X158.09 Y112.422 E36.24551
G1 X157.845 Y112.902 E36.2724
G1 X157.645 Y113.246 E36.29225
G1 X157.351 Y113.698 E36.31915
G1 X157.123 Y114.013 E36.33855
G1 X156.784 Y114.433 E36.36548
G1 X156.521 Y114.726 E36.38512
G1 X156.142 Y115.107 E36.41193
G1 X155.755 Y115.446 E36.4376
G1 X155.421 Y115.717 E36.45906
G1 X155.1 Y115.95 E36.47885
G1 X154.648 Y116.244 E36.50575
G1 X154.304 Y116.444 E36.5256
G1 X153.824 Y116.689 E36.55249
G1 X153.45 Y116.854 E36.57288
G1 X152.944 Y117.047 E36.5999
G1 X152.581 Y117.165 E36.61894
G1 X152.063 Y117.305 E36.64571
G1 X151.668 Y117.39 E36.66587
G1 X151.133 Y117.475 E36.6929
G1 X150.735 Y117.517 E36.71286
G1 X150.198 Y117.545 E36.73969
G1 X149.802 Y117.545 E36.75945
G1 X149.265 Y117.517 E36.78627
G1 X148.867 Y117.475 E36.80624
G1 X148.332 Y117.39 E36.83327
G1 X147.937 Y117.305 E36.85342
G1 X147.419 Y117.165 E36.88019
G1 X147.056 Y117.047 E36.89924
G1 X146.55 Y116.854 E36.92626
G1 X146.176 Y116.689 E36.94665
G1 X145.696 Y116.444 E36.97354
G1 X145.352 Y116.244 E36.99339
G1 X144.9 Y115.95 E37.02029
G1 X144.599 Y115.733 E37.0388
G1 X144.191 Y115.405 E37.06492
G1 X144.101 Y115.329 E37.0708
G1 X143.875 Y115.122 E37.08609
G1 X143.52 Y114.768 E37.1111
G1 X143.439 Y114.684 E37.11692
G1 X143.22 Y114.437 E37.13339
G1 X142.88 Y114.017 E37.16035
G1 X142.649 Y113.698 E37.18
G1 X142.355 Y113.246 E37.2069
G1 X142.155 Y112.902 E37.22675
G1 X141.91 Y112.422 E37.25364
G1 X141.744 Y112.047 E37.2741
G1 X141.552 Y111.543 E37.301
G1 X141.438 Y111.194 E37.31932
G1 X141.311 Y110.73 E37.34332
G1 X141.282 Y110.617 E37.34914
G1 X141.21 Y110.268 E37.36692
G1 X141.125 Y109.733 E37.39395
G1 X141.083 Y109.335 E37.41391
G1 X141.055 Y108.799 E37.44069
G1 X141.055 Y108.403 E37.46045
G1 X141.083 Y107.865 E37.48732
G1 X141.125 Y107.467 E37.50729
G1 X141.21 Y106.932 E37.53432
G1 X141.295 Y106.537 E37.55447
G1 X141.435 Y106.019 E37.58125
G1 X141.552 Y105.657 E37.60023
G1 X141.744 Y105.153 E37.62713
G1 X141.91 Y104.778 E37.64759
G1 X142.155 Y104.298 E37.67448
G1 X142.352 Y103.957 E37.69413
G1 X142.646 Y103.504 E37.72107
G1 X142.867 Y103.199 E37.73986
G0 F7500 X143.179 Y103.449
G1 F1500 X143.496 Y103.055 E37.76509
G1 X143.57 Y102.967 E37.77083
G1 X143.765 Y102.754 E37.78523
G1 X144.146 Y102.372 E37.81215
G1 X144.421 Y102.125 E37.83059
G1 X144.842 Y101.786 E37.85756
G1 X145.119 Y101.585 E37.87463
G1 X145.569 Y101.292 E37.90142
G1 X145.878 Y101.113 E37.91924
G1 X146.358 Y100.868 E37.94613
G1 X146.692 Y100.719 E37.96437
G1 X147.198 Y100.526 E37.99139
G1 X147.511 Y100.424 E38.00781
G1 X147.97 Y100.299 E38.03155
G1 X148.083 Y100.27 E38.03737
G1 X148.395 Y100.205 E38.05327
G1 X148.93 Y100.12 E38.08029
G1 X149.286 Y100.083 E38.09815
G1 X149.823 Y100.055 E38.12498
G1 X150.177 Y100.055 E38.14264
G1 X150.714 Y100.083 E38.16947
G1 X151.07 Y100.12 E38.18732
G1 X151.605 Y100.205 E38.21435
G1 X151.959 Y100.281 E38.23241
G1 X152.477 Y100.421 E38.25918
G1 X152.802 Y100.526 E38.27622
G1 X153.308 Y100.719 E38.30324
G1 X153.642 Y100.868 E38.32149
G1 X154.12 Y101.112 E38.34826
G1 X154.427 Y101.289 E38.36594
G1 X154.881 Y101.584 E38.39295
G1 X155.151 Y101.779 E38.40957
G1 X155.545 Y102.096 E38.4348
G1 X155.633 Y102.17 E38.44053
G1 X155.841 Y102.36 E38.45459
G1 X156.192 Y102.71 E38.47932
G1 X156.273 Y102.794 E38.48514
G1 X156.469 Y103.015 E38.49988
G1 X156.809 Y103.435 E38.52684
G1 X157.015 Y103.719 E38.54434
G1 X157.308 Y104.169 E38.57113
G1 X157.487 Y104.478 E38.58895
G1 X157.732 Y104.958 E38.61583
G1 X157.881 Y105.292 E38.63408
G1 X158.074 Y105.798 E38.6611
G1 X158.176 Y106.111 E38.67752
G1 X158.301 Y106.57 E38.70126
G1 X158.33 Y106.683 E38.70708
G1 X158.395 Y106.993 E38.72288
G1 X158.48 Y107.526 E38.74981
G1 X158.517 Y107.884 E38.76776
G1 X158.545 Y108.422 E38.79464
G1 X158.545 Y108.776 E38.8123
G1 X158.517 Y109.314 E38.83918
G1 X158.48 Y109.67 E38.85703
G1 X158.395 Y110.205 E38.88406
G1 X158.321 Y110.553 E38.90181
G1 X158.182 Y111.071 E38.92857
G1 X158.073 Y111.406 E38.94614
G1 X157.88 Y111.91 E38.97307
G1 X157.733 Y112.24 E38.99109
G1 X157.488 Y112.72 E39.01798
G1 X157.31 Y113.028 E39.03573
G1 X157.016 Y113.48 E39.06263
G1 X156.812 Y113.761 E39.07995
G1 X156.473 Y114.181 E39.10688
G1 X156.237 Y114.444 E39.12451
G1 X155.858 Y114.825 E39.15132
G1 X155.523 Y115.12 E39.17359
G1 X155.169 Y115.406 E39.19629
G1 X154.882 Y115.615 E39.21401
G1 X154.43 Y115.909 E39.24091
G1 X154.122 Y116.087 E39.25865
G1 X153.642 Y116.332 E39.28554
G1 X153.308 Y116.481 E39.30379
G1 X152.802 Y116.674 E39.33081
G1 X152.477 Y116.779 E39.34785
G1 X151.959 Y116.919 E39.37462
G1 X151.605 Y116.995 E39.39268
G1 X151.07 Y117.08 E39.41971
G1 X150.714 Y117.117 E39.43756
G1 X150.177 Y117.145 E39.46439
G1 X149.823 Y117.145 E39.48205
G1 X149.286 Y117.117 E39.50888
G1 X148.93 Y117.08 E39.52673
G1 X148.395 Y116.995 E39.55376
G1 X148.041 Y116.919 E39.57182
G1 X147.523 Y116.779 E39.59859
G1 X147.198 Y116.674 E39.61563
G1 X146.692 Y116.481 E39.64265
G1 X146.358 Y116.332 E39.6609
G1 X145.878 Y116.087 E39.68778
G1 X145.57 Y115.909 E39.70553
G1 X145.118 Y115.615 E39.73243
G1 X144.849 Y115.421 E39.74898
G1 X144.449 Y115.1 E39.77457
G1 X144.359 Y115.024 E39.78044
G1 X144.157 Y114.838 E39.79414
G1 X143.808 Y114.49 E39.81873
G1 X143.727 Y114.406 E39.82455
G1 X143.531 Y114.185 E39.83929
G1 X143.191 Y113.765 E39.86625
G1 X142.984 Y113.48 E39.88382
G1 X142.69 Y113.028 E39.91072
G1 X142.512 Y112.72 E39.92847
G1 X142.267 Y112.24 E39.95536
G1 X142.118 Y111.904 E39.9737
G1 X141.926 Y111.4 E40.0006
G1 X141.824 Y111.089 E40.01693
G1 X141.699 Y110.63 E40.04067
G1 X141.67 Y110.517 E40.04649
G1 X141.605 Y110.205 E40.06239
G1 X141.52 Y109.67 E40.08941
G1 X141.483 Y109.314 E40.10727
G1 X141.455 Y108.778 E40.13405
G1 X141.455 Y108.424 E40.15171
G1 X141.483 Y107.886 E40.17859
G1 X141.52 Y107.53 E40.19644
G1 X141.605 Y106.995 E40.22347
G1 X141.681 Y106.641 E40.24153
G1 X141.821 Y106.123 E40.2683
G1 X141.926 Y105.8 E40.28525
G1 X142.118 Y105.296 E40.31215
G1 X142.267 Y104.96 E40.33049
G1 X142.512 Y104.48 E40.35738
G1 X142.688 Y104.175 E40.37495
G1 X142.982 Y103.722 E40.40189
G1 X143.179 Y103.449 E40.41868
G0 F7500 X143.491 Y103.699
G1 F1500 X143.802 Y103.312 E40.44345
G1 X143.876 Y103.224 E40.44919
G1 X144.048 Y103.036 E40.4619
G1 X144.429 Y102.654 E40.48882
G1 X144.671 Y102.436 E40.50507
G1 X145.092 Y102.097 E40.53204
G1 X145.337 Y101.92 E40.54712
G1 X145.787 Y101.627 E40.57391
G1 X146.06 Y101.469 E40.58964
G1 X146.54 Y101.224 E40.61653
G1 X146.835 Y101.093 E40.63263
G1 X147.341 Y100.9 E40.65965
G1 X147.617 Y100.81 E40.67413
G1 X148.069 Y100.686 E40.69752
G1 X148.182 Y100.657 E40.70334
G1 X148.457 Y100.6 E40.71735
G1 X148.992 Y100.515 E40.74438
G1 X149.307 Y100.482 E40.76018
G1 X149.844 Y100.454 E40.787
G1 X150.156 Y100.454 E40.80257
G1 X150.693 Y100.482 E40.8294
G1 X151.008 Y100.515 E40.8452
G1 X151.543 Y100.6 E40.87222
G1 X151.855 Y100.667 E40.88815
G1 X152.373 Y100.807 E40.91492
G1 X152.659 Y100.9 E40.92992
G1 X153.165 Y101.093 E40.95694
G1 X153.46 Y101.224 E40.97304
G1 X153.938 Y101.468 E40.99982
G1 X154.209 Y101.624 E41.01542
G1 X154.663 Y101.919 E41.04243
G1 X154.901 Y102.092 E41.05711
G1 X155.288 Y102.402 E41.08185
G1 X155.559 Y102.644 E41.09997
G1 X155.905 Y102.988 E41.12431
G1 X155.986 Y103.072 E41.13014
G1 X156.158 Y103.266 E41.14307
G1 X156.498 Y103.686 E41.17003
G1 X156.68 Y103.937 E41.1855
G1 X156.973 Y104.387 E41.21229
G1 X157.131 Y104.66 E41.22802
G1 X157.376 Y105.14 E41.25491
G1 X157.507 Y105.435 E41.27101
G1 X157.7 Y105.941 E41.29803
G1 X157.79 Y106.217 E41.31252
G1 X157.914 Y106.669 E41.3359
G1 X157.943 Y106.782 E41.34172
G1 X158 Y107.056 E41.35568
G1 X158.085 Y107.589 E41.38261
G1 X158.118 Y107.905 E41.39846
G1 X158.146 Y108.443 E41.42534
G1 X158.146 Y108.755 E41.4409
G1 X158.118 Y109.293 E41.46778
G1 X158.085 Y109.608 E41.48358
G1 X158 Y110.143 E41.51061
G1 X157.934 Y110.45 E41.52628
G1 X157.795 Y110.968 E41.55303
G1 X157.7 Y111.263 E41.56849
G1 X157.507 Y111.767 E41.59542
G1 X157.377 Y112.058 E41.61132
G1 X157.132 Y112.538 E41.63821
G1 X156.975 Y112.81 E41.65388
G1 X156.681 Y113.262 E41.68078
G1 X156.5 Y113.51 E41.69609
G1 X156.161 Y113.93 E41.72302
G1 X155.954 Y114.162 E41.73853
G1 X155.575 Y114.543 E41.76534
G1 X155.276 Y114.805 E41.78518
G1 X154.917 Y115.096 E41.80823
G1 X154.664 Y115.28 E41.82384
G1 X154.212 Y115.574 E41.85074
G1 X153.94 Y115.731 E41.86641
G1 X153.46 Y115.976 E41.8933
G1 X153.165 Y116.107 E41.9094
G1 X152.659 Y116.3 E41.93642
G1 X152.373 Y116.393 E41.95142
G1 X151.855 Y116.533 E41.97819
G1 X151.543 Y116.6 E41.99411
G1 X151.008 Y116.685 E42.02114
G1 X150.693 Y116.718 E42.03694
G1 X150.156 Y116.746 E42.06377
G1 X149.844 Y116.746 E42.07933
G1 X149.307 Y116.718 E42.10616
G1 X148.992 Y116.685 E42.12196
G1 X148.457 Y116.6 E42.14899
G1 X148.145 Y116.533 E42.16491
G1 X147.627 Y116.393 E42.19168
G1 X147.341 Y116.3 E42.20668
G1 X146.835 Y116.107 E42.2337
G1 X146.54 Y115.976 E42.24981
G1 X146.06 Y115.731 E42.27669
G1 X145.788 Y115.574 E42.29236
G1 X145.336 Y115.28 E42.31926
G1 X145.099 Y115.108 E42.33387
G1 X144.707 Y114.794 E42.35893
G1 X144.439 Y114.554 E42.37688
G1 X144.095 Y114.212 E42.40108
G1 X144.014 Y114.128 E42.4069
G1 X143.842 Y113.934 E42.41984
G1 X143.502 Y113.514 E42.44679
G1 X143.319 Y113.262 E42.46233
G1 X143.025 Y112.81 E42.48923
G1 X142.868 Y112.538 E42.5049
G1 X142.623 Y112.058 E42.53179
G1 X142.492 Y111.762 E42.54794
G1 X142.3 Y111.258 E42.57484
G1 X142.21 Y110.983 E42.58928
G1 X142.086 Y110.531 E42.61266
G1 X142.057 Y110.418 E42.61848
G1 X142 Y110.143 E42.6325
G1 X141.915 Y109.608 E42.65952
G1 X141.882 Y109.294 E42.67527
G1 X141.854 Y108.758 E42.70205
G1 X141.854 Y108.445 E42.71767
G1 X141.882 Y107.907 E42.74454
G1 X141.915 Y107.592 E42.76035
G1 X142 Y107.057 E42.78737
G1 X142.067 Y106.745 E42.80329
G1 X142.207 Y106.227 E42.83006
G1 X142.3 Y105.942 E42.84502
G1 X142.492 Y105.438 E42.87193
G1 X142.623 Y105.142 E42.88808
G1 X142.868 Y104.662 E42.91496
G1 X143.024 Y104.393 E42.93048
G1 X143.318 Y103.94 E42.95742
G1 X143.491 Y103.699 E42.97222
G0 F7500 X143.804 Y103.949
G1 F1500 X144.108 Y103.57 E42.99646
G1 X144.331 Y103.319 E43.01321
G1 X144.712 Y102.937 E43.04013
G1 X144.922 Y102.748 E43.05422
G1 X145.343 Y102.409 E43.08119
G1 X145.555 Y102.255 E43.09426
G1 X146.005 Y101.962 E43.12105
G1 X146.242 Y101.825 E43.13471
G1 X146.722 Y101.58 E43.16159
G1 X146.977 Y101.467 E43.17551
G1 X147.483 Y101.274 E43.20253
G1 X147.723 Y101.195 E43.21513
G1 X148.169 Y101.074 E43.23819
G1 X148.52 Y100.995 E43.25614
G1 X149.055 Y100.91 E43.28317
G1 X149.328 Y100.882 E43.29686
G1 X149.865 Y100.854 E43.32368
G1 X150.135 Y100.854 E43.33715
G1 X150.672 Y100.882 E43.36398
G1 X150.945 Y100.91 E43.37767
G1 X151.48 Y100.995 E43.4047
G1 X151.75 Y101.053 E43.41848
G1 X152.268 Y101.193 E43.44525
G1 X152.517 Y101.274 E43.45831
G1 X153.023 Y101.467 E43.48533
G1 X153.278 Y101.58 E43.49924
G1 X153.756 Y101.824 E43.52602
G1 X153.991 Y101.96 E43.53957
G1 X154.445 Y102.255 E43.56658
G1 X154.651 Y102.404 E43.57926
G1 X155.03 Y102.708 E43.6035
G1 X155.277 Y102.927 E43.61997
G1 X155.617 Y103.265 E43.64389
G1 X155.847 Y103.518 E43.66095
G1 X156.187 Y103.938 E43.68791
G1 X156.345 Y104.155 E43.7013
G1 X156.638 Y104.605 E43.72809
G1 X156.775 Y104.842 E43.74174
G1 X157.02 Y105.322 E43.76863
G1 X157.133 Y105.577 E43.78255
G1 X157.326 Y106.083 E43.80956
G1 X157.405 Y106.323 E43.82217
G1 X157.526 Y106.769 E43.84523
G1 X157.605 Y107.119 E43.86313
G1 X157.69 Y107.652 E43.89005
G1 X157.718 Y107.926 E43.9038
G1 X157.746 Y108.464 E43.93067
G1 X157.746 Y108.734 E43.94414
G1 X157.718 Y109.272 E43.97102
G1 X157.69 Y109.545 E43.98471
G1 X157.605 Y110.08 E44.01174
G1 X157.548 Y110.346 E44.02531
G1 X157.409 Y110.864 E44.05207
G1 X157.326 Y111.12 E44.06549
G1 X157.133 Y111.624 E44.09242
G1 X157.021 Y111.876 E44.10618
G1 X156.776 Y112.356 E44.13306
G1 X156.64 Y112.592 E44.14665
G1 X156.346 Y113.044 E44.17355
G1 X156.189 Y113.259 E44.18684
G1 X155.85 Y113.679 E44.21376
G1 X155.67 Y113.88 E44.22722
G1 X155.291 Y114.261 E44.25404
G1 X155.035 Y114.487 E44.27107
G1 X154.665 Y114.785 E44.29477
G1 X154.446 Y114.945 E44.30831
G1 X153.994 Y115.239 E44.33521
G1 X153.758 Y115.375 E44.3488
G1 X153.278 Y115.62 E44.37568
G1 X153.023 Y115.733 E44.3896
G1 X152.517 Y115.926 E44.41662
G1 X152.268 Y116.007 E44.42968
G1 X151.75 Y116.147 E44.45645
G1 X151.48 Y116.205 E44.47023
G1 X150.945 Y116.29 E44.49725
G1 X150.672 Y116.318 E44.51094
G1 X150.135 Y116.346 E44.53777
G1 X149.865 Y116.346 E44.55124
G1 X149.328 Y116.318 E44.57807
G1 X149.055 Y116.29 E44.59176
G1 X148.52 Y116.205 E44.61879
G1 X148.25 Y116.147 E44.63256
G1 X147.732 Y116.007 E44.65934
G1 X147.483 Y115.926 E44.6724
G1 X146.977 Y115.733 E44.69942
G1 X146.722 Y115.62 E44.71333
G1 X146.242 Y115.375 E44.74022
G1 X146.006 Y115.239 E44.75381
G1 X145.554 Y114.945 E44.78071
G1 X145.349 Y114.796 E44.79335
G1 X144.966 Y114.488 E44.81787
G1 X144.721 Y114.271 E44.8342
G1 X144.383 Y113.935 E44.85798
G1 X144.153 Y113.682 E44.87504
G1 X143.813 Y113.262 E44.902
G1 X143.654 Y113.044 E44.91546
G1 X143.36 Y112.592 E44.94236
G1 X143.224 Y112.356 E44.95595
G1 X142.979 Y111.876 E44.98283
G1 X142.865 Y111.62 E44.99681
G1 X142.673 Y111.116 E45.02372
G1 X142.595 Y110.877 E45.03626
G1 X142.474 Y110.431 E45.05932
G1 X142.395 Y110.08 E45.07727
G1 X142.31 Y109.545 E45.1043
G1 X142.282 Y109.273 E45.11794
G1 X142.254 Y108.737 E45.14472
G1 X142.254 Y108.466 E45.15824
G1 X142.282 Y107.928 E45.18511
G1 X142.31 Y107.655 E45.1988
G1 X142.395 Y107.12 E45.22583
G1 X142.453 Y106.85 E45.23961
G1 X142.593 Y106.332 E45.26638
G1 X142.673 Y106.084 E45.27938
G1 X142.865 Y105.58 E45.30629
G1 X142.979 Y105.324 E45.32027
G1 X143.224 Y104.844 E45.34715
G1 X143.359 Y104.611 E45.36059
G1 X143.653 Y104.158 E45.38753
G1 X143.804 Y103.949 E45.40039
G0 F7500 X144.116 Y104.199
G1 F1500 X144.414 Y103.827 E45.42417
G1 X144.614 Y103.601 E45.43923
G1 X144.995 Y103.219 E45.46615
G1 X145.173 Y103.059 E45.47809
G1 X145.594 Y102.72 E45.50506
G1 X145.774 Y102.59 E45.51613
G1 X146.224 Y102.297 E45.54292
G1 X146.424 Y102.181 E45.55446
G1 X146.904 Y101.936 E45.58134
G1 X147.12 Y101.84 E45.59314
G1 X147.626 Y101.647 E45.62016
G1 X147.828 Y101.581 E45.63076
G1 X148.268 Y101.461 E45.65351
G1 X148.583 Y101.39 E45.66962
G1 X149.118 Y101.305 E45.69665
G1 X149.348 Y101.281 E45.70818
G1 X149.885 Y101.253 E45.73501
G1 X150.115 Y101.253 E45.74649
G1 X150.652 Y101.281 E45.77331
G1 X150.882 Y101.305 E45.78485
G1 X151.417 Y101.39 E45.81188
G1 X151.646 Y101.439 E45.82356
G1 X152.164 Y101.579 E45.85033
G1 X152.374 Y101.647 E45.86134
G1 X152.88 Y101.84 E45.88836
G1 X153.096 Y101.937 E45.90017
G1 X153.574 Y102.181 E45.92695
G1 X153.773 Y102.295 E45.93839
G1 X154.227 Y102.59 E45.9654
G1 X154.402 Y102.717 E45.97619
G1 X154.773 Y103.014 E45.9999
G1 X154.995 Y103.211 E46.01471
G1 X155.329 Y103.543 E46.0382
G1 X155.536 Y103.77 E46.05353
G1 X155.876 Y104.19 E46.08049
G1 X156.01 Y104.374 E46.09184
G1 X156.303 Y104.824 E46.11863
G1 X156.419 Y105.024 E46.13017
G1 X156.664 Y105.504 E46.15706
G1 X156.76 Y105.72 E46.16885
G1 X156.953 Y106.226 E46.19587
G1 X157.019 Y106.428 E46.20647
G1 X157.139 Y106.868 E46.22922
G1 X157.21 Y107.182 E46.24528
G1 X157.295 Y107.715 E46.27221
G1 X157.319 Y107.947 E46.28385
G1 X157.347 Y108.485 E46.31072
G1 X157.347 Y108.713 E46.3221
G1 X157.319 Y109.251 E46.34898
G1 X157.295 Y109.482 E46.36056
G1 X157.21 Y110.017 E46.38759
G1 X157.162 Y110.242 E46.39907
G1 X157.023 Y110.76 E46.42582
G1 X156.953 Y110.977 E46.4372
G1 X156.76 Y111.481 E46.46413
G1 X156.665 Y111.694 E46.47576
G1 X156.42 Y112.174 E46.50265
G1 X156.304 Y112.374 E46.51418
G1 X156.01 Y112.826 E46.54108
G1 X155.878 Y113.008 E46.5523
G1 X155.539 Y113.428 E46.57923
G1 X155.387 Y113.598 E46.59061
G1 X155.008 Y113.979 E46.61742
G1 X154.791 Y114.17 E46.63184
G1 X154.73 Y114.217 E46.63568
G1 X154.413 Y114.474 E46.65604
G1 X154.228 Y114.609 E46.66747
G1 X153.776 Y114.903 E46.69437
G1 X153.576 Y115.019 E46.7059
G1 X153.096 Y115.264 E46.73279
G1 X152.88 Y115.36 E46.74458
G1 X152.374 Y115.553 E46.7716
G1 X152.164 Y115.621 E46.78261
G1 X151.646 Y115.761 E46.80938
G1 X151.417 Y115.81 E46.82107
G1 X150.882 Y115.895 E46.84809
G1 X150.652 Y115.919 E46.85963
G1 X150.115 Y115.947 E46.88646
G1 X149.885 Y115.947 E46.89793
G1 X149.348 Y115.919 E46.92476
G1 X149.118 Y115.895 E46.9363
G1 X148.583 Y115.81 E46.96332
G1 X148.354 Y115.761 E46.97501
G1 X147.836 Y115.621 E47.00178
G1 X147.626 Y115.553 E47.01279
G1 X147.12 Y115.36 E47.03981
G1 X146.904 Y115.264 E47.0516
G1 X146.424 Y115.019 E47.07849
G1 X146.224 Y114.903 E47.09002
G1 X145.772 Y114.609 E47.11692
G1 X145.598 Y114.483 E47.12764
G1 X145.224 Y114.183 E47.15156
G1 X145.003 Y113.987 E47.1663
G1 X144.671 Y113.657 E47.18965
G1 X144.464 Y113.43 E47.20498
G1 X144.124 Y113.01 E47.23194
G1 X143.99 Y112.826 E47.24329
G1 X143.696 Y112.374 E47.27019
G1 X143.58 Y112.174 E47.28173
G1 X143.335 Y111.694 E47.30861
G1 X143.239 Y111.477 E47.32045
G1 X143.047 Y110.973 E47.34736
G1 X142.981 Y110.772 E47.35792
G1 X142.861 Y110.332 E47.38067
G1 X142.79 Y110.017 E47.39678
G1 X142.705 Y109.482 E47.4238
G1 X142.681 Y109.252 E47.43534
G1 X142.653 Y108.716 E47.46212
G1 X142.653 Y108.487 E47.47354
G1 X142.681 Y107.949 E47.50042
G1 X142.705 Y107.718 E47.51201
G1 X142.79 Y107.183 E47.53903
G1 X142.839 Y106.954 E47.55072
G1 X142.979 Y106.436 E47.57749
G1 X143.047 Y106.227 E47.58845
G1 X143.239 Y105.723 E47.61536
G1 X143.335 Y105.506 E47.6272
G1 X143.58 Y105.026 E47.65408
G1 X143.695 Y104.828 E47.66551
G1 X143.989 Y104.375 E47.69245
G1 X144.116 Y104.199 E47.70328
G0 F7500 X144.428 Y104.449
G1 F1500 X144.72 Y104.085 E47.72656
G1 X144.898 Y103.884 E47.73996
G1 X145.279 Y103.502 E47.76687
G1 X145.424 Y103.371 E47.77662
G1 X145.845 Y103.032 E47.80359
G1 X145.992 Y102.926 E47.81263
G1 X146.442 Y102.633 E47.83942
G1 X146.606 Y102.538 E47.84888
G1 X147.086 Y102.293 E47.87576
G1 X147.263 Y102.214 E47.88543
G1 X147.769 Y102.021 E47.91245
G1 X147.934 Y101.967 E47.92111
G1 X148.368 Y101.849 E47.94355
G1 X148.646 Y101.785 E47.95778
G1 X149.181 Y101.7 E47.98481
G1 X149.369 Y101.68 E47.99424
G1 X149.906 Y101.652 E48.02107
G1 X150.094 Y101.652 E48.03045
G1 X150.631 Y101.68 E48.05727
G1 X150.819 Y101.7 E48.06671
G1 X151.354 Y101.785 E48.09373
G1 X151.542 Y101.825 E48.10332
G1 X152.06 Y101.965 E48.13009
G1 X152.231 Y102.021 E48.13907
G1 X152.737 Y102.214 E48.16609
G1 X152.914 Y102.293 E48.17576
G1 X153.392 Y102.537 E48.20253
G1 X153.555 Y102.631 E48.21192
G1 X154.009 Y102.926 E48.23893
G1 X154.152 Y103.029 E48.24772
G1 X154.515 Y103.32 E48.27094
G1 X154.714 Y103.495 E48.28416
G1 X155.014 Y103.793 E48.30525
G1 X155.225 Y104.021 E48.32075
G1 X155.565 Y104.441 E48.34771
G1 X155.674 Y104.592 E48.357
G1 X155.967 Y105.042 E48.38379
G1 X156.062 Y105.206 E48.39325
G1 X156.307 Y105.686 E48.42013
G1 X156.386 Y105.863 E48.4298
G1 X156.579 Y106.369 E48.45682
G1 X156.633 Y106.534 E48.46548
G1 X156.751 Y106.968 E48.48792
G1 X156.815 Y107.245 E48.50211
G1 X156.9 Y107.778 E48.52903
G1 X156.92 Y107.967 E48.53852
G1 X156.948 Y108.505 E48.56539
G1 X156.948 Y108.693 E48.57477
G1 X156.92 Y109.231 E48.60165
G1 X156.9 Y109.419 E48.61108
G1 X156.815 Y109.954 E48.63811
G1 X156.775 Y110.139 E48.64755
G1 X156.636 Y110.657 E48.67431
G1 X156.579 Y110.834 E48.68359
G1 X156.386 Y111.338 E48.71051
G1 X156.308 Y111.512 E48.72002
G1 X156.063 Y111.992 E48.74691
G1 X155.969 Y112.155 E48.7563
G1 X155.675 Y112.607 E48.7832
G1 X155.567 Y112.757 E48.79242
G1 X155.228 Y113.177 E48.81935
G1 X155.103 Y113.315 E48.82864
G1 X154.724 Y113.696 E48.85545
G1 X154.486 Y113.9 E48.87109
G1 X154.161 Y114.163 E48.89195
G1 X154.009 Y114.274 E48.90134
G1 X153.557 Y114.568 E48.92824
G1 X153.394 Y114.662 E48.93762
G1 X152.914 Y114.907 E48.96451
G1 X152.737 Y114.986 E48.97418
G1 X152.231 Y115.179 E49.0012
G1 X152.06 Y115.235 E49.01018
G1 X151.542 Y115.375 E49.03695
G1 X151.354 Y115.415 E49.04654
G1 X150.819 Y115.5 E49.07356
G1 X150.631 Y115.52 E49.08299
G1 X150.094 Y115.548 E49.10982
G1 X149.906 Y115.548 E49.1192
G1 X149.369 Y115.52 E49.14603
G1 X149.181 Y115.5 E49.15546
G1 X148.646 Y115.415 E49.18249
G1 X148.458 Y115.375 E49.19208
G1 X147.94 Y115.235 E49.21885
G1 X147.769 Y115.179 E49.22782
G1 X147.263 Y114.986 E49.25484
G1 X147.086 Y114.907 E49.26451
G1 X146.606 Y114.662 E49.2914
G1 X146.443 Y114.568 E49.30079
G1 X145.991 Y114.274 E49.32769
G1 X145.848 Y114.171 E49.33648
G1 X145.482 Y113.877 E49.3599
G1 X145.285 Y113.703 E49.37301
G1 X144.959 Y113.379 E49.39594
G1 X144.775 Y113.179 E49.4095
G1 X144.435 Y112.759 E49.43646
G1 X144.325 Y112.607 E49.44582
G1 X144.031 Y112.155 E49.47272
G1 X143.937 Y111.992 E49.48211
G1 X143.692 Y111.512 E49.509
G1 X143.613 Y111.335 E49.51867
G1 X143.421 Y110.831 E49.54557
G1 X143.367 Y110.666 E49.55424
G1 X143.249 Y110.232 E49.57667
G1 X143.185 Y109.954 E49.59091
G1 X143.1 Y109.419 E49.61793
G1 X143.08 Y109.231 E49.62737
G1 X143.052 Y108.695 E49.65414
G1 X143.052 Y108.507 E49.66352
G1 X143.08 Y107.969 E49.6904
G1 X143.1 Y107.781 E49.69983
G1 X143.185 Y107.246 E49.72686
G1 X143.225 Y107.058 E49.73645
G1 X143.365 Y106.54 E49.76322
G1 X143.421 Y106.369 E49.77219
G1 X143.613 Y105.865 E49.7991
G1 X143.692 Y105.688 E49.80877
G1 X143.937 Y105.208 E49.83566
G1 X144.03 Y105.046 E49.84498
G1 X144.324 Y104.593 E49.87192
G1 X144.428 Y104.449 E49.88078
G0 F7500 X144.741 Y104.698
G1 F1500 X145.026 Y104.342 E49.90353
G1 X145.181 Y104.166 E49.91523
G1 X145.562 Y103.784 E49.94215
G1 X145.675 Y103.683 E49.94971
G1 X146.096 Y103.344 E49.97668
G1 X146.21 Y103.261 E49.98371
G1 X146.66 Y102.968 E50.0105
G1 X146.788 Y102.894 E50.01788
G1 X147.268 Y102.649 E50.04477
G1 X147.405 Y102.588 E50.05225
G1 X147.911 Y102.395 E50.07927
G1 X148.04 Y102.353 E50.08604
G1 X148.467 Y102.236 E50.10812
G1 X148.708 Y102.18 E50.12047
G1 X149.243 Y102.095 E50.14749
G1 X149.39 Y102.08 E50.15487
G1 X149.927 Y102.052 E50.18169
G1 X150.073 Y102.052 E50.18898
G1 X150.61 Y102.08 E50.21581
G1 X150.757 Y102.095 E50.22318
G1 X151.292 Y102.18 E50.2502
G1 X151.437 Y102.211 E50.2576
G1 X151.955 Y102.351 E50.28437
G1 X152.089 Y102.395 E50.29141
G1 X152.595 Y102.588 E50.31843
G1 X152.733 Y102.649 E50.32595
G1 X153.211 Y102.893 E50.35273
G1 X153.337 Y102.966 E50.35999
G1 X153.791 Y103.261 E50.387
G1 X153.902 Y103.341 E50.39383
G1 X154.258 Y103.626 E50.41658
G1 X154.432 Y103.779 E50.42814
G1 X154.753 Y104.098 E50.45072
G1 X154.914 Y104.273 E50.46258
G1 X155.254 Y104.693 E50.48954
G1 X155.339 Y104.81 E50.49676
G1 X155.632 Y105.26 E50.52355
G1 X155.706 Y105.388 E50.53092
G1 X155.951 Y105.868 E50.55781
G1 X156.012 Y106.005 E50.56529
G1 X156.205 Y106.511 E50.59231
G1 X156.247 Y106.64 E50.59908
G1 X156.364 Y107.067 E50.62117
G1 X156.42 Y107.308 E50.63351
G1 X156.505 Y107.841 E50.66044
G1 X156.52 Y107.988 E50.66781
G1 X156.548 Y108.526 E50.69469
G1 X156.548 Y108.672 E50.70197
G1 X156.52 Y109.21 E50.72885
G1 X156.505 Y109.357 E50.73622
G1 X156.42 Y109.892 E50.76325
G1 X156.389 Y110.035 E50.77055
G1 X156.25 Y110.553 E50.7973
G1 X156.205 Y110.691 E50.80455
G1 X156.012 Y111.195 E50.83147
G1 X155.952 Y111.33 E50.83884
G1 X155.707 Y111.81 E50.86573
G1 X155.634 Y111.937 E50.87304
G1 X155.34 Y112.389 E50.89994
G1 X155.255 Y112.505 E50.90711
G1 X154.916 Y112.925 E50.93404
G1 X154.82 Y113.033 E50.94125
G1 X154.441 Y113.414 E50.96806
G1 X154.269 Y113.562 E50.97938
G1 X153.91 Y113.853 E51.00244
G1 X153.791 Y113.939 E51.00976
G1 X153.339 Y114.233 E51.03666
G1 X153.212 Y114.306 E51.04397
G1 X152.732 Y114.551 E51.07086
G1 X152.595 Y114.612 E51.07834
G1 X152.089 Y114.805 E51.10536
G1 X151.955 Y114.849 E51.11239
G1 X151.437 Y114.989 E51.13916
G1 X151.292 Y115.02 E51.14656
G1 X150.757 Y115.105 E51.17359
G1 X150.61 Y115.12 E51.18096
G1 X150.073 Y115.148 E51.20779
G1 X149.927 Y115.148 E51.21507
G1 X149.39 Y115.12 E51.2419
G1 X149.243 Y115.105 E51.24927
G1 X148.708 Y115.02 E51.2763
G1 X148.563 Y114.989 E51.28369
G1 X148.045 Y114.849 E51.31046
G1 X147.911 Y114.805 E51.3175
G1 X147.405 Y114.612 E51.34452
G1 X147.268 Y114.551 E51.352
G1 X146.788 Y114.306 E51.37889
G1 X146.661 Y114.233 E51.3862
G1 X146.209 Y113.939 E51.4131
G1 X146.098 Y113.859 E51.41992
G1 X145.74 Y113.572 E51.44281
G1 X145.566 Y113.419 E51.45437
G1 X145.247 Y113.102 E51.47681
G1 X145.086 Y112.927 E51.48867
G1 X144.746 Y112.507 E51.51563
G1 X144.66 Y112.389 E51.52292
G1 X144.366 Y111.937 E51.54982
G1 X144.293 Y111.81 E51.55713
G1 X144.048 Y111.33 E51.58401
G1 X143.987 Y111.192 E51.59154
G1 X143.795 Y110.688 E51.61845
G1 X143.753 Y110.56 E51.62517
G1 X143.636 Y110.133 E51.64726
G1 X143.58 Y109.892 E51.6596
G1 X143.495 Y109.357 E51.68663
G1 X143.48 Y109.21 E51.694
G1 X143.452 Y108.674 E51.72078
G1 X143.452 Y108.528 E51.72806
G1 X143.48 Y107.99 E51.75494
G1 X143.495 Y107.843 E51.76231
G1 X143.58 Y107.308 E51.78934
G1 X143.611 Y107.163 E51.79673
G1 X143.751 Y106.645 E51.8235
G1 X143.795 Y106.512 E51.83049
G1 X143.987 Y106.008 E51.8574
G1 X144.048 Y105.87 E51.86493
G1 X144.293 Y105.39 E51.89181
G1 X144.366 Y105.264 E51.89908
G1 X144.66 Y104.811 E51.92602
G1 X144.741 Y104.698 E51.93296
G0 F7500 X145.053 Y104.948
G1 F1500 X145.333 Y104.599 E51.95528
G1 X145.464 Y104.449 E51.96522
G1 X145.845 Y104.067 E51.99213
G1 X145.926 Y103.994 E51.99757
G1 X146.347 Y103.655 E52.02454
G1 X146.428 Y103.596 E52.02954
G1 X146.878 Y103.303 E52.05633
G1 X146.969 Y103.25 E52.06158
G1 X147.449 Y103.005 E52.08847
G1 X147.548 Y102.962 E52.09386
G1 X148.054 Y102.769 E52.12087
G1 X148.146 Y102.739 E52.1257
G1 X148.679 Y102.594 E52.15326
G1 X148.771 Y102.575 E52.15795
G1 X149.306 Y102.49 E52.18497
G1 X149.411 Y102.479 E52.19024
G1 X149.948 Y102.451 E52.21707
G1 X150.052 Y102.451 E52.22226
G1 X150.589 Y102.479 E52.24908
G1 X150.694 Y102.49 E52.25435
G1 X151.229 Y102.575 E52.28138
G1 X151.333 Y102.598 E52.28669
G1 X151.851 Y102.738 E52.31346
G1 X151.946 Y102.769 E52.31845
G1 X152.452 Y102.962 E52.34546
G1 X152.551 Y103.005 E52.35085
G1 X153.029 Y103.249 E52.37762
G1 X153.119 Y103.301 E52.38281
G1 X153.573 Y103.596 E52.40982
G1 X153.652 Y103.654 E52.41471
G1 X154.001 Y103.933 E52.437
G1 X154.15 Y104.063 E52.44687
G1 X154.465 Y104.376 E52.46902
G1 X154.603 Y104.525 E52.47915
G1 X154.943 Y104.945 E52.50611
G1 X155.004 Y105.028 E52.51125
G1 X155.297 Y105.478 E52.53804
G1 X155.35 Y105.569 E52.5433
G1 X155.595 Y106.049 E52.57018
G1 X155.638 Y106.148 E52.57557
G1 X155.831 Y106.654 E52.60259
G1 X155.861 Y106.746 E52.60741
G1 X156.006 Y107.279 E52.63497
G1 X156.025 Y107.371 E52.63966
G1 X156.11 Y107.904 E52.66659
G1 X156.121 Y108.009 E52.67185
G1 X156.149 Y108.547 E52.69873
G1 X156.149 Y108.651 E52.70392
G1 X156.121 Y109.189 E52.7308
G1 X156.11 Y109.294 E52.73606
G1 X156.025 Y109.829 E52.76309
G1 X156.003 Y109.931 E52.7683
G1 X155.864 Y110.449 E52.79505
G1 X155.832 Y110.548 E52.80024
G1 X155.639 Y111.052 E52.82717
G1 X155.596 Y111.149 E52.83246
G1 X155.351 Y111.629 E52.85935
G1 X155.298 Y111.719 E52.86456
G1 X155.004 Y112.171 E52.89146
G1 X154.944 Y112.254 E52.89657
G1 X154.605 Y112.674 E52.9235
G1 X154.536 Y112.751 E52.92866
G1 X154.157 Y113.132 E52.95547
G1 X154.017 Y113.251 E52.96463
G1 X153.658 Y113.542 E52.98769
G1 X153.573 Y113.603 E52.99291
G1 X153.121 Y113.897 E53.01981
G1 X153.031 Y113.95 E53.02502
G1 X152.551 Y114.195 E53.05191
G1 X152.452 Y114.238 E53.05729
G1 X151.946 Y114.431 E53.08431
G1 X151.851 Y114.462 E53.0893
G1 X151.333 Y114.602 E53.11607
G1 X151.229 Y114.625 E53.12138
G1 X150.694 Y114.71 E53.14841
G1 X150.589 Y114.721 E53.15367
G1 X150.052 Y114.749 E53.1805
G1 X149.948 Y114.749 E53.18569
G1 X149.411 Y114.721 E53.21252
G1 X149.306 Y114.71 E53.21778
G1 X148.771 Y114.625 E53.24481
G1 X148.667 Y114.602 E53.25012
G1 X148.149 Y114.462 E53.2769
G1 X148.054 Y114.431 E53.28188
G1 X147.548 Y114.238 E53.3089
G1 X147.449 Y114.195 E53.31428
G1 X146.969 Y113.95 E53.34117
G1 X146.879 Y113.897 E53.34638
G1 X146.427 Y113.603 E53.37328
G1 X146.348 Y113.546 E53.37814
G1 X145.998 Y113.266 E53.4005
G1 X145.848 Y113.135 E53.41044
G1 X145.535 Y112.824 E53.43245
G1 X145.397 Y112.675 E53.44259
G1 X145.057 Y112.255 E53.46954
G1 X144.996 Y112.171 E53.47472
G1 X144.702 Y111.719 E53.50162
G1 X144.649 Y111.629 E53.50684
G1 X144.404 Y111.149 E53.53372
G1 X144.361 Y111.05 E53.53911
G1 X144.169 Y110.546 E53.56601
G1 X144.139 Y110.454 E53.57084
G1 X143.994 Y109.921 E53.5984
G1 X143.975 Y109.829 E53.60309
G1 X143.89 Y109.294 E53.63011
G1 X143.879 Y109.189 E53.63538
G1 X143.851 Y108.653 E53.66216
G1 X143.851 Y108.549 E53.66735
G1 X143.879 Y108.011 E53.69422
G1 X143.89 Y107.906 E53.69949
G1 X143.975 Y107.371 E53.72652
G1 X143.998 Y107.267 E53.73183
G1 X144.138 Y106.749 E53.7586
G1 X144.169 Y106.654 E53.76359
G1 X144.361 Y106.15 E53.79049
G1 X144.404 Y106.051 E53.79588
G1 X144.649 Y105.571 E53.82277
G1 X144.701 Y105.482 E53.82791
G1 X144.995 Y105.029 E53.85485
G1 X145.053 Y104.948 E53.85982
G0 F7500 X145.365 Y105.198
G1 F1500 X145.639 Y104.857 E53.88164
G1 X145.747 Y104.731 E53.88992
G1 X146.128 Y104.349 E53.91684
G1 X146.177 Y104.306 E53.92009
G1 X146.598 Y103.967 E53.94706
G1 X146.647 Y103.931 E53.95009
G1 X147.097 Y103.638 E53.97688
G1 X147.151 Y103.607 E53.97999
G1 X147.631 Y103.362 E54.00688
G1 X147.69 Y103.335 E54.01011
G1 X148.196 Y103.142 E54.03713
G1 X148.251 Y103.124 E54.04002
G1 X148.666 Y103.011 E54.06148
G1 X148.834 Y102.97 E54.07011
G1 X149.369 Y102.885 E54.09713
G1 X149.432 Y102.879 E54.10029
G1 X149.969 Y102.851 E54.12712
G1 X150.031 Y102.851 E54.13021
G1 X150.568 Y102.879 E54.15704
G1 X150.631 Y102.885 E54.16019
G1 X151.166 Y102.97 E54.18722
G1 X151.229 Y102.984 E54.19044
G1 X151.747 Y103.124 E54.21721
G1 X151.804 Y103.142 E54.22019
G1 X152.31 Y103.335 E54.24721
G1 X152.369 Y103.362 E54.25045
G1 X152.847 Y103.606 E54.27722
G1 X152.901 Y103.637 E54.28033
G1 X153.355 Y103.932 E54.30734
G1 X153.403 Y103.966 E54.31028
G1 X153.743 Y104.239 E54.33203
G1 X153.868 Y104.346 E54.34024
G1 X154.177 Y104.654 E54.362
G1 X154.292 Y104.776 E54.37037
G1 X154.632 Y105.196 E54.39733
G1 X154.669 Y105.247 E54.40047
G1 X154.962 Y105.697 E54.42726
G1 X154.993 Y105.751 E54.43037
G1 X155.238 Y106.231 E54.45725
G1 X155.265 Y106.29 E54.46049
G1 X155.458 Y106.796 E54.48751
G1 X155.476 Y106.851 E54.4904
G1 X155.589 Y107.266 E54.51186
G1 X155.63 Y107.434 E54.52048
G1 X155.715 Y107.967 E54.54741
G1 X155.721 Y108.03 E54.55057
G1 X155.749 Y108.568 E54.57745
G1 X155.749 Y108.63 E54.58054
G1 X155.721 Y109.168 E54.60742
G1 X155.715 Y109.231 E54.61057
G1 X155.63 Y109.766 E54.6376
G1 X155.616 Y109.828 E54.64077
G1 X155.477 Y110.346 E54.66753
G1 X155.458 Y110.405 E54.67062
G1 X155.265 Y110.909 E54.69755
G1 X155.239 Y110.967 E54.70072
G1 X154.994 Y111.447 E54.7276
G1 X154.963 Y111.501 E54.73071
G1 X154.669 Y111.953 E54.75761
G1 X154.633 Y112.003 E54.76068
G1 X154.294 Y112.423 E54.78761
G1 X154.252 Y112.469 E54.79072
G1 X153.873 Y112.85 E54.81753
G1 X153.765 Y112.94 E54.82454
G1 X153.406 Y113.231 E54.8476
G1 X153.355 Y113.268 E54.85074
G1 X152.903 Y113.562 E54.87764
G1 X152.849 Y113.593 E54.88075
G1 X152.369 Y113.838 E54.90764
G1 X152.31 Y113.865 E54.91087
G1 X151.804 Y114.058 E54.93789
G1 X151.747 Y114.076 E54.94087
G1 X151.229 Y114.216 E54.96765
G1 X151.166 Y114.23 E54.97087
G1 X150.631 Y114.315 E54.99789
G1 X150.568 Y114.321 E55.00105
G1 X150.031 Y114.349 E55.02788
G1 X149.969 Y114.349 E55.03097
G1 X149.432 Y114.321 E55.0578
G1 X149.369 Y114.315 E55.06095
G1 X148.834 Y114.23 E55.08798
G1 X148.771 Y114.216 E55.0912
G1 X148.253 Y114.076 E55.11797
G1 X148.196 Y114.058 E55.12095
G1 X147.69 Y113.865 E55.14797
G1 X147.631 Y113.838 E55.15121
G1 X147.151 Y113.593 E55.17809
G1 X147.097 Y113.562 E55.1812
G1 X146.645 Y113.268 E55.2081
G1 X146.597 Y113.234 E55.21104
G1 X146.256 Y112.96 E55.23286
G1 X146.13 Y112.852 E55.24114
G1 X145.823 Y112.546 E55.26276
G1 X145.708 Y112.424 E55.27113
G1 X145.368 Y112.004 E55.29809
G1 X145.331 Y111.953 E55.30123
G1 X145.037 Y111.501 E55.32813
G1 X145.006 Y111.447 E55.33124
G1 X144.761 Y110.967 E55.35813
G1 X144.734 Y110.908 E55.36136
G1 X144.542 Y110.404 E55.38827
G1 X144.524 Y110.349 E55.39116
G1 X144.411 Y109.934 E55.41262
G1 X144.37 Y109.766 E55.42124
G1 X144.285 Y109.231 E55.44827
G1 X144.279 Y109.168 E55.45143
G1 X144.251 Y108.632 E55.4782
G1 X144.251 Y108.57 E55.4813
G1 X144.279 Y108.032 E55.50817
G1 X144.285 Y107.969 E55.51133
G1 X144.37 Y107.434 E55.53836
G1 X144.384 Y107.371 E55.54158
G1 X144.524 Y106.853 E55.56835
G1 X144.542 Y106.796 E55.57133
G1 X144.734 Y106.292 E55.59824
G1 X144.761 Y106.233 E55.60147
G1 X145.006 Y105.753 E55.62836
G1 X145.037 Y105.699 E55.63147
G1 X145.331 Y105.246 E55.65841
G1 X145.365 Y105.198 E55.66134
G0 F7500 X145.666 Y105.464
G1 F1500 X145.945 Y105.114 E55.68368
G1 X146.03 Y105.014 E55.69022
G1 X146.428 Y104.617 E55.71827
G1 X146.865 Y104.266 E55.74623
G1 X147.333 Y103.963 E55.77405
G1 X147.833 Y103.709 E55.80203
G1 X148.357 Y103.51 E55.82999
G1 X148.878 Y103.369 E55.85692
G1 X149.432 Y103.28 E55.88491
G1 X149.99 Y103.25 E55.91279
G1 X150.568 Y103.28 E55.94167
G1 X151.103 Y103.365 E55.96869
G1 X151.642 Y103.51 E55.99654
G1 X152.167 Y103.709 E56.02455
G1 X152.665 Y103.962 E56.05242
G1 X153.137 Y104.267 E56.08046
G1 X153.486 Y104.545 E56.10272
G1 X153.586 Y104.63 E56.10926
G1 X153.889 Y104.931 E56.13057
G1 X153.981 Y105.028 E56.13724
G1 X154.334 Y105.465 E56.16527
G1 X154.637 Y105.933 E56.19308
G1 X154.891 Y106.433 E56.22106
G1 X155.09 Y106.957 E56.24903
G1 X155.231 Y107.478 E56.27595
G1 X155.32 Y108.03 E56.30385
G1 X155.35 Y108.589 E56.33178
G1 X155.322 Y109.147 E56.35965
G1 X155.235 Y109.703 E56.38773
G1 X155.085 Y110.262 E56.4166
G1 X154.892 Y110.766 E56.44353
G1 X154.628 Y111.283 E56.47249
G1 X154.322 Y111.752 E56.50043
G1 X153.983 Y112.172 E56.52736
G1 X153.59 Y112.568 E56.55519
G1 X153.137 Y112.933 E56.58421
G1 X152.667 Y113.237 E56.61214
G1 X152.167 Y113.491 E56.64012
G1 X151.642 Y113.69 E56.66813
G1 X151.103 Y113.835 E56.69598
G1 X150.547 Y113.922 E56.72405
G1 X149.99 Y113.95 E56.75188
G1 X149.432 Y113.92 E56.77976
G1 X148.897 Y113.835 E56.80678
G1 X148.358 Y113.69 E56.83463
G1 X147.833 Y113.491 E56.86264
G1 X147.333 Y113.237 E56.89062
G1 X146.863 Y112.933 E56.91855
G1 X146.514 Y112.655 E56.94081
G1 X146.412 Y112.568 E56.94749
G1 X146.111 Y112.269 E56.96866
G1 X146.019 Y112.172 E56.97533
G1 X145.666 Y111.735 E57.00336
G1 X145.362 Y111.265 E57.03128
G1 X145.108 Y110.765 E57.05926
G1 X144.91 Y110.243 E57.08712
G1 X144.769 Y109.722 E57.11404
G1 X144.68 Y109.168 E57.14204
G1 X144.65 Y108.611 E57.16987
G1 X144.678 Y108.053 E57.19774
G1 X144.765 Y107.497 E57.22582
G1 X144.91 Y106.958 E57.25366
G1 X145.108 Y106.435 E57.28156
G1 X145.362 Y105.935 E57.30954
G1 X145.666 Y105.464 E57.33751
G1 F1500 E50.83751
;MESH:Bolt.stl
G0 F7500 X145.901 Y106.241
G0 X145.621 Y108.598
G0 X145.716 Y109.505
G0 X145.999 Y110.379
G0 X146.461 Y111.177
G0 X147.078 Y111.86
G0 X147.813 Y112.393
G0 X148.048 Y112.497
G0 X150 Y113.247
G1 F1500 E57.33751
G0 F7500 X150 Y113.549
;TYPE:WALL-OUTER
G1 F1500 X149.485 Y113.523 E57.36324
G1 X148.966 Y113.44 E57.38946
G1 X148.472 Y113.307 E57.41498
G1 X147.985 Y113.122 E57.44097
G1 X147.528 Y112.888 E57.46659
G1 X147.088 Y112.602 E57.49277
G1 X146.772 Y112.348 E57.513
G1 X146.688 Y112.278 E57.51845
G1 X146.396 Y111.988 E57.53898
G1 X146.32 Y111.91 E57.54442
G1 X145.999 Y111.513 E57.56989
G1 X145.712 Y111.072 E57.59614
G1 X145.478 Y110.615 E57.62175
G1 X145.294 Y110.13 E57.64763
G1 X145.185 Y109.732 E57.66822
G1 X145.16 Y109.634 E57.67326
G1 X145.077 Y109.116 E57.69944
G1 X145.05 Y108.602 E57.72512
G1 X145.077 Y108.085 E57.75095
G1 X145.16 Y107.566 E57.77717
G1 X145.293 Y107.072 E57.80269
G1 X145.478 Y106.585 E57.82868
G1 X145.712 Y106.128 E57.8543
G1 X145.998 Y105.688 E57.88048
G1 X146.252 Y105.372 E57.9007
G1 X146.322 Y105.288 E57.90616
G1 X146.688 Y104.92 E57.93205
G1 X147.088 Y104.598 E57.95767
G1 X147.528 Y104.312 E57.98385
G1 X147.985 Y104.078 E58.00947
G1 X148.47 Y103.894 E58.03535
G1 X148.864 Y103.786 E58.05573
G1 X148.966 Y103.76 E58.06098
G1 X149.484 Y103.677 E58.08715
G1 X149.998 Y103.65 E58.11283
G1 X150.516 Y103.677 E58.13871
G1 X151.028 Y103.759 E58.16458
G1 X151.528 Y103.893 E58.19041
G1 X152.015 Y104.078 E58.2164
G1 X152.472 Y104.312 E58.24201
G1 X152.912 Y104.598 E58.26819
G1 X153.228 Y104.852 E58.28842
G1 X153.312 Y104.922 E58.29387
G1 X153.602 Y105.21 E58.31427
G1 X153.68 Y105.29 E58.31984
G1 X154.001 Y105.687 E58.34531
G1 X154.288 Y106.128 E58.37156
G1 X154.522 Y106.585 E58.39718
G1 X154.706 Y107.07 E58.42306
G1 X154.814 Y107.464 E58.44344
G1 X154.84 Y107.566 E58.44869
G1 X154.923 Y108.084 E58.47486
G1 X154.95 Y108.598 E58.50054
G1 X154.923 Y109.115 E58.52637
G1 X154.839 Y109.637 E58.55275
G1 X154.71 Y110.12 E58.57769
G1 X154.522 Y110.615 E58.60411
G1 X154.288 Y111.072 E58.62972
G1 X154.001 Y111.513 E58.65597
G1 X153.68 Y111.91 E58.68144
G1 X153.316 Y112.276 E58.70719
G1 X152.913 Y112.601 E58.73302
G1 X152.472 Y112.888 E58.75927
G1 X152.015 Y113.122 E58.78489
G1 X151.528 Y113.307 E58.81088
G1 X151.034 Y113.44 E58.8364
G1 X150.515 Y113.523 E58.86262
G1 X150 Y113.549 E58.88835
G0 F7500 X149.8 Y113.539
G0 X149.823 Y113.099
G1 F1500 E52.38835
G0 F7500 X148.658 Y112.725
G0 X148.658 Y111.555
G0 X148.375 Y111.114
G1 F1500 E58.88835
G0 F7500 X148.635 Y110.965
G1 F1500 X151.365 Y110.965 E59.02455
G1 X152.731 Y108.6 E59.16081
G1 X151.365 Y106.235 E59.29707
G1 X148.635 Y106.235 E59.43327
G1 X147.269 Y108.6 E59.56952
G1 X148.635 Y110.965 E59.70578
G0 F7500 X148.835 Y110.965
G0 X148.404 Y111.365
;TYPE:WALL-INNER
G1 F1500 X151.596 Y111.365 E59.86503
G1 X153.193 Y108.6 E60.02433
G1 X151.596 Y105.835 E60.18364
G1 X148.404 Y105.835 E60.34289
G1 X146.807 Y108.6 E60.50219
G1 X148.404 Y111.365 E60.66149
G1 F1500 E54.16149
G0 F7500 X150 Y111.555
G0 X149.927 Y112.954
G0 X150 Y113.149
G1 F1500 E60.66149
G1 X149.531 Y113.125 E60.68492
G1 X149.048 Y113.048 E60.70932
G1 X148.598 Y112.927 E60.73257
G1 X148.146 Y112.755 E60.7567
G1 X147.727 Y112.541 E60.78017
G1 X147.329 Y112.282 E60.80386
G1 X146.962 Y111.986 E60.82738
G1 X146.62 Y111.645 E60.85148
G1 X146.323 Y111.278 E60.87503
G1 X146.059 Y110.872 E60.89919
G1 X145.845 Y110.454 E60.92262
G1 X145.676 Y110.008 E60.94642
G1 X145.551 Y109.548 E60.9702
G1 X145.475 Y109.07 E60.99434
G1 X145.45 Y108.598 E61.01793
G1 X145.475 Y108.131 E61.04126
G1 X145.552 Y107.648 E61.06566
G1 X145.673 Y107.198 E61.08891
G1 X145.845 Y106.746 E61.11304
G1 X146.059 Y106.327 E61.13651
G1 X146.318 Y105.929 E61.1602
G1 X146.614 Y105.562 E61.18372
G1 X146.955 Y105.219 E61.20785
G1 X147.329 Y104.918 E61.2318
G1 X147.727 Y104.659 E61.25549
G1 X148.146 Y104.445 E61.27897
G1 X148.592 Y104.276 E61.30276
G1 X149.052 Y104.151 E61.32654
G1 X149.53 Y104.075 E61.35069
G1 X149.998 Y104.05 E61.37407
G1 X150.47 Y104.075 E61.39765
G1 X150.947 Y104.151 E61.42175
G1 X151.402 Y104.273 E61.44525
G1 X151.854 Y104.445 E61.46938
G1 X152.273 Y104.659 E61.49285
G1 X152.671 Y104.918 E61.51654
G1 X153.038 Y105.214 E61.54007
G1 X153.38 Y105.555 E61.56416
G1 X153.677 Y105.922 E61.58771
G1 X153.941 Y106.328 E61.61188
G1 X154.155 Y106.746 E61.6353
G1 X154.324 Y107.192 E61.6591
G1 X154.449 Y107.652 E61.68288
G1 X154.525 Y108.13 E61.70703
G1 X154.55 Y108.598 E61.73041
G1 X154.525 Y109.067 E61.75384
G1 X154.446 Y109.56 E61.77875
G1 X154.332 Y109.988 E61.80085
G1 X154.155 Y110.454 E61.82572
G1 X153.941 Y110.872 E61.84915
G1 X153.677 Y111.278 E61.87331
G1 X153.386 Y111.638 E61.8964
G1 X153.044 Y111.982 E61.9206
G1 X152.678 Y112.277 E61.94406
G1 X152.272 Y112.541 E61.96822
G1 X151.854 Y112.755 E61.99164
G1 X151.402 Y112.927 E62.01577
G1 X150.952 Y113.048 E62.03902
G1 X150.469 Y113.125 E62.06342
G1 X150 Y113.149 E62.08685
G0 F7500 X150 Y112.758
;TYPE:SKIN
G1 F1500 X149.574 Y112.737 E62.10813
G1 X149.115 Y112.663 E62.13132
G1 X148.727 Y112.558 E62.15138
G1 X148.302 Y112.398 E62.17403
G1 X147.925 Y112.204 E62.19519
G1 X147.559 Y111.966 E62.21697
G1 X147.222 Y111.694 E62.23857
G1 X146.906 Y111.378 E62.26087
G1 X146.642 Y111.053 E62.28176
G1 X146.396 Y110.674 E62.3043
G1 X146.202 Y110.298 E62.32541
G1 X146.044 Y109.878 E62.3478
G1 X145.935 Y109.475 E62.36863
G1 X145.863 Y109.023 E62.39146
G1 X145.842 Y108.598 E62.41269
G1 X145.863 Y108.174 E62.43387
G1 X145.937 Y107.715 E62.45706
G1 X146.041 Y107.328 E62.47706
G1 X146.202 Y106.902 E62.49978
G1 X146.396 Y106.525 E62.52093
G1 X146.637 Y106.155 E62.54296
G1 X146.906 Y105.822 E62.56432
G1 X147.219 Y105.507 E62.58647
G1 X147.555 Y105.236 E62.60801
G1 X147.928 Y104.994 E62.63019
G1 X148.298 Y104.805 E62.65092
G1 X148.719 Y104.645 E62.67339
G1 X149.123 Y104.535 E62.69428
G1 X149.573 Y104.463 E62.71701
G1 X149.998 Y104.442 E62.73824
G1 X150.427 Y104.463 E62.75967
G1 X150.87 Y104.534 E62.78205
G1 X151.283 Y104.645 E62.80339
G1 X151.698 Y104.802 E62.82553
G1 X152.075 Y104.996 E62.84668
G1 X152.44 Y105.233 E62.86839
G1 X152.778 Y105.506 E62.89007
G1 X153.094 Y105.822 E62.91236
G1 X153.358 Y106.147 E62.93325
G1 X153.604 Y106.526 E62.9558
G1 X153.798 Y106.902 E62.9769
G1 X153.956 Y107.322 E62.99929
G1 X154.064 Y107.719 E63.01982
G1 X154.137 Y108.173 E63.04276
G1 X154.158 Y108.598 E63.06399
G1 X154.136 Y109.032 E63.08567
G1 X154.065 Y109.477 E63.10815
G1 X153.961 Y109.867 E63.12829
G1 X153.798 Y110.298 E63.15128
G1 X153.604 Y110.674 E63.17238
G1 X153.363 Y111.045 E63.19446
G1 X153.094 Y111.378 E63.21581
G1 X152.783 Y111.69 E63.23779
G1 X152.45 Y111.96 E63.25918
G1 X152.074 Y112.204 E63.28154
G1 X151.698 Y112.398 E63.30265
G1 X151.273 Y112.558 E63.32531
G1 X150.885 Y112.663 E63.34536
G1 X150.426 Y112.737 E63.36856
G1 X150 Y112.758 E63.38983
G1 F1500 E56.88983
G0 F7500 X149.985 Y113.037
G0 X151.354 Y112.763
G0 X151.342 Y111.555
G0 X151.656 Y111.481
G1 F1500 E63.38983
G0 F7500 X151.821 Y111.755
G1 F1500 X153.643 Y108.6 E63.5716
G1 X151.821 Y105.445 E63.75337
G1 X148.179 Y105.445 E63.93507
G1 X146.357 Y108.6 E64.11683
G1 X148.179 Y111.755 E64.2986
G1 X151.821 Y111.755 E64.4803
G0 F7500 X151.668 Y111.489
G0 X148.332 Y111.489
G0 X148.042 Y111.838
G1 F1500 X146.292 Y110.088 E64.60377
G0 F7500 X146.068 Y109.298
G1 F1500 X147.269 Y110.5 E64.68854
G0 F7500 X147.65 Y110.28
G0 X146.876 Y108.942
G0 X146.496 Y109.161
G1 F1500 X146.004 Y108.668 E64.72329
G0 F7500 X146.292 Y108.391
G1 F1500 X146.03 Y108.13 E64.74174
G0 F7500 X146.499 Y108.033
G1 F1500 X146.118 Y107.652 E64.76862
G0 F7500 X146.251 Y107.219
G1 F1500 X146.706 Y107.674 E64.80072
G0 F7500 X146.914 Y107.316
G1 F1500 X146.421 Y106.823 E64.83551
G0 F7500 X146.626 Y106.462
G1 F1500 X147.121 Y106.957 E64.87043
G0 F7500 X147.328 Y106.599
G1 F1500 X146.861 Y106.131 E64.90342
G0 F7500 X147.123 Y105.828
G1 F1500 X147.535 Y106.24 E64.93249
G0 F7500 X147.742 Y105.882
G1 F1500 X147.415 Y105.554 E64.95559
G0 F7500 X147.736 Y105.31
G1 F1500 X147.949 Y105.522 E64.97059
G0 F7500 X148.277 Y105.285
G1 F1500 X148.085 Y105.093 E64.98413
G0 F7500 X148.469 Y104.911
G1 F1500 X148.843 Y105.285 E65.01052
G0 F7500 X148.889 Y104.765
G1 F1500 X149.408 Y105.285 E65.04717
G0 F7500 X149.974 Y105.285
G1 F1500 X149.35 Y104.66 E65.09124
G0 F7500 X149.864 Y104.609
G1 F1500 X150.54 Y105.285 E65.13893
G0 F7500 X151.105 Y105.285
G1 F1500 X150.448 Y104.628 E65.18529
G0 F7500 X151.165 Y104.779
G1 F1500 X151.671 Y105.285 E65.22099
G0 F7500 X152.258 Y105.306
G1 F1500 X153.29 Y106.338 E65.2938
G0 F7500 X153.013 Y107.193
G1 F1500 X153.971 Y108.151 E65.36139
G0 F7500 X153.787 Y108.532
G1 F1500 X153.99 Y108.735 E65.37572
G0 F7500 X153.628 Y108.939
G1 F1500 X153.938 Y109.249 E65.39759
G0 F7500 X153.836 Y109.712
G1 F1500 X153.422 Y109.298 E65.4268
G0 F7500 X153.215 Y109.657
G1 F1500 X153.689 Y110.131 E65.46024
G0 F7500 X153.505 Y110.513
G1 F1500 X153.008 Y110.015 E65.49534
G0 F7500 X152.8 Y110.374
G1 F1500 X153.289 Y110.863 E65.52984
G0 F7500 X153.044 Y111.184
G1 F1500 X152.593 Y110.732 E65.5617
G0 F7500 X152.386 Y111.091
G1 F1500 X152.77 Y111.475 E65.58879
G0 F7500 X152.467 Y111.738
G1 F1500 X152.179 Y111.45 E65.60911
G0 F7500 X151.972 Y111.809
G1 F1500 X152.135 Y111.971 E65.62058
G0 F7500 X151.774 Y112.176
G1 F1500 X151.513 Y111.915 E65.63899
G0 F7500 X151.379 Y112.347
G1 F1500 X150.947 Y111.915 E65.66947
G0 F7500 X150.946 Y112.48
G1 F1500 X150.381 Y111.915 E65.70934
G0 F7500 X149.816 Y111.915
G1 F1500 X150.468 Y112.567 E65.75534
G0 F7500 X149.929 Y112.594
G1 F1500 X149.25 Y111.915 E65.80325
G0 F7500 X148.684 Y111.915
G1 F1500 X149.3 Y112.531 E65.84671
G0 F7500 X148.51 Y112.306
G1 F1500 X148.119 Y111.915 E65.8743
G1 F1500 E59.3743
G0 F7500 X148.345 Y111.482
G0 X151.499 Y111.199
G0 X153.002 Y108.6
G0 X153.082 Y107.988
G0 X154.238 Y107.674
G0 X154.244 Y107.318
G1 F1500 E65.8743
G0 F7500 X153.819 Y107.432
G1 F1500 X152.24 Y105.853 E65.9857
G0 F7500 X151.938 Y106.028
;MESH:NONMESH
G0 F300 X151.938 Y106.028 Z0.9
G0 F7500 X151.86 Y106.072
G0 X153.002 Y108.6
G0 X151.499 Y111.199
G0 X148.404 Y111.365
;TIME_ELAPSED:67.212860
;LAYER:1
M106 S85
;TYPE:WALL-INNER
;MESH:Bolt.stl
G1 F1483.9 X151.596 Y111.365 E66.3042
G1 X153.193 Y108.6 E66.62281
G1 X151.596 Y105.835 E66.94141
G1 X148.404 Y105.835 E67.25991
G1 X146.807 Y108.6 E67.57852
G1 X148.404 Y111.365 E67.89712
G0 F8250 X148.635 Y110.965
;TYPE:WALL-OUTER
G1 F1483.9 X151.365 Y110.965 E68.16952
G1 X152.731 Y108.6 E68.44204
G1 X151.365 Y106.235 E68.71455
G1 X148.635 Y106.235 E68.98695
G1 X147.269 Y108.6 E69.25947
G1 X148.635 Y110.965 E69.53198
G0 F8250 X148.835 Y110.965
G0 X148.835 Y111.405
G1 F1500 E63.03198
G0 F8250 X150 Y111.555
G0 X149.904 Y113.402
G0 X150 Y113.597
;TYPE:WALL-INNER
G1 F1500 E69.53198
G1 F1483.9 X149.474 Y113.571 E69.58453
G1 X148.954 Y113.488 E69.63707
G1 X148.458 Y113.355 E69.68831
G1 X147.96 Y113.163 E69.74157
G1 X147.506 Y112.932 E69.7924
G1 X147.058 Y112.641 E69.8457
G1 X146.649 Y112.31 E69.8982
G1 X146.285 Y111.944 E69.94971
G1 X145.955 Y111.536 E70.00207
G1 X145.902 Y111.46 E70.01131
G1 X145.67 Y111.099 E70.05413
G1 X145.433 Y110.631 E70.10647
G1 X145.246 Y110.145 E70.15843
G1 X145.112 Y109.642 E70.21037
G1 X145.029 Y109.126 E70.26252
G1 X145.003 Y108.6 E70.31507
G1 X145.029 Y108.074 E70.36762
G1 X145.112 Y107.554 E70.42016
G1 X145.246 Y107.055 E70.47171
G1 X145.38 Y106.701 E70.50948
G1 X145.431 Y106.573 E70.52323
G1 X145.673 Y106.098 E70.57642
G1 X145.959 Y105.658 E70.62879
G1 X146.283 Y105.257 E70.68023
G1 X146.654 Y104.885 E70.73265
G1 X147.058 Y104.559 E70.78445
G1 X147.509 Y104.267 E70.83806
G1 X147.966 Y104.035 E70.8892
G1 X148.327 Y103.894 E70.92787
G1 X148.542 Y103.822 E70.95049
G1 X148.955 Y103.712 E70.99314
G1 X149.483 Y103.628 E71.04648
G1 X150 Y103.601 E71.09814
G1 X150.517 Y103.628 E71.1498
G1 X151.046 Y103.712 E71.20324
G1 X151.542 Y103.845 E71.25448
G1 X152.038 Y104.036 E71.30751
G1 X152.494 Y104.268 E71.35857
G1 X152.942 Y104.559 E71.41187
G1 X153.351 Y104.89 E71.46437
G1 X153.715 Y105.256 E71.51588
G1 X154.045 Y105.664 E71.56824
G1 X154.095 Y105.738 E71.57715
G1 X154.33 Y106.102 E71.62038
G1 X154.568 Y106.569 E71.67268
G1 X154.757 Y107.063 E71.72545
G1 X154.887 Y107.546 E71.77536
G1 X154.971 Y108.074 E71.82871
G1 X154.997 Y108.6 E71.88126
G1 X154.971 Y109.126 E71.93381
G1 X154.888 Y109.646 E71.98635
G1 X154.754 Y110.145 E72.0379
G1 X154.62 Y110.499 E72.07567
G1 X154.569 Y110.627 E72.08942
G1 X154.33 Y111.097 E72.14203
G1 X154.044 Y111.537 E72.19439
G1 X153.715 Y111.944 E72.24661
G1 X153.347 Y112.314 E72.29868
G1 X152.942 Y112.642 E72.35069
G1 X152.494 Y112.932 E72.40394
G1 X152.038 Y113.164 E72.45499
G1 X151.682 Y113.303 E72.49312
G1 X151.54 Y113.355 E72.50821
G1 X151.045 Y113.488 E72.55935
G1 X150.526 Y113.571 E72.6118
G1 X150 Y113.597 E72.66434
G0 F8250 X150 Y113.998
;TYPE:WALL-OUTER
G1 F1483.9 X149.437 Y113.97 E72.72059
G1 X148.873 Y113.88 E72.77758
G1 X148.337 Y113.736 E72.83296
G1 X147.798 Y113.529 E72.89057
G1 X147.303 Y113.277 E72.94599
G1 X146.818 Y112.962 E73.0037
G1 X146.389 Y112.614 E73.05882
G1 X146.309 Y112.536 E73.06996
G1 X145.986 Y112.211 E73.11568
G1 X145.631 Y111.772 E73.17202
G1 X145.571 Y111.683 E73.18273
G1 X145.322 Y111.296 E73.22864
G1 X145.273 Y111.203 E73.23913
G1 X145.068 Y110.796 E73.2846
G1 X144.862 Y110.26 E73.3419
G1 X144.721 Y109.73 E73.39662
G1 X144.63 Y109.163 E73.45392
G1 X144.602 Y108.6 E73.51017
G1 X144.63 Y108.037 E73.56642
G1 X144.72 Y107.473 E73.6234
G1 X144.865 Y106.933 E73.67919
G1 X145.009 Y106.552 E73.71983
G1 X145.069 Y106.403 E73.73586
G1 X145.323 Y105.903 E73.79182
G1 X145.638 Y105.418 E73.84953
G1 X145.985 Y104.99 E73.9045
G1 X146.387 Y104.586 E73.96137
G1 X146.824 Y104.234 E74.01736
G1 X147.305 Y103.922 E74.07457
G1 X147.394 Y103.875 E74.08461
G1 X147.81 Y103.666 E74.13106
G1 X148.181 Y103.521 E74.17081
G1 X148.434 Y103.436 E74.19744
G1 X148.87 Y103.321 E74.24243
G1 X149.437 Y103.23 E74.29973
G1 X150 Y103.201 E74.35598
G1 X150.563 Y103.23 E74.41223
G1 X151.127 Y103.32 E74.46922
G1 X151.663 Y103.464 E74.5246
G1 X152.2 Y103.67 E74.58199
G1 X152.697 Y103.923 E74.63764
G1 X153.182 Y104.238 E74.69534
G1 X153.611 Y104.586 E74.75046
G1 X153.689 Y104.662 E74.76133
G1 X154.014 Y104.989 E74.80733
G1 X154.369 Y105.428 E74.86366
G1 X154.427 Y105.514 E74.87401
G1 X154.675 Y105.899 E74.91971
G1 X154.725 Y105.994 E74.93042
G1 X154.932 Y106.404 E74.97625
G1 X155.138 Y106.94 E75.03354
G1 X155.279 Y107.467 E75.08798
G1 X155.37 Y108.037 E75.14557
G1 X155.398 Y108.6 E75.20182
G1 X155.37 Y109.163 E75.25807
G1 X155.28 Y109.727 E75.31505
G1 X155.135 Y110.267 E75.37084
G1 X154.991 Y110.648 E75.41148
G1 X154.931 Y110.797 E75.42751
G1 X154.68 Y111.292 E75.48289
G1 X154.365 Y111.777 E75.54059
G1 X154.014 Y112.211 E75.59629
G1 X153.613 Y112.614 E75.65302
G1 X153.385 Y112.796 E75.68213
G1 X153.176 Y112.966 E75.70901
G1 X152.697 Y113.277 E75.76599
G1 X152.194 Y113.533 E75.82231
G1 X151.819 Y113.679 E75.86246
G1 X151.665 Y113.735 E75.87881
G1 X151.127 Y113.88 E75.93441
G1 X150.563 Y113.97 E75.9914
G1 X150 Y113.998 E76.04764
G0 F8250 X149.8 Y113.989
G0 X149.822 Y113.549
G0 X150 Y113.206
;TYPE:SKIN
G1 F1483.9 X149.51 Y113.182 E76.09659
G1 X149.039 Y113.107 E76.14418
G1 X148.577 Y112.983 E76.19191
G1 X148.114 Y112.805 E76.24141
G1 X147.707 Y112.597 E76.28701
G1 X147.285 Y112.323 E76.33722
G1 X146.912 Y112.02 E76.38517
G1 X146.577 Y111.684 E76.43251
G1 X146.259 Y111.291 E76.48296
G1 X146.226 Y111.243 E76.48877
G1 X146.009 Y110.904 E76.52893
G1 X145.79 Y110.472 E76.57726
G1 X145.617 Y110.024 E76.62518
G1 X145.492 Y109.552 E76.6739
G1 X145.418 Y109.09 E76.72058
G1 X145.394 Y108.6 E76.76953
G1 X145.419 Y108.105 E76.81899
G1 X145.495 Y107.628 E76.86718
G1 X145.615 Y107.182 E76.91327
G1 X145.742 Y106.846 E76.94911
G1 X145.789 Y106.73 E76.9616
G1 X146.01 Y106.294 E77.01037
G1 X146.269 Y105.896 E77.05775
G1 X146.579 Y105.513 E77.10692
G1 X146.914 Y105.177 E77.15426
G1 X147.293 Y104.871 E77.20286
G1 X147.705 Y104.604 E77.25185
G1 X148.123 Y104.392 E77.29862
G1 X148.46 Y104.261 E77.3347
G1 X148.655 Y104.196 E77.3552
G1 X149.029 Y104.096 E77.39383
G1 X149.527 Y104.016 E77.44416
G1 X150 Y103.993 E77.49141
G1 X150.473 Y104.016 E77.53867
G1 X150.969 Y104.095 E77.58878
G1 X151.423 Y104.217 E77.63569
G1 X151.884 Y104.394 E77.68496
G1 X152.293 Y104.603 E77.73079
G1 X152.717 Y104.878 E77.78122
G1 X153.084 Y105.175 E77.82832
G1 X153.423 Y105.516 E77.8763
G1 X153.73 Y105.896 E77.92505
G1 X153.772 Y105.957 E77.93244
G1 X153.991 Y106.293 E77.97246
G1 X154.207 Y106.717 E78.01994
G1 X154.389 Y107.194 E78.07088
G1 X154.502 Y107.613 E78.11418
G1 X154.583 Y108.117 E78.16511
G1 X154.607 Y108.599 E78.21327
G1 X154.582 Y109.09 E78.26232
G1 X154.507 Y109.561 E78.30991
G1 X154.382 Y110.026 E78.35796
G1 X154.257 Y110.355 E78.39307
G1 X154.211 Y110.47 E78.40543
G1 X153.997 Y110.893 E78.45273
G1 X153.729 Y111.306 E78.50186
G1 X153.423 Y111.684 E78.55039
G1 X153.08 Y112.029 E78.59893
G1 X152.713 Y112.326 E78.64604
G1 X152.298 Y112.595 E78.69538
G1 X151.881 Y112.807 E78.74206
G1 X151.548 Y112.936 E78.77769
G1 X151.41 Y112.986 E78.79234
G1 X150.97 Y113.105 E78.83782
G1 X150.49 Y113.182 E78.88633
G1 X150 Y113.206 E78.93528
G1 F1500 E72.43528
G0 F8250 X149.985 Y113.486
G0 X148.994 Y113.322
G0 X148.485 Y113.145
G0 X148.525 Y111.555
G1 F1500 E78.93528
G0 F8250 X148.179 Y111.755
G1 F1483.9 X151.821 Y111.755 E79.29868
G1 X153.643 Y108.6 E79.66221
G1 X151.821 Y105.445 E80.02574
G1 X148.179 Y105.445 E80.38914
G1 X146.357 Y108.6 E80.75267
G1 X148.179 Y111.755 E81.1162
G1 F1500 E74.6162
G0 F8250 X148.345 Y111.482
G0 X151.708 Y111.558
G0 X152.464 Y112.725
G1 F1500 E81.1162
G0 F8250 X152.408 Y112.332
G1 F1483.9 X153.726 Y111.014 E81.30219
G0 F8250 X154.095 Y111.255
G0 X154.665 Y110.048
G0 X154.24 Y109.934
G1 F1483.9 X151.334 Y112.84 E81.71225
G0 F8250 X150.608 Y113.001
G1 F1483.9 X151.694 Y111.915 E81.8655
G0 F8250 X151.128 Y111.915
G1 F1483.9 X149.997 Y113.045 E82.02503
G0 F8250 X149.464 Y113.013
G1 F1483.9 X150.562 Y111.915 E82.17997
G0 F8250 X149.997 Y111.915
G1 F1483.9 X148.984 Y112.927 E82.32284
G0 F8250 X148.546 Y112.799
G1 F1483.9 X149.431 Y111.915 E82.44765
G0 F8250 X148.865 Y111.915
G1 F1483.9 X148.14 Y112.639 E82.54989
G0 F8250 X147.768 Y112.446
G1 F1483.9 X148.3 Y111.915 E82.62489
G0 F8250 X147.957 Y111.692
G1 F1483.9 X147.425 Y112.224 E82.69996
G0 F8250 X147.108 Y111.975
G1 F1483.9 X147.749 Y111.333 E82.79048
G0 F8250 X147.543 Y110.974
G1 F1483.9 X146.817 Y111.7 E82.89293
G0 F8250 X146.552 Y111.4
G1 F1483.9 X147.336 Y110.616 E83.00356
G0 F8250 X147.129 Y110.257
G1 F1483.9 X146.309 Y111.077 E83.11927
G0 F8250 X146.096 Y110.725
G1 F1483.9 X146.921 Y109.899 E83.23576
G0 F8250 X146.714 Y109.54
G1 F1483.9 X145.911 Y110.344 E83.34914
G0 F8250 X145.757 Y109.932
G1 F1483.9 X146.508 Y109.181 E83.45511
G0 F8250 X146.301 Y108.823
G1 F1483.9 X145.642 Y109.482 E83.54811
G0 F8250 X145.572 Y108.985
G1 F1483.9 X146.463 Y108.094 E83.67384
G0 F8250 X145.63 Y107.797
G1 F1483.9 X148.01 Y105.416 E84.00975
G1 X148.141 Y105.285
G1 X149.196 Y104.23 E84.15862
G0 F8250 X149.831 Y104.161
G1 F1483.9 X148.707 Y105.285 E84.31723
G0 F8250 X149.273 Y105.285
G1 F1483.9 X150.386 Y104.171 E84.47436
G0 F8250 X150.881 Y104.243
G1 F1483.9 X149.838 Y105.285 E84.62147
G0 F8250 X150.404 Y105.285
G1 F1483.9 X151.332 Y104.357 E84.75242
G0 F8250 X151.744 Y104.511
G1 F1483.9 X150.97 Y105.285 E84.86164
G0 F8250 X151.535 Y105.285
G1 F1483.9 X152.124 Y104.696 E84.94475
G0 F8250 X152.474 Y104.912
G1 F1483.9 X151.981 Y105.404 E85.01425
G0 F8250 X152.189 Y105.763
G1 F1483.9 X152.8 Y105.151 E85.10054
G0 F8250 X153.099 Y105.419
G1 F1483.9 X152.395 Y106.122 E85.19981
G0 F8250 X152.602 Y106.481
G1 F1483.9 X153.372 Y105.711 E85.30846
G0 F8250 X153.623 Y106.025
G1 F1483.9 X152.81 Y106.839 E85.42326
G0 F8250 X153.017 Y107.198
G1 F1483.9 X153.846 Y106.368 E85.54031
G0 F8250 X154.039 Y106.741
G1 F1483.9 X153.224 Y107.556 E85.65531
G0 F8250 X153.431 Y107.915
G1 F1483.9 X154.198 Y107.147 E85.76362
G0 F8250 X154.327 Y107.584
G1 F1483.9 X153.638 Y108.273 E85.86084
G0 F8250 X153.754 Y108.723
G1 F1483.9 X154.411 Y108.066 E85.95355
G0 F8250 X154.444 Y108.598
G1 F1483.9 X152.982 Y110.061 E86.15993
G0 F8250 X152.604 Y109.841
G0 X151.831 Y111.179
G0 X152.209 Y111.399
G1 F1483.9 X154.399 Y109.209 E86.46896
G1 F1500 E79.96896
G0 F8250 X154.834 Y109.278
G0 X154.787 Y108.6
G0 X153.416 Y108.6
G0 X151.499 Y106.001
G0 X148.501 Y106.001
G0 X147.617 Y106.977
G1 F1500 E86.46896
G0 F8250 X147.237 Y106.755
G1 F1483.9 X145.562 Y108.43 E86.70532
G0 F8250 X145.123 Y108.407
G0 X145.44 Y106.856
G0 X145.849 Y107.012
G1 F1483.9 X148.411 Y104.45 E87.06685
G0 F8250 X148.283 Y104.126
G1 F1500 E80.56685
;MESH:NONMESH
G0 F300 X148.283 Y104.126 Z1.5
G0 F8250 X148.251 Y104.042
G0 X147.613 Y104.449
G0 X148.292 Y105.642
G0 X146.998 Y108.6
G0 X148.404 Y111.365
;TIME_ELAPSED:83.991796
;LAYER:2
M106 S170
;TYPE:WALL-INNER
;MESH:Bolt.stl
G1 F1500 E87.06685
G1 F1489.6 X151.596 Y111.365 E87.38534
G1 X153.193 Y108.6 E87.70395
G1 X151.596 Y105.835 E88.02255
G1 X148.404 Y105.835 E88.34105
G1 X146.807 Y108.6 E88.65966
G1 X148.404 Y111.365 E88.97826
G0 F9000 X148.635 Y110.965
;TYPE:WALL-OUTER
G1 F1489.6 X151.365 Y110.965 E89.25066
G1 X152.731 Y108.6 E89.52318
G1 X151.365 Y106.235 E89.79569
G1 X148.635 Y106.235 E90.06809
G1 X147.269 Y108.6 E90.34061
G1 X148.635 Y110.965 E90.61313
G0 F9000 X148.835 Y110.965
G0 X148.835 Y111.405
G1 F1500 E84.11313
G0 F9000 X150 Y111.555
G0 X149.895 Y113.575
G0 X150 Y113.771
;TYPE:WALL-INNER
G1 F1500 E90.61313
G1 F1489.6 X149.456 Y113.744 E90.66747
G1 X148.916 Y113.657 E90.72205
G1 X148.409 Y113.522 E90.7744
G1 X147.899 Y113.326 E90.82892
G1 X147.418 Y113.082 E90.88273
G1 X146.954 Y112.78 E90.93797
G1 X146.536 Y112.442 E90.99161
G1 X146.158 Y112.064 E91.04495
G1 X145.82 Y111.646 E91.09859
G1 X145.518 Y111.181 E91.15391
G1 X145.275 Y110.704 E91.20733
G1 X145.078 Y110.191 E91.26216
G1 X144.943 Y109.684 E91.31451
G1 X144.856 Y109.144 E91.36909
G1 X144.829 Y108.6 E91.42344
G1 X144.856 Y108.056 E91.47778
G1 X144.943 Y107.516 E91.53236
G1 X145.078 Y107.009 E91.58471
G1 X145.275 Y106.496 E91.63954
G1 X145.518 Y106.019 E91.69296
G1 X145.82 Y105.554 E91.74828
G1 X146.158 Y105.136 E91.80192
G1 X146.536 Y104.758 E91.85526
G1 X146.954 Y104.42 E91.9089
G1 X147.419 Y104.118 E91.96422
G1 X147.896 Y103.875 E92.01764
G1 X148.409 Y103.678 E92.07247
G1 X148.916 Y103.543 E92.12482
G1 X149.465 Y103.455 E92.1803
G1 X150.003 Y103.427 E92.23405
G1 X150.535 Y103.455 E92.28721
G1 X151.084 Y103.543 E92.34269
G1 X151.591 Y103.678 E92.39504
G1 X152.104 Y103.875 E92.44987
G1 X152.581 Y104.118 E92.50329
G1 X153.046 Y104.42 E92.55861
G1 X153.464 Y104.758 E92.61225
G1 X153.842 Y105.136 E92.66559
G1 X154.18 Y105.554 E92.71923
G1 X154.482 Y106.019 E92.77455
G1 X154.725 Y106.496 E92.82797
G1 X154.922 Y107.009 E92.8828
G1 X155.057 Y107.516 E92.93515
G1 X155.144 Y108.056 E92.98973
G1 X155.171 Y108.6 E93.04407
G1 X155.144 Y109.144 E93.09842
G1 X155.057 Y109.684 E93.153
G1 X154.922 Y110.191 E93.20535
G1 X154.726 Y110.701 E93.25987
G1 X154.482 Y111.182 E93.31368
G1 X154.18 Y111.646 E93.36892
G1 X153.842 Y112.064 E93.42256
G1 X153.464 Y112.442 E93.4759
G1 X153.046 Y112.78 E93.52954
G1 X152.581 Y113.082 E93.58486
G1 X152.106 Y113.324 E93.63806
G1 X151.591 Y113.522 E93.69311
G1 X151.084 Y113.657 E93.74546
G1 X150.544 Y113.744 E93.80004
G1 X150 Y113.771 E93.85438
G0 F9000 X150 Y114.172
;TYPE:WALL-OUTER
G1 F1489.6 X149.419 Y114.143 E93.91243
G1 X148.837 Y114.05 E93.97124
G1 X148.282 Y113.902 E94.02855
G1 X147.732 Y113.69 E94.08737
G1 X147.216 Y113.428 E94.14511
G1 X146.72 Y113.106 E94.20412
G1 X146.268 Y112.74 E94.26215
G1 X145.86 Y112.332 E94.31972
G1 X145.494 Y111.88 E94.37775
G1 X145.172 Y111.384 E94.43676
G1 X144.911 Y110.871 E94.49419
G1 X144.698 Y110.318 E94.55332
G1 X144.55 Y109.763 E94.61063
G1 X144.457 Y109.181 E94.66944
G1 X144.428 Y108.6 E94.72749
G1 X144.457 Y108.019 E94.78553
G1 X144.55 Y107.437 E94.84434
G1 X144.698 Y106.882 E94.90165
G1 X144.911 Y106.329 E94.96078
G1 X145.172 Y105.816 E95.01822
G1 X145.494 Y105.32 E95.07722
G1 X145.86 Y104.868 E95.13525
G1 X146.268 Y104.46 E95.19283
G1 X146.72 Y104.094 E95.25086
G1 X147.216 Y103.772 E95.30987
G1 X147.729 Y103.511 E95.3673
G1 X148.282 Y103.298 E95.42643
G1 X148.837 Y103.15 E95.48374
G1 X149.419 Y103.057 E95.54255
G1 X150.003 Y103.027 E95.6009
G1 X150.581 Y103.057 E95.65865
G1 X151.163 Y103.15 E95.71746
G1 X151.718 Y103.298 E95.77477
G1 X152.271 Y103.511 E95.8339
G1 X152.784 Y103.772 E95.89133
G1 X153.28 Y104.094 E95.95034
G1 X153.732 Y104.46 E96.00837
G1 X154.14 Y104.868 E96.06594
G1 X154.506 Y105.32 E96.12398
G1 X154.828 Y105.816 E96.18298
G1 X155.089 Y106.329 E96.24041
G1 X155.302 Y106.882 E96.29954
G1 X155.45 Y107.437 E96.35686
