;FLAVOR:Marlin
;TIME:11964
;Filament used: 20.8419m
;Layer height: 0.6
;MINX:92.2
;MINY:108.1
;MINZ:0.3
;MAXX:207.8
;MAXY:223.7
;MAXZ:60.3
;Generated with Cura_SteamEngine 4.13.0
M140 S60
M105
M190 S60
M104 S200
M105
M109 S200
M82 ;absolute extrusion mode
G28 ;Home
G1 Z15.0 F2000 ;Move the platform
G92 E0
G92 E0
G1 F1500 E-6.5
;LAYER_COUNT:101
;LAYER:0
M107
M204 S1000
G0 F7500 X94.623 Y110.249 Z0.3
;TYPE:SKIRT
G1 F1500 E0
G1 X95.222 Y109.734 E0.03941
G1 X95.87 Y109.283 E0.0788
G1 X96.561 Y108.899 E0.11824
G1 X97.286 Y108.587 E0.15762
G1 X98.039 Y108.35 E0.197
G1 X98.813 Y108.191 E0.23642
G1 X99.598 Y108.11 E0.27579
G1 X100 Y108.1 E0.29586
G1 X200 Y108.1 E5.28488
G1 X200.789 Y108.14 E5.32429
G1 X201.569 Y108.259 E5.36365
G1 X202.334 Y108.457 E5.40308
G1 X203.074 Y108.731 E5.44245
G1 X203.783 Y109.079 E5.48185
G1 X204.454 Y109.497 E5.52129
G1 X205.078 Y109.98 E5.56066
G1 X205.651 Y110.523 E5.60004
G1 X206.166 Y111.122 E5.63945
G1 X206.617 Y111.77 E5.67884
G1 X207.001 Y112.461 E5.71828
G1 X207.313 Y113.186 E5.75766
G1 X207.55 Y113.939 E5.79704
G1 X207.709 Y114.713 E5.83646
G1 X207.79 Y115.498 E5.87584
G1 X207.8 Y115.9 E5.8959
G1 X207.8 Y215.9 E10.88492
G1 X207.76 Y216.689 E10.92433
G1 X207.641 Y217.469 E10.9637
G1 X207.443 Y218.234 E11.00312
G1 X207.169 Y218.974 E11.04249
G1 X206.821 Y219.683 E11.08189
G1 X206.403 Y220.354 E11.12133
G1 X205.92 Y220.978 E11.1607
G1 X205.377 Y221.551 E11.20008
G1 X204.778 Y222.066 E11.2395
G1 X204.13 Y222.517 E11.27888
G1 X203.439 Y222.901 E11.31832
G1 X202.714 Y223.213 E11.3577
G1 X201.961 Y223.45 E11.39708
G1 X201.187 Y223.609 E11.43651
G1 X200.402 Y223.69 E11.47588
G1 X200 Y223.7 E11.49594
G1 X100 Y223.7 E16.48496
G1 X99.211 Y223.66 E16.52437
G1 X98.431 Y223.541 E16.56374
G1 X97.666 Y223.343 E16.60316
G1 X96.926 Y223.069 E16.64253
G1 X96.217 Y222.721 E16.68193
G1 X95.546 Y222.303 E16.72137
G1 X94.922 Y221.82 E16.76074
G1 X94.349 Y221.277 E16.80013
G1 X93.834 Y220.678 E16.83954
G1 X93.383 Y220.03 E16.87893
G1 X92.999 Y219.339 E16.91837
G1 X92.687 Y218.614 E16.95774
G1 X92.45 Y217.861 E16.99713
G1 X92.291 Y217.087 E17.03655
G1 X92.21 Y216.302 E17.07592
G1 X92.2 Y215.9 E17.09598
G1 X92.2 Y115.9 E22.085
G1 X92.24 Y115.111 E22.12442
G1 X92.359 Y114.331 E22.16378
G1 X92.557 Y113.566 E22.2032
G1 X92.831 Y112.826 E22.24257
G1 X93.179 Y112.117 E22.28198
G1 X93.597 Y111.446 E22.32142
G1 X94.08 Y110.822 E22.36078
G1 X94.623 Y110.249 E22.40017
G0 F7500 X95.016 Y110.43
G1 F1500 X95.611 Y109.942 E22.43856
G1 X96.253 Y109.519 E22.47692
G1 X96.936 Y109.164 E22.51532
G1 X97.651 Y108.883 E22.55365
G1 X98.393 Y108.677 E22.59207
G1 X99.151 Y108.549 E22.63042
G1 X100 Y108.5 E22.67285
G1 X200 Y108.5 E27.66187
G1 X200.768 Y108.54 E27.70023
G1 X201.528 Y108.659 E27.73861
G1 X202.271 Y108.857 E27.77697
G1 X202.99 Y109.131 E27.81536
G1 X203.676 Y109.478 E27.85372
G1 X204.323 Y109.894 E27.89209
G1 X204.923 Y110.375 E27.93046
G1 X205.47 Y110.916 E27.96884
G1 X205.958 Y111.511 E28.00723
G1 X206.381 Y112.153 E28.04559
G1 X206.736 Y112.836 E28.08399
G1 X207.017 Y113.551 E28.12232
G1 X207.223 Y114.293 E28.16074
G1 X207.351 Y115.051 E28.19909
G1 X207.4 Y115.9 E28.24152
G1 X207.4 Y215.9 E33.23054
G1 X207.36 Y216.668 E33.2689
G1 X207.241 Y217.428 E33.30728
G1 X207.043 Y218.171 E33.34565
G1 X206.769 Y218.89 E33.38403
G1 X206.422 Y219.576 E33.42239
G1 X206.006 Y220.223 E33.46076
G1 X205.525 Y220.823 E33.49913
G1 X204.984 Y221.37 E33.53751
G1 X204.389 Y221.858 E33.5759
G1 X203.747 Y222.281 E33.61426
G1 X203.064 Y222.636 E33.65266
G1 X202.349 Y222.917 E33.69099
G1 X201.607 Y223.123 E33.72941
G1 X200.849 Y223.251 E33.76776
G1 X200 Y223.3 E33.81019
G1 X100 Y223.3 E38.79921
G1 X99.232 Y223.26 E38.83758
G1 X98.472 Y223.141 E38.87595
G1 X97.729 Y222.943 E38.91432
G1 X97.01 Y222.669 E38.9527
G1 X96.324 Y222.322 E38.99106
G1 X95.677 Y221.906 E39.02943
G1 X95.077 Y221.425 E39.0678
G1 X94.53 Y220.884 E39.10618
G1 X94.042 Y220.289 E39.14457
G1 X93.619 Y219.647 E39.18293
G1 X93.264 Y218.964 E39.22133
G1 X92.983 Y218.249 E39.25966
G1 X92.777 Y217.507 E39.29808
G1 X92.649 Y216.749 E39.33643
G1 X92.6 Y215.9 E39.37886
G1 X92.6 Y115.9 E44.36788
G1 X92.64 Y115.132 E44.40625
G1 X92.759 Y114.372 E44.44463
G1 X92.957 Y113.629 E44.48299
G1 X93.231 Y112.91 E44.52137
G1 X93.578 Y112.224 E44.55973
G1 X93.994 Y111.577 E44.5981
G1 X94.475 Y110.977 E44.63647
G1 X95.016 Y110.43 E44.67485
G0 F7500 X95.408 Y110.616
G1 F1500 X95.998 Y110.157 E44.71215
G1 X96.634 Y109.762 E44.7495
G1 X97.308 Y109.438 E44.78681
G1 X98.013 Y109.188 E44.82413
G1 X98.741 Y109.014 E44.86147
G1 X99.483 Y108.919 E44.89879
G1 X100 Y108.9 E44.9246
G1 X200 Y108.9 E49.91362
G1 X200.747 Y108.94 E49.95094
G1 X201.485 Y109.059 E49.98824
G1 X202.207 Y109.257 E50.02559
G1 X202.903 Y109.53 E50.06289
G1 X203.566 Y109.877 E50.10022
G1 X204.189 Y110.292 E50.13757
G1 X204.763 Y110.771 E50.17486
G1 X205.284 Y111.308 E50.21219
G1 X205.743 Y111.898 E50.24949
G1 X206.138 Y112.534 E50.28684
G1 X206.462 Y113.208 E50.32415
G1 X206.712 Y113.913 E50.36147
G1 X206.886 Y114.641 E50.39881
G1 X206.981 Y115.383 E50.43613
G1 X207 Y115.9 E50.46194
G1 X207 Y215.9 E55.45096
G1 X206.96 Y216.647 E55.48828
G1 X206.841 Y217.385 E55.52558
G1 X206.643 Y218.107 E55.56293
G1 X206.37 Y218.803 E55.60023
G1 X206.023 Y219.466 E55.63756
G1 X205.608 Y220.089 E55.67491
G1 X205.129 Y220.663 E55.7122
G1 X204.592 Y221.184 E55.74953
G1 X204.002 Y221.643 E55.78683
G1 X203.366 Y222.038 E55.82418
G1 X202.692 Y222.362 E55.86149
G1 X201.987 Y222.612 E55.89881
G1 X201.259 Y222.786 E55.93615
G1 X200.517 Y222.881 E55.97347
G1 X200 Y222.9 E55.99928
G1 X100 Y222.9 E60.9883
G1 X99.253 Y222.86 E61.02562
G1 X98.515 Y222.741 E61.06292
G1 X97.793 Y222.543 E61.10027
G1 X97.097 Y222.27 E61.13757
G1 X96.434 Y221.923 E61.1749
G1 X95.811 Y221.508 E61.21225
G1 X95.237 Y221.029 E61.24955
G1 X94.716 Y220.492 E61.28687
G1 X94.257 Y219.902 E61.32417
G1 X93.862 Y219.266 E61.36152
G1 X93.538 Y218.592 E61.39883
G1 X93.288 Y217.887 E61.43615
G1 X93.114 Y217.159 E61.47349
G1 X93.019 Y216.417 E61.51081
G1 X93 Y215.9 E61.53662
G1 X93 Y115.9 E66.52564
G1 X93.04 Y115.153 E66.56296
G1 X93.159 Y114.415 E66.60026
G1 X93.357 Y113.693 E66.63761
G1 X93.63 Y112.997 E66.67491
G1 X93.977 Y112.334 E66.71224
G1 X94.392 Y111.711 E66.74959
G1 X94.871 Y111.137 E66.78689
G1 X95.408 Y110.616 E66.82421
G0 F7500 X95.265 Y111.302
G1 F1500 X95.799 Y110.809 E66.86047
G1 X96.384 Y110.379 E66.89669
G1 X97.013 Y110.015 E66.93295
G1 X97.678 Y109.722 E66.96921
G1 X98.371 Y109.504 E67.00545
G1 X99.083 Y109.364 E67.04165
G1 X100 Y109.3 E67.08751
G1 X200 Y109.3 E72.07653
G1 X200.725 Y109.34 E72.11276
G1 X201.442 Y109.459 E72.14902
G1 X202.141 Y109.657 E72.18526
G1 X202.814 Y109.93 E72.2215
G1 X203.453 Y110.275 E72.25773
G1 X204.05 Y110.689 E72.29397
G1 X204.598 Y111.165 E72.33019
G1 X205.091 Y111.699 E72.36645
G1 X205.521 Y112.284 E72.40267
G1 X205.885 Y112.913 E72.43892
G1 X206.178 Y113.578 E72.47518
G1 X206.396 Y114.271 E72.51142
G1 X206.536 Y114.983 E72.54762
G1 X206.6 Y115.9 E72.59349
G1 X206.6 Y215.9 E77.58251
G1 X206.56 Y216.625 E77.61873
G1 X206.441 Y217.342 E77.65499
G1 X206.243 Y218.041 E77.69124
G1 X205.97 Y218.714 E77.72747
G1 X205.625 Y219.353 E77.7637
G1 X205.211 Y219.95 E77.79995
G1 X204.735 Y220.498 E77.83616
G1 X204.201 Y220.991 E77.87242
G1 X203.616 Y221.421 E77.90864
G1 X202.987 Y221.785 E77.9449
G1 X202.322 Y222.078 E77.98115
G1 X201.629 Y222.296 E78.0174
G1 X200.917 Y222.436 E78.0536
G1 X200 Y222.5 E78.09946
G1 X100 Y222.5 E83.08848
G1 X99.275 Y222.46 E83.1247
G1 X98.558 Y222.341 E83.16096
G1 X97.859 Y222.143 E83.19721
G1 X97.186 Y221.87 E83.23344
G1 X96.547 Y221.525 E83.26967
G1 X95.95 Y221.111 E83.30592
G1 X95.402 Y220.635 E83.34213
G1 X94.909 Y220.101 E83.37839
G1 X94.479 Y219.516 E83.41461
G1 X94.115 Y218.887 E83.45087
G1 X93.822 Y218.222 E83.48712
G1 X93.604 Y217.529 E83.52337
G1 X93.464 Y216.817 E83.55957
G1 X93.4 Y215.9 E83.60543
G1 X93.4 Y115.9 E88.59445
G1 X93.44 Y115.175 E88.63068
G1 X93.559 Y114.458 E88.66694
G1 X93.757 Y113.759 E88.70318
G1 X94.03 Y113.086 E88.73942
G1 X94.375 Y112.447 E88.77565
G1 X94.789 Y111.85 E88.81189
G1 X95.265 Y111.302 E88.8481
G0 F7500 X95.659 Y111.473
G1 F1500 X96.189 Y111.009 E88.88325
G1 X96.768 Y110.609 E88.91836
G1 X97.389 Y110.277 E88.95349
G1 X98.043 Y110.017 E88.9886
G1 X98.723 Y109.833 E89.02375
G1 X99.419 Y109.727 E89.05887
G1 X100 Y109.7 E89.08789
G1 X200 Y109.7 E94.07691
G1 X200.703 Y109.74 E94.11204
G1 X201.397 Y109.859 E94.14717
G1 X202.072 Y110.057 E94.18226
G1 X202.721 Y110.329 E94.21737
G1 X203.335 Y110.674 E94.25251
G1 X203.906 Y111.085 E94.2876
G1 X204.427 Y111.559 E94.32275
G1 X204.891 Y112.089 E94.35789
G1 X205.291 Y112.668 E94.393
G1 X205.623 Y113.289 E94.42813
G1 X205.883 Y113.943 E94.46324
G1 X206.067 Y114.623 E94.49839
G1 X206.173 Y115.319 E94.53351
G1 X206.2 Y115.9 E94.56253
G1 X206.2 Y215.9 E99.55155
G1 X206.16 Y216.603 E99.58668
G1 X206.041 Y217.297 E99.62181
G1 X205.843 Y217.972 E99.6569
G1 X205.571 Y218.621 E99.69201
G1 X205.226 Y219.235 E99.72715
G1 X204.815 Y219.806 E99.76225
G1 X204.341 Y220.327 E99.79739
G1 X203.811 Y220.791 E99.83253
G1 X203.232 Y221.191 E99.86764
G1 X202.611 Y221.523 E99.90277
G1 X201.957 Y221.783 E99.93788
G1 X201.277 Y221.967 E99.97303
G1 X200.581 Y222.073 E100.00815
G1 X200 Y222.1 E100.03717
G1 X100 Y222.1 E105.02619
G1 X99.297 Y222.06 E105.06132
G1 X98.603 Y221.941 E105.09645
G1 X97.928 Y221.743 E105.13154
G1 X97.279 Y221.471 E105.16665
G1 X96.665 Y221.126 E105.20179
G1 X96.094 Y220.715 E105.23689
G1 X95.573 Y220.241 E105.27203
G1 X95.109 Y219.711 E105.30717
G1 X94.709 Y219.132 E105.34228
G1 X94.377 Y218.511 E105.37741
G1 X94.117 Y217.857 E105.41252
G1 X93.933 Y217.177 E105.44767
G1 X93.827 Y216.481 E105.48279
G1 X93.8 Y215.9 E105.51181
G1 X93.8 Y115.9 E110.50083
G1 X93.84 Y115.197 E110.53596
G1 X93.959 Y114.503 E110.57109
G1 X94.157 Y113.828 E110.60618
G1 X94.429 Y113.179 E110.64129
G1 X94.774 Y112.565 E110.67643
G1 X95.185 Y111.994 E110.71153
G1 X95.659 Y111.473 E110.74667
G0 F7500 X96.053 Y111.651
G1 F1500 X96.578 Y111.217 E110.78065
G1 X97.15 Y110.848 E110.81461
G1 X97.762 Y110.549 E110.84859
G1 X98.404 Y110.324 E110.88253
G1 X99.069 Y110.175 E110.91653
G1 X100 Y110.1 E110.96313
G1 X200 Y110.1 E115.95215
G1 X200.68 Y110.14 E115.98614
G1 X201.35 Y110.259 E116.02009
G1 X202.002 Y110.456 E116.05407
G1 X202.626 Y110.728 E116.08803
G1 X203.214 Y111.072 E116.12201
G1 X203.758 Y111.482 E116.156
G1 X204.249 Y111.953 E116.18994
G1 X204.683 Y112.478 E116.22393
G1 X205.052 Y113.05 E116.25789
G1 X205.351 Y113.662 E116.29187
G1 X205.576 Y114.304 E116.32581
G1 X205.725 Y114.969 E116.35981
G1 X205.8 Y115.9 E116.40641
G1 X205.8 Y215.9 E121.39543
G1 X205.76 Y216.58 E121.42941
G1 X205.641 Y217.25 E121.46336
G1 X205.444 Y217.902 E121.49734
G1 X205.172 Y218.526 E121.5313
G1 X204.828 Y219.114 E121.56529
G1 X204.418 Y219.658 E121.59927
G1 X203.947 Y220.149 E121.63322
G1 X203.422 Y220.583 E121.6672
G1 X202.85 Y220.952 E121.70116
G1 X202.238 Y221.251 E121.73514
G1 X201.596 Y221.476 E121.76908
G1 X200.931 Y221.625 E121.80308
G1 X200 Y221.7 E121.84968
G1 X100 Y221.7 E126.8387
G1 X99.32 Y221.66 E126.87269
G1 X98.65 Y221.541 E126.90663
G1 X97.998 Y221.344 E126.94062
G1 X97.374 Y221.072 E126.97458
G1 X96.786 Y220.728 E127.00856
G1 X96.242 Y220.318 E127.04255
G1 X95.751 Y219.847 E127.07649
G1 X95.317 Y219.322 E127.11048
G1 X94.948 Y218.75 E127.14444
G1 X94.649 Y218.138 E127.17842
G1 X94.424 Y217.496 E127.21236
G1 X94.275 Y216.831 E127.24636
G1 X94.2 Y215.9 E127.29296
G1 X94.2 Y115.9 E132.28198
G1 X94.24 Y115.22 E132.31596
G1 X94.359 Y114.55 E132.34991
G1 X94.556 Y113.898 E132.38389
G1 X94.828 Y113.274 E132.41785
G1 X95.172 Y112.686 E132.45184
G1 X95.582 Y112.142 E132.48582
G1 X96.053 Y111.651 E132.51977
G0 F7500 X96.445 Y111.835
G1 F1500 X96.965 Y111.434 E132.55253
G1 X97.529 Y111.098 E132.58528
G1 X98.131 Y110.834 E132.61808
G1 X98.76 Y110.644 E132.65086
G1 X99.407 Y110.533 E132.68361
G1 X100 Y110.5 E132.71324
G1 X200 Y110.5 E137.70226
G1 X200.656 Y110.54 E137.73505
G1 X201.302 Y110.659 E137.76782
G1 X201.929 Y110.856 E137.80061
G1 X202.527 Y111.128 E137.83338
G1 X203.088 Y111.47 E137.86616
G1 X203.603 Y111.878 E137.89894
G1 X204.065 Y112.345 E137.93172
G1 X204.466 Y112.865 E137.96448
G1 X204.802 Y113.429 E137.99723
G1 X205.066 Y114.031 E138.03002
G1 X205.256 Y114.66 E138.06281
G1 X205.367 Y115.307 E138.09556
G1 X205.4 Y115.9 E138.12519
G1 X205.4 Y215.9 E143.11421
G1 X205.36 Y216.556 E143.147
G1 X205.241 Y217.202 E143.17977
G1 X205.044 Y217.829 E143.21256
G1 X204.772 Y218.427 E143.24533
G1 X204.43 Y218.988 E143.27811
G1 X204.022 Y219.503 E143.31089
G1 X203.555 Y219.965 E143.34366
G1 X203.035 Y220.366 E143.37642
G1 X202.471 Y220.702 E143.40918
G1 X201.869 Y220.966 E143.44197
G1 X201.24 Y221.156 E143.47475
G1 X200.593 Y221.267 E143.5075
G1 X200 Y221.3 E143.53713
G1 X100 Y221.3 E148.52615
G1 X99.344 Y221.26 E148.55894
G1 X98.698 Y221.141 E148.59172
G1 X98.071 Y220.944 E148.6245
G1 X97.473 Y220.672 E148.65728
G1 X96.912 Y220.33 E148.69006
G1 X96.397 Y219.922 E148.72284
G1 X95.935 Y219.455 E148.75561
G1 X95.534 Y218.935 E148.78837
G1 X95.198 Y218.371 E148.82113
G1 X94.934 Y217.769 E148.85392
G1 X94.744 Y217.14 E148.8867
G1 X94.633 Y216.493 E148.91945
G1 X94.6 Y215.9 E148.94908
G1 X94.6 Y115.9 E153.9381
G1 X94.64 Y115.244 E153.97089
G1 X94.759 Y114.598 E154.00366
G1 X94.956 Y113.971 E154.03645
G1 X95.228 Y113.373 E154.06923
G1 X95.57 Y112.812 E154.10201
G1 X95.978 Y112.297 E154.13479
G1 X96.445 Y111.835 E154.16756
G0 F7500 X96.373 Y112.459
G1 F1500 X96.836 Y112.029 E154.19908
G1 X97.35 Y111.66 E154.23065
G1 X97.906 Y111.36 E154.26217
G1 X98.495 Y111.132 E154.29368
G1 X99.109 Y110.98 E154.32524
G1 X100 Y110.9 E154.36987
G1 X200 Y110.9 E159.35889
G1 X200.631 Y110.94 E159.39043
G1 X201.252 Y111.059 E159.42198
G1 X201.852 Y111.256 E159.45349
G1 X202.424 Y111.527 E159.48506
G1 X202.956 Y111.867 E159.51656
G1 X203.441 Y112.273 E159.54812
G1 X203.871 Y112.736 E159.57964
G1 X204.24 Y113.25 E159.61121
G1 X204.54 Y113.806 E159.64273
G1 X204.768 Y114.395 E159.67424
G1 X204.92 Y115.009 E159.7058
G1 X205 Y115.9 E159.75043
G1 X205 Y215.9 E164.73945
G1 X204.96 Y216.531 E164.77099
G1 X204.841 Y217.152 E164.80254
G1 X204.644 Y217.752 E164.83404
G1 X204.373 Y218.324 E164.86562
G1 X204.033 Y218.856 E164.89712
G1 X203.627 Y219.341 E164.92868
G1 X203.164 Y219.771 E164.9602
G1 X202.65 Y220.14 E164.99177
G1 X202.094 Y220.44 E165.02329
G1 X201.505 Y220.668 E165.0548
G1 X200.891 Y220.82 E165.08635
G1 X200 Y220.9 E165.13099
G1 X100 Y220.9 E170.12001
G1 X99.369 Y220.86 E170.15155
G1 X98.748 Y220.741 E170.1831
G1 X98.148 Y220.544 E170.2146
G1 X97.576 Y220.273 E170.24618
G1 X97.044 Y219.933 E170.27768
G1 X96.559 Y219.527 E170.30923
G1 X96.129 Y219.064 E170.34076
G1 X95.76 Y218.55 E170.37233
G1 X95.46 Y217.994 E170.40385
G1 X95.232 Y217.405 E170.43536
G1 X95.08 Y216.791 E170.46691
G1 X95 Y215.9 E170.51154
G1 X95 Y115.9 E175.50056
G1 X95.04 Y115.269 E175.53211
G1 X95.159 Y114.648 E175.56365
G1 X95.356 Y114.048 E175.59516
G1 X95.627 Y113.476 E175.62674
G1 X95.967 Y112.944 E175.65824
G1 X96.373 Y112.459 E175.68979
G0 F7500 X96.767 Y112.628
G1 F1500 X97.225 Y112.231 E175.72003
G1 X97.732 Y111.898 E175.75029
G1 X98.278 Y111.634 E175.78055
G1 X98.854 Y111.445 E175.8108
G1 X99.45 Y111.333 E175.84105
G1 X100 Y111.3 E175.86854
G1 X200 Y111.3 E180.85756
G1 X200.605 Y111.34 E180.88781
G1 X201.199 Y111.459 E180.91803
G1 X201.773 Y111.655 E180.94829
G1 X202.316 Y111.926 E180.97857
G1 X202.819 Y112.265 E181.00883
G1 X203.272 Y112.667 E181.03905
G1 X203.669 Y113.125 E181.06929
G1 X204.002 Y113.632 E181.09955
G1 X204.266 Y114.178 E181.12981
G1 X204.455 Y114.754 E181.16005
G1 X204.567 Y115.35 E181.19031
G1 X204.6 Y115.9 E181.2178
G1 X204.6 Y215.9 E186.20682
G1 X204.56 Y216.505 E186.23706
G1 X204.441 Y217.099 E186.26729
G1 X204.245 Y217.673 E186.29755
G1 X203.974 Y218.216 E186.32783
G1 X203.635 Y218.719 E186.35809
G1 X203.233 Y219.172 E186.3883
G1 X202.775 Y219.569 E186.41854
G1 X202.268 Y219.902 E186.44881
G1 X201.722 Y220.166 E186.47906
G1 X201.146 Y220.355 E186.50931
G1 X200.55 Y220.467 E186.53956
G1 X200 Y220.5 E186.56705
G1 X100 Y220.5 E191.55607
G1 X99.395 Y220.46 E191.58632
G1 X98.801 Y220.341 E191.61654
G1 X98.227 Y220.145 E191.6468
G1 X97.684 Y219.874 E191.67708
G1 X97.181 Y219.535 E191.70734
G1 X96.728 Y219.133 E191.73756
G1 X96.331 Y218.675 E191.7678
G1 X95.998 Y218.168 E191.79806
G1 X95.734 Y217.622 E191.82832
G1 X95.545 Y217.046 E191.85856
G1 X95.433 Y216.45 E191.88882
G1 X95.4 Y215.9 E191.91631
G1 X95.4 Y115.9 E196.90533
G1 X95.44 Y115.295 E196.93558
G1 X95.559 Y114.701 E196.9658
G1 X95.755 Y114.127 E196.99606
G1 X96.026 Y113.584 E197.02634
G1 X96.365 Y113.081 E197.0566
G1 X96.767 Y112.628 E197.08681
G0 F7500 X97.16 Y112.806
G1 F1500 X97.613 Y112.444 E197.11574
G1 X98.111 Y112.149 E197.14462
G1 X98.645 Y111.924 E197.17353
G1 X99.205 Y111.776 E197.20243
G1 X100 Y111.7 E197.24227
G1 X200 Y111.7 E202.23129
G1 X200.578 Y111.74 E202.2602
G1 X201.145 Y111.859 E202.2891
G1 X201.69 Y112.055 E202.318
G1 X202.203 Y112.324 E202.3469
G1 X202.674 Y112.661 E202.37579
G1 X203.094 Y113.06 E202.40469
G1 X203.456 Y113.513 E202.43362
G1 X203.751 Y114.011 E202.4625
G1 X203.976 Y114.545 E202.49141
G1 X204.124 Y115.105 E202.52031
G1 X204.2 Y115.9 E202.56015
G1 X204.2 Y215.9 E207.54917
G1 X204.16 Y216.478 E207.57808
G1 X204.041 Y217.045 E207.60698
G1 X203.845 Y217.59 E207.63588
G1 X203.576 Y218.103 E207.66477
G1 X203.239 Y218.574 E207.69367
G1 X202.84 Y218.994 E207.72257
G1 X202.387 Y219.356 E207.7515
G1 X201.889 Y219.651 E207.78038
G1 X201.355 Y219.876 E207.80929
G1 X200.795 Y220.024 E207.83818
G1 X200 Y220.1 E207.87803
G1 X100 Y220.1 E212.86705
G1 X99.422 Y220.06 E212.89595
G1 X98.855 Y219.941 E212.92486
G1 X98.31 Y219.745 E212.95375
G1 X97.797 Y219.476 E212.98265
G1 X97.326 Y219.139 E213.01155
G1 X96.906 Y218.74 E213.04045
G1 X96.544 Y218.287 E213.06938
G1 X96.249 Y217.789 E213.09825
G1 X96.024 Y217.255 E213.12716
G1 X95.876 Y216.695 E213.15606
G1 X95.8 Y215.9 E213.19591
G1 X95.8 Y115.9 E218.18493
G1 X95.84 Y115.322 E218.21383
G1 X95.959 Y114.755 E218.24274
G1 X96.155 Y114.21 E218.27163
G1 X96.424 Y113.697 E218.30053
G1 X96.761 Y113.226 E218.32942
G1 X97.16 Y112.806 E218.35833
G0 F7500 X97.552 Y112.994
G1 F1500 X97.998 Y112.67 E218.38583
G1 X98.486 Y112.415 E218.4133
G1 X99.006 Y112.232 E218.4408
G1 X99.547 Y112.127 E218.46829
G1 X100 Y112.1 E218.49093
G1 X200 Y112.1 E223.47996
G1 X200.55 Y112.14 E223.50747
G1 X201.088 Y112.259 E223.53496
G1 X201.603 Y112.455 E223.56245
G1 X202.084 Y112.723 E223.58992
G1 X202.522 Y113.057 E223.6174
G1 X202.906 Y113.452 E223.64488
G1 X203.23 Y113.898 E223.67239
G1 X203.485 Y114.386 E223.69986
G1 X203.668 Y114.906 E223.72736
G1 X203.773 Y115.447 E223.75485
G1 X203.8 Y115.9 E223.77749
G1 X203.8 Y215.9 E228.76651
G1 X203.76 Y216.45 E228.79403
G1 X203.641 Y216.988 E228.82152
G1 X203.445 Y217.503 E228.84901
G1 X203.177 Y217.984 E228.87648
G1 X202.843 Y218.422 E228.90396
G1 X202.448 Y218.806 E228.93144
G1 X202.002 Y219.13 E228.95894
G1 X201.514 Y219.385 E228.98641
G1 X200.994 Y219.568 E229.01392
G1 X200.453 Y219.673 E229.04141
G1 X200 Y219.7 E229.06405
G1 X100 Y219.7 E234.05307
G1 X99.45 Y219.66 E234.08058
G1 X98.912 Y219.541 E234.10807
G1 X98.397 Y219.345 E234.13556
G1 X97.916 Y219.077 E234.16304
G1 X97.478 Y218.743 E234.19052
G1 X97.094 Y218.348 E234.218
G1 X96.77 Y217.902 E234.2455
G1 X96.515 Y217.414 E234.27297
G1 X96.332 Y216.894 E234.30048
G1 X96.227 Y216.353 E234.32797
G1 X96.2 Y215.9 E234.35061
G1 X96.2 Y115.9 E239.33963
G1 X96.24 Y115.35 E239.36714
G1 X96.359 Y114.812 E239.39463
G1 X96.555 Y114.297 E239.42212
G1 X96.823 Y113.816 E239.44959
G1 X97.157 Y113.378 E239.47707
G1 X97.552 Y112.994 E239.50456
G0 F7500 X97.552 Y113.54
G1 F1500 X97.942 Y113.194 E239.53057
G1 X98.38 Y112.911 E239.55659
G1 X98.855 Y112.698 E239.58256
G1 X99.358 Y112.561 E239.60857
G1 X100 Y112.5 E239.64074
G1 X200 Y112.5 E244.62976
G1 X200.52 Y112.54 E244.65578
G1 X201.027 Y112.659 E244.68176
G1 X201.51 Y112.854 E244.70775
G1 X201.958 Y113.12 E244.73374
G1 X202.36 Y113.452 E244.75975
G1 X202.706 Y113.842 E244.78576
G1 X202.989 Y114.28 E244.81178
G1 X203.202 Y114.755 E244.83775
G1 X203.339 Y115.258 E244.86376
G1 X203.4 Y115.9 E244.89593
G1 X203.4 Y215.9 E249.88495
G1 X203.36 Y216.42 E249.91097
G1 X203.241 Y216.927 E249.93696
G1 X203.046 Y217.41 E249.96294
G1 X202.78 Y217.858 E249.98894
G1 X202.448 Y218.26 E250.01495
G1 X202.058 Y218.606 E250.04096
G1 X201.62 Y218.889 E250.06697
G1 X201.145 Y219.102 E250.09295
G1 X200.642 Y219.239 E250.11895
G1 X200 Y219.3 E250.15113
G1 X100 Y219.3 E255.14015
G1 X99.48 Y219.26 E255.16617
G1 X98.973 Y219.141 E255.19215
G1 X98.49 Y218.946 E255.21814
G1 X98.042 Y218.68 E255.24413
G1 X97.64 Y218.348 E255.27014
G1 X97.294 Y217.958 E255.29615
G1 X97.011 Y217.52 E255.32217
G1 X96.798 Y217.045 E255.34814
G1 X96.661 Y216.542 E255.37415
G1 X96.6 Y215.9 E255.40632
G1 X96.6 Y115.9 E260.39534
G1 X96.64 Y115.38 E260.42136
G1 X96.759 Y114.873 E260.44734
G1 X96.954 Y114.39 E260.47333
G1 X97.22 Y113.942 E260.49932
G1 X97.552 Y113.54 E260.52534
G0 F7500 X97.946 Y113.713
G1 F1500 X98.329 Y113.408 E260.54976
G1 X98.757 Y113.17 E260.57419
G1 X99.217 Y113.004 E260.59859
G1 X99.698 Y112.915 E260.623
G1 X100 Y112.9 E260.63808
G1 X200 Y112.9 E265.6271
G1 X200.488 Y112.94 E265.65153
G1 X200.963 Y113.059 E265.67596
G1 X201.412 Y113.253 E265.70036
G1 X201.824 Y113.518 E265.7248
G1 X202.187 Y113.846 E265.74921
G1 X202.492 Y114.229 E265.77364
G1 X202.73 Y114.657 E265.79807
G1 X202.896 Y115.117 E265.82247
G1 X202.985 Y115.598 E265.84687
G1 X203 Y115.9 E265.86196
G1 X203 Y215.9 E270.85098
G1 X202.96 Y216.388 E270.87541
G1 X202.841 Y216.863 E270.89984
G1 X202.647 Y217.312 E270.92424
G1 X202.382 Y217.724 E270.94868
G1 X202.054 Y218.087 E270.97309
G1 X201.671 Y218.392 E270.99751
G1 X201.243 Y218.63 E271.02195
G1 X200.783 Y218.796 E271.04634
G1 X200.302 Y218.885 E271.07075
G1 X200 Y218.9 E271.08583
G1 X100 Y218.9 E276.07485
G1 X99.512 Y218.86 E276.09928
G1 X99.037 Y218.741 E276.12371
G1 X98.588 Y218.547 E276.14811
G1 X98.176 Y218.282 E276.17255
G1 X97.813 Y217.954 E276.19696
G1 X97.508 Y217.571 E276.22139
G1 X97.27 Y217.143 E276.24582
G1 X97.104 Y216.683 E276.27022
G1 X97.015 Y216.202 E276.29462
G1 X97 Y215.9 E276.30971
G1 X97 Y115.9 E281.29873
G1 X97.04 Y115.412 E281.32316
G1 X97.159 Y114.937 E281.34759
G1 X97.353 Y114.488 E281.37199
G1 X97.618 Y114.076 E281.39643
G1 X97.946 Y113.713 E281.42084
G0 F7500 X98.338 Y113.9
G1 F1500 X98.713 Y113.641 E281.44357
G1 X99.127 Y113.451 E281.4663
G1 X99.568 Y113.336 E281.48904
G1 X100 Y113.3 E281.51067
G1 X200 Y113.3 E286.49969
G1 X200.454 Y113.34 E286.52242
G1 X200.894 Y113.458 E286.54515
G1 X201.306 Y113.652 E286.56787
G1 X201.679 Y113.915 E286.59064
G1 X202 Y114.238 E286.61336
G1 X202.259 Y114.613 E286.6361
G1 X202.449 Y115.027 E286.65882
G1 X202.564 Y115.468 E286.68156
G1 X202.6 Y115.9 E286.70319
G1 X202.6 Y215.9 E291.69221
G1 X202.56 Y216.354 E291.71494
G1 X202.442 Y216.794 E291.73767
G1 X202.248 Y217.206 E291.76039
G1 X201.985 Y217.579 E291.78316
G1 X201.662 Y217.9 E291.80588
G1 X201.287 Y218.159 E291.82862
G1 X200.873 Y218.349 E291.85134
G1 X200.432 Y218.464 E291.87408
G1 X200 Y218.5 E291.89571
G1 X100 Y218.5 E296.88473
G1 X99.546 Y218.46 E296.90747
G1 X99.106 Y218.342 E296.93019
G1 X98.694 Y218.148 E296.95291
G1 X98.321 Y217.885 E296.97568
G1 X98 Y217.562 E296.9984
G1 X97.741 Y217.187 E297.02114
G1 X97.551 Y216.773 E297.04387
G1 X97.436 Y216.332 E297.0666
G1 X97.4 Y215.9 E297.08823
G1 X97.4 Y115.9 E302.07725
G1 X97.44 Y115.446 E302.09999
G1 X97.558 Y115.006 E302.12272
G1 X97.752 Y114.594 E302.14543
G1 X98.015 Y114.221 E302.1682
G1 X98.338 Y113.9 E302.19092
G0 F7500 X98.41 Y114.38
G1 F1500 X98.727 Y114.106 E302.21183
G1 X99.09 Y113.897 E302.23272
G1 X99.487 Y113.761 E302.25366
G1 X100 Y113.7 E302.27944
G1 X200 Y113.7 E307.26846
G1 X200.417 Y113.74 E307.28936
G1 X200.819 Y113.858 E307.31026
G1 X201.191 Y114.051 E307.33117
G1 X201.52 Y114.31 E307.35206
G1 X201.794 Y114.627 E307.37296
G1 X202.003 Y114.99 E307.39386
G1 X202.139 Y115.387 E307.41479
G1 X202.2 Y115.9 E307.44057
G1 X202.2 Y215.9 E312.42959
G1 X202.16 Y216.317 E312.45049
G1 X202.042 Y216.719 E312.47139
G1 X201.849 Y217.091 E312.4923
G1 X201.59 Y217.42 E312.51319
G1 X201.273 Y217.694 E312.53409
G1 X200.91 Y217.903 E312.55499
G1 X200.513 Y218.039 E312.57593
G1 X200 Y218.1 E312.6017
G1 X100 Y218.1 E317.59072
G1 X99.583 Y218.06 E317.61162
G1 X99.181 Y217.942 E317.63252
G1 X98.809 Y217.749 E317.65343
G1 X98.48 Y217.49 E317.67432
G1 X98.206 Y217.173 E317.69522
G1 X97.997 Y216.81 E317.71612
G1 X97.861 Y216.413 E317.73706
G1 X97.8 Y215.9 E317.76283
G1 X97.8 Y115.9 E322.75185
G1 X97.84 Y115.483 E322.77275
G1 X97.958 Y115.081 E322.79365
G1 X98.151 Y114.709 E322.81456
G1 X98.41 Y114.38 E322.83545
G0 F7500 X98.803 Y114.555
G1 F1500 X99.112 Y114.335 E322.85438
G1 X99.459 Y114.183 E322.87328
G1 X100 Y114.1 E322.90058
G1 X200 Y114.1 E327.8896
G1 X200.377 Y114.14 E327.90852
G1 X200.737 Y114.258 E327.92742
G1 X201.064 Y114.448 E327.94629
G1 X201.345 Y114.703 E327.96522
G1 X201.565 Y115.012 E327.98414
G1 X201.717 Y115.359 E328.00304
G1 X201.8 Y115.9 E328.03035
G1 X201.8 Y215.9 E333.01937
G1 X201.76 Y216.277 E333.03828
G1 X201.642 Y216.637 E333.05718
G1 X201.452 Y216.964 E333.07605
G1 X201.197 Y217.245 E333.09498
G1 X200.888 Y217.465 E333.11391
G1 X200.541 Y217.617 E333.13281
G1 X200 Y217.7 E333.16011
G1 X100 Y217.7 E338.14913
G1 X99.623 Y217.66 E338.16805
G1 X99.263 Y217.542 E338.18695
G1 X98.936 Y217.352 E338.20581
G1 X98.655 Y217.097 E338.22475
G1 X98.435 Y216.788 E338.24367
G1 X98.283 Y216.441 E338.26257
G1 X98.2 Y215.9 E338.28988
G1 X98.2 Y115.9 E343.2789
G1 X98.24 Y115.523 E343.29781
G1 X98.358 Y115.163 E343.31671
G1 X98.548 Y114.836 E343.33558
G1 X98.803 Y114.555 E343.35451
G0 F7500 X98.945 Y114.979
G1 F1500 X99.193 Y114.756 E343.37115
G1 X99.487 Y114.597 E343.38783
G1 X99.811 Y114.513 E343.40452
G1 X100 Y114.5 E343.41398
G1 X200 Y114.5 E348.403
G1 X200.332 Y114.54 E348.41968
G1 X200.644 Y114.657 E348.4363
G1 X200.921 Y114.845 E348.45301
G1 X201.144 Y115.093 E348.46964
G1 X201.303 Y115.387 E348.48632
G1 X201.387 Y115.711 E348.50302
G1 X201.4 Y115.9 E348.51247
G1 X201.4 Y215.9 E353.50149
G1 X201.36 Y216.232 E353.51817
G1 X201.243 Y216.544 E353.5348
G1 X201.055 Y216.821 E353.5515
G1 X200.807 Y217.044 E353.56814
G1 X200.513 Y217.203 E353.58481
G1 X200.189 Y217.287 E353.60151
G1 X200 Y217.3 E353.61096
G1 X100 Y217.3 E358.59998
G1 X99.668 Y217.26 E358.61667
G1 X99.356 Y217.143 E358.63329
G1 X99.079 Y216.955 E358.64999
G1 X98.856 Y216.707 E358.66663
G1 X98.697 Y216.413 E358.68331
G1 X98.613 Y216.089 E358.70001
G1 X98.6 Y215.9 E358.70946
G1 X98.6 Y115.9 E363.69848
G1 X98.64 Y115.568 E363.71516
G1 X98.757 Y115.256 E363.73179
G1 X98.945 Y114.979 E363.74849
G0 F7500 X99.339 Y115.149
G1 F1500 X99.575 Y114.995 E363.76255
G1 X99.845 Y114.912 E363.77664
G1 X100 Y114.9 E363.7844
G1 X200 Y114.9 E368.77342
G1 X200.279 Y114.94 E368.78748
G1 X200.536 Y115.056 E368.80155
G1 X200.751 Y115.239 E368.81563
G1 X200.905 Y115.475 E368.82969
G1 X200.988 Y115.745 E368.84378
G1 X201 Y115.9 E368.85154
G1 X201 Y215.9 E373.84056
G1 X200.96 Y216.179 E373.85462
G1 X200.844 Y216.436 E373.86869
G1 X200.661 Y216.651 E373.88277
G1 X200.425 Y216.805 E373.89683
G1 X200.155 Y216.888 E373.91093
G1 X200 Y216.9 E373.91868
G1 X100 Y216.9 E378.9077
G1 X99.721 Y216.86 E378.92176
G1 X99.464 Y216.744 E378.93583
G1 X99.249 Y216.561 E378.94992
G1 X99.095 Y216.325 E378.96398
G1 X99.012 Y216.055 E378.97807
G1 X99 Y215.9 E378.98583
G1 X99 Y115.9 E383.97485
G1 X99.04 Y115.621 E383.98891
G1 X99.156 Y115.364 E384.00297
G1 X99.339 Y115.149 E384.01706
G0 F7500 X99.553 Y115.499
G1 F1500 X99.726 Y115.366 E384.02795
G1 X100 Y115.3 E384.04201
G1 X200 Y115.3 E389.03103
G1 X200.215 Y115.34 E389.04194
G1 X200.401 Y115.453 E389.0528
G1 X200.534 Y115.626 E389.06368
G1 X200.6 Y115.9 E389.07774
G1 X200.6 Y215.9 E394.06676
G1 X200.56 Y216.115 E394.07768
G1 X200.447 Y216.301 E394.08853
G1 X200.274 Y216.434 E394.09942
G1 X200 Y216.5 E394.11348
G1 X100 Y216.5 E399.1025
G1 X99.785 Y216.46 E399.11341
G1 X99.599 Y216.347 E399.12427
G1 X99.466 Y216.174 E399.13516
G1 X99.4 Y215.9 E399.14922
G1 X99.4 Y115.9 E404.13824
G1 X99.44 Y115.685 E404.14915
G1 X99.553 Y115.499 E404.16001
G0 F7500 X99.839 Y115.781
G1 F1500 X100 Y115.7 E404.169
G1 X200 Y115.7 E409.15802
G1 X200.119 Y115.739 E409.16426
G1 X200.2 Y115.9 E409.17326
G1 X200.2 Y215.9 E414.16228
G1 X200.161 Y216.019 E414.16852
G1 X200 Y216.1 E414.17752
G1 X100 Y216.1 E419.16654
G1 X99.881 Y216.061 E419.17278
G1 X99.8 Y215.9 E419.18178
G1 X99.8 Y115.9 E424.1708
G1 X99.839 Y115.781 E424.17704
G1 F1500 E417.67704
;MESH:PrinterTest.stl
G0 F7500 X100.81 Y116.71
G0 X100.782 Y215.118
G0 X199.5 Y215.43
G1 F1500 E424.17704
G0 F7500 X199.8 Y215.7
;TYPE:WALL-OUTER
G1 F1500 X100.2 Y215.7 E429.14611
G1 X100.2 Y116.1 E434.11517
G1 X199.8 Y116.1 E439.08424
G1 X199.8 Y215.7 E444.0533
G0 F7500 X199.6 Y215.7
G0 X199.36 Y215.26
G0 X199.4 Y215.3
;TYPE:WALL-INNER
G1 F1500 X100.6 Y215.3 E448.98245
G1 X100.6 Y116.5 E453.9116
G1 X199.4 Y116.5 E458.84076
G1 X199.4 Y215.3 E463.76991
G0 F7500 X199.01 Y214.91
;TYPE:SKIN
G1 F1500 X100.99 Y214.91 E468.66015
G1 X100.99 Y116.89 E473.55038
G1 X199.01 Y116.89 E478.44062
G1 X199.01 Y214.91 E483.33086
G1 F1500 E476.83086
G0 F7500 X199.29 Y214.91
G0 X199.29 Y117.391
G1 F1500 E483.33086
G0 F7500 X198.85 Y117.391
G1 F1500 X198.508 Y117.05 E483.35495
G0 F7500 X197.943 Y117.05
G1 F1500 X198.85 Y117.957 E483.41895
G0 F7500 X198.85 Y118.523
G1 F1500 X197.377 Y117.05 E483.52288
G0 F7500 X196.811 Y117.05
G1 F1500 X198.85 Y119.088 E483.6667
G0 F7500 X198.85 Y119.654
G1 F1500 X196.246 Y117.05 E483.85043
G0 F7500 X195.68 Y117.05
G1 F1500 X198.85 Y120.22 E484.07409
G0 F7500 X198.85 Y120.785
G1 F1500 X195.114 Y117.05 E484.33765
G0 F7500 X194.549 Y117.05
G1 F1500 X198.85 Y121.351 E484.64111
G0 F7500 X198.85 Y121.917
G1 F1500 X193.983 Y117.05 E484.9845
G0 F7500 X193.417 Y117.05
G1 F1500 X198.85 Y122.482 E485.36779
G0 F7500 X198.85 Y123.048
G1 F1500 X192.852 Y117.05 E485.79098
G0 F7500 X192.286 Y117.05
G1 F1500 X198.85 Y123.614 E486.25411
G0 F7500 X198.85 Y124.179
G1 F1500 X191.72 Y117.05 E486.75713
G0 F7500 X191.155 Y117.05
G1 F1500 X198.85 Y124.745 E487.30006
G0 F7500 X198.85 Y125.311
G1 F1500 X190.589 Y117.05 E487.88292
G0 F7500 X190.023 Y117.05
G1 F1500 X198.85 Y125.877 E488.50571
G0 F7500 X198.85 Y126.442
G1 F1500 X189.457 Y117.05 E489.1684
G0 F7500 X188.892 Y117.05
G1 F1500 X198.85 Y127.008 E489.87099
G0 F7500 X198.85 Y127.574
G1 F1500 X188.326 Y117.05 E490.61352
G0 F7500 X187.76 Y117.05
G1 F1500 X198.85 Y128.139 E491.39594
G0 F7500 X198.85 Y128.705
G1 F1500 X187.195 Y117.05 E492.21826
G0 F7500 X186.629 Y117.05
G1 F1500 X198.85 Y129.271 E493.08052
G0 F7500 X198.85 Y129.836
G1 F1500 X186.063 Y117.05 E493.98268
G0 F7500 X185.498 Y117.05
G1 F1500 X198.85 Y130.402 E494.92473
G0 F7500 X198.85 Y130.968
G1 F1500 X184.932 Y117.05 E495.90672
G0 F7500 X184.366 Y117.05
G1 F1500 X198.85 Y131.533 E496.92861
G0 F7500 X198.85 Y132.099
G1 F1500 X183.801 Y117.05 E497.9904
G0 F7500 X183.235 Y117.05
G1 F1500 X198.85 Y132.665 E499.09212
G0 F7500 X198.85 Y133.23
G1 F1500 X182.669 Y117.05 E500.23375
G0 F7500 X182.104 Y117.05
G1 F1500 X198.85 Y133.796 E501.41527
G0 F7500 X198.85 Y134.362
G1 F1500 X181.538 Y117.05 E502.63672
G0 F7500 X180.972 Y117.05
G1 F1500 X198.85 Y134.927 E503.89808
G0 F7500 X198.85 Y135.493
G1 F1500 X180.406 Y117.05 E505.19936
G0 F7500 X179.841 Y117.05
G1 F1500 X198.85 Y136.059 E506.54055
G0 F7500 X198.85 Y136.625
G1 F1500 X179.275 Y117.05 E507.92167
G0 F7500 X178.709 Y117.05
G1 F1500 X198.85 Y137.19 E509.34269
G0 F7500 X198.85 Y137.756
G1 F1500 X178.144 Y117.05 E510.80362
G0 F7500 X177.578 Y117.05
G1 F1500 X198.85 Y138.322 E512.30447
G0 F7500 X198.85 Y138.887
G1 F1500 X177.012 Y117.05 E513.84522
G0 F7500 X176.447 Y117.05
G1 F1500 X198.85 Y139.453 E515.42588
G0 F7500 X198.85 Y140.019
G1 F1500 X175.881 Y117.05 E517.04646
G0 F7500 X175.315 Y117.05
G1 F1500 X198.85 Y140.584 E518.70695
G0 F7500 X198.85 Y141.15
G1 F1500 X174.75 Y117.05 E520.40733
G0 F7500 X174.184 Y117.05
G1 F1500 X198.85 Y141.716 E522.14765
G0 F7500 X198.85 Y142.281
G1 F1500 X173.618 Y117.05 E523.92787
G0 F7500 X173.053 Y117.05
G1 F1500 X198.85 Y142.847 E525.74799
G0 F7500 X198.85 Y143.413
G1 F1500 X172.487 Y117.05 E527.60804
G0 F7500 X171.921 Y117.05
G1 F1500 X198.85 Y143.978 E529.50799
G0 F7500 X198.85 Y144.544
G1 F1500 X171.356 Y117.05 E531.44784
G0 F7500 X170.79 Y117.05
G1 F1500 X198.85 Y145.11 E533.42763
G0 F7500 X198.85 Y145.676
G1 F1500 X170.224 Y117.05 E535.44735
G0 F7500 X169.658 Y117.05
G1 F1500 X198.85 Y146.241 E537.50696
G0 F7500 X198.85 Y146.807
G1 F1500 X169.093 Y117.05 E539.60648
G0 F7500 X168.527 Y117.05
G1 F1500 X198.85 Y147.373 E541.74593
G0 F7500 X198.85 Y147.938
G1 F1500 X167.961 Y117.05 E543.92528
G0 F7500 X167.396 Y117.05
G1 F1500 X198.85 Y148.504 E546.14453
G0 F7500 X198.85 Y149.07
G1 F1500 X166.83 Y117.05 E548.40372
G0 F7500 X166.264 Y117.05
G1 F1500 X198.85 Y149.635 E550.7028
G0 F7500 X198.85 Y150.201
G1 F1500 X165.699 Y117.05 E553.04178
G0 F7500 X165.133 Y117.05
G1 F1500 X198.85 Y150.767 E555.4207
G0 F7500 X198.85 Y151.332
G1 F1500 X164.567 Y117.05 E557.83951
G0 F7500 X164.002 Y117.05
G1 F1500 X198.85 Y151.898 E560.29823
G0 F7500 X198.85 Y152.464
G1 F1500 X163.436 Y117.05 E562.79688
G0 F7500 X162.87 Y117.05
G1 F1500 X198.85 Y153.029 E565.33543
G0 F7500 X198.85 Y153.595
G1 F1500 X162.305 Y117.05 E567.91387
G0 F7500 X161.739 Y117.05
G1 F1500 X198.85 Y154.161 E570.53225
G0 F7500 X198.85 Y154.726
G1 F1500 X161.173 Y117.05 E573.19054
G0 F7500 X160.607 Y117.05
G1 F1500 X198.85 Y155.292 E575.88875
G0 F7500 X198.85 Y155.858
G1 F1500 X160.042 Y117.05 E578.62686
G0 F7500 X159.476 Y117.05
G1 F1500 X198.85 Y156.424 E581.40491
G0 F7500 X198.85 Y156.989
G1 F1500 X158.91 Y117.05 E584.22286
G0 F7500 X158.345 Y117.05
G1 F1500 X198.85 Y157.555 E587.08071
G0 F7500 X198.85 Y158.121
G1 F1500 X157.779 Y117.05 E589.97849
G0 F7500 X157.213 Y117.05
G1 F1500 X198.85 Y158.686 E592.91617
G0 F7500 X198.85 Y159.252
G1 F1500 X156.648 Y117.05 E595.89375
G0 F7500 X156.082 Y117.05
G1 F1500 X198.85 Y159.818 E598.91126
G0 F7500 X198.85 Y160.383
G1 F1500 X155.516 Y117.05 E601.96867
G0 F7500 X154.951 Y117.05
G1 F1500 X198.85 Y160.949 E605.06598
G0 F7500 X198.85 Y161.515
G1 F1500 X154.385 Y117.05 E608.20323
G0 F7500 X153.819 Y117.05
G1 F1500 X198.85 Y162.08 E611.38037
G0 F7500 X198.85 Y162.646
G1 F1500 X153.254 Y117.05 E614.59742
G0 F7500 X152.688 Y117.05
G1 F1500 X198.85 Y163.212 E617.8544
G0 F7500 X198.85 Y163.777
G1 F1500 X152.122 Y117.05 E621.15127
G0 F7500 X151.557 Y117.05
G1 F1500 X198.85 Y164.343 E624.48805
G0 F7500 X198.85 Y164.909
G1 F1500 X150.991 Y117.05 E627.86476
G0 F7500 X150.425 Y117.05
G1 F1500 X198.85 Y165.475 E631.28141
G0 F7500 X198.85 Y166.04
G1 F1500 X149.859 Y117.049 E634.73799
G0 F7500 X149.293 Y117.049
G1 F1500 X198.85 Y166.606 E638.2345
G0 F7500 X198.85 Y167.172
G1 F1500 X148.727 Y117.049 E641.77095
G0 F7500 X148.162 Y117.049
G1 F1500 X198.85 Y167.737 E645.34726
G0 F7500 X198.85 Y168.303
G1 F1500 X147.596 Y117.049 E648.96351
G0 F7500 X147.03 Y117.049
G1 F1500 X198.85 Y168.869 E652.61969
G0 F7500 X198.85 Y169.434
G1 F1500 X146.465 Y117.049 E656.31573
G0 F7500 X145.899 Y117.049
G1 F1500 X198.85 Y170 E660.05171
G0 F7500 X198.85 Y170.566
G1 F1500 X145.333 Y117.049 E663.82763
G0 F7500 X144.768 Y117.049
G1 F1500 X198.85 Y171.131 E667.6434
G0 F7500 X198.85 Y171.697
G1 F1500 X144.202 Y117.049 E671.49911
G0 F7500 X143.636 Y117.049
G1 F1500 X198.85 Y172.263 E675.39476
G0 F7500 X198.85 Y172.828
G1 F1500 X143.071 Y117.049 E679.33027
G0 F7500 X142.505 Y117.049
G1 F1500 X198.85 Y173.394 E683.30571
G0 F7500 X198.85 Y173.96
G1 F1500 X141.939 Y117.049 E687.32109
G0 F7500 X141.373 Y117.049
G1 F1500 X198.85 Y174.525 E691.37637
G0 F7500 X198.85 Y175.091
G1 F1500 X140.808 Y117.049 E695.47155
G0 F7500 X140.242 Y117.049
G1 F1500 X198.85 Y175.657 E699.60666
G0 F7500 X198.85 Y176.223
G1 F1500 X139.676 Y117.049 E703.7817
G0 F7500 X139.111 Y117.049
G1 F1500 X198.85 Y176.788 E707.99661
G0 F7500 X198.85 Y177.354
G1 F1500 X138.545 Y117.049 E712.25146
G0 F7500 X137.979 Y117.049
G1 F1500 X198.85 Y177.92 E716.54623
G0 F7500 X198.85 Y178.485
G1 F1500 X137.414 Y117.049 E720.88088
G0 F7500 X136.848 Y117.049
G1 F1500 X198.85 Y179.051 E725.25545
G0 F7500 X198.85 Y179.617
G1 F1500 X136.282 Y117.049 E729.66996
G0 F7500 X135.717 Y117.049
G1 F1500 X198.85 Y180.182 E734.12434
G0 F7500 X198.85 Y180.748
G1 F1500 X135.151 Y117.049 E738.61864
G0 F7500 X134.585 Y117.049
G1 F1500 X198.85 Y181.314 E743.15289
G0 F7500 X198.85 Y181.879
G1 F1500 X134.02 Y117.049 E747.72699
G0 F7500 X133.454 Y117.049
G1 F1500 X198.85 Y182.445 E752.34103
G0 F7500 X198.85 Y183.011
G1 F1500 X132.888 Y117.049 E756.99501
G0 F7500 X132.323 Y117.049
G1 F1500 X198.85 Y183.576 E761.68885
G0 F7500 X198.85 Y184.142
G1 F1500 X131.757 Y117.049 E766.42262
G0 F7500 X131.191 Y117.049
G1 F1500 X198.85 Y184.708 E771.19633
G0 F7500 X198.85 Y185.273
G1 F1500 X130.625 Y117.049 E776.00994
G0 F7500 X130.06 Y117.049
G1 F1500 X198.85 Y185.839 E780.86344
G0 F7500 X198.85 Y186.405
G1 F1500 X129.494 Y117.049 E785.75688
G0 F7500 X128.928 Y117.049
G1 F1500 X198.85 Y186.971 E790.69026
G0 F7500 X198.85 Y187.536
G1 F1500 X128.363 Y117.049 E795.6635
G0 F7500 X127.797 Y117.049
G1 F1500 X198.85 Y188.102 E800.67667
G0 F7500 X198.85 Y188.668
G1 F1500 X127.231 Y117.049 E805.72978
G0 F7500 X126.666 Y117.049
G1 F1500 X198.85 Y189.233 E810.82275
G0 F7500 X198.85 Y189.799
G1 F1500 X126.1 Y117.049 E815.95565
G0 F7500 X125.534 Y117.049
G1 F1500 X198.85 Y190.365 E821.12849
G0 F7500 X198.85 Y190.93
G1 F1500 X124.969 Y117.049 E826.3412
G0 F7500 X124.403 Y117.049
G1 F1500 X198.85 Y191.496 E831.59384
G0 F7500 X198.85 Y192.062
G1 F1500 X123.837 Y117.049 E836.88641
G0 F7500 X123.272 Y117.049
G1 F1500 X198.85 Y192.627 E842.21884
G0 F7500 X198.85 Y193.193
G1 F1500 X122.706 Y117.049 E847.59121
G0 F7500 X122.14 Y117.049
G1 F1500 X198.85 Y193.759 E853.00352
G0 F7500 X198.85 Y194.324
G1 F1500 X121.574 Y117.049 E858.45572
G0 F7500 X121.009 Y117.049
G1 F1500 X198.85 Y194.89 E863.94783
G0 F7500 X198.85 Y195.456
G1 F1500 X120.443 Y117.049 E869.47986
G0 F7500 X119.877 Y117.049
G1 F1500 X198.85 Y196.022 E875.05184
G0 F7500 X198.85 Y196.587
G1 F1500 X119.312 Y117.049 E880.66367
G0 F7500 X118.746 Y117.049
G1 F1500 X198.85 Y197.153 E886.31544
G0 F7500 X198.85 Y197.719
G1 F1500 X118.18 Y117.049 E892.00714
G0 F7500 X117.615 Y117.049
G1 F1500 X198.85 Y198.284 E897.73871
G0 F7500 X198.85 Y198.85
G1 F1500 X117.049 Y117.049 E903.51022
G0 F7500 X116.483 Y117.049
G1 F1500 X198.85 Y199.416 E909.32165
G0 F7500 X198.85 Y199.981
G1 F1500 X115.918 Y117.049 E915.17295
G0 F7500 X115.352 Y117.049
G1 F1500 X198.85 Y200.547 E921.06419
G0 F7500 X198.85 Y201.113
G1 F1500 X114.786 Y117.049 E926.99536
G0 F7500 X114.221 Y117.049
G1 F1500 X198.85 Y201.678 E932.96639
G0 F7500 X198.85 Y202.244
G1 F1500 X113.655 Y117.049 E938.97736
G0 F7500 X113.089 Y117.049
G1 F1500 X198.85 Y202.81 E945.02826
G0 F7500 X198.85 Y203.375
G1 F1500 X112.524 Y117.049 E951.11902
G0 F7500 X111.958 Y117.049
G1 F1500 X198.85 Y203.941 E957.24972
G0 F7500 X198.85 Y204.507
G1 F1500 X111.392 Y117.049 E963.42036
G0 F7500 X110.826 Y117.049
G1 F1500 X198.85 Y205.072 E969.63089
G0 F7500 X198.85 Y205.638
G1 F1500 X110.261 Y117.049 E975.88132
G0 F7500 X109.695 Y117.049
G1 F1500 X198.85 Y206.204 E982.17169
G0 F7500 X198.85 Y206.77
G1 F1500 X109.129 Y117.049 E988.50199
G0 F7500 X108.564 Y117.049
G1 F1500 X198.85 Y207.335 E994.87216
G0 F7500 X198.85 Y207.901
G1 F1500 X107.998 Y117.049 E1001.28226
G0 F7500 X107.432 Y117.049
G1 F1500 X198.85 Y208.467 E1007.73229
G0 F7500 X198.85 Y209.032
G1 F1500 X106.867 Y117.049 E1014.22219
G0 F7500 X106.301 Y117.049
G1 F1500 X198.85 Y209.598 E1020.75202
G0 F7500 X198.85 Y210.164
G1 F1500 X105.735 Y117.049 E1027.32179
G0 F7500 X105.17 Y117.049
G1 F1500 X198.85 Y210.729 E1033.93142
G0 F7500 X198.85 Y211.295
G1 F1500 X104.604 Y117.049 E1040.58098
G0 F7500 X104.038 Y117.049
G1 F1500 X198.85 Y211.861 E1047.27048
G0 F7500 X198.85 Y212.426
G1 F1500 X103.473 Y117.049 E1053.99984
G0 F7500 X102.907 Y117.049
G1 F1500 X198.85 Y212.992 E1060.76914
G0 F7500 X198.85 Y213.558
G1 F1500 X102.341 Y117.049 E1067.57837
G0 F7500 X101.776 Y117.049
G1 F1500 X198.85 Y214.123 E1074.42746
G0 F7500 X198.85 Y214.689
G1 F1500 X101.21 Y117.049 E1081.31649
G0 F7500 X101.15 Y117.555
G1 F1500 X198.344 Y214.749 E1088.17406
G0 F7500 X197.778 Y214.749
G1 F1500 X101.15 Y118.12 E1094.99172
G0 F7500 X101.15 Y118.686
G1 F1500 X197.212 Y214.749 E1101.76945
G0 F7500 X196.647 Y214.749
G1 F1500 X101.15 Y119.252 E1108.50727
G0 F7500 X101.15 Y119.817
G1 F1500 X196.081 Y214.749 E1115.20521
G0 F7500 X195.515 Y214.749
G1 F1500 X101.15 Y120.383 E1121.8632
G0 F7500 X101.15 Y120.949
G1 F1500 X194.95 Y214.749 E1128.4813
G0 F7500 X194.384 Y214.749
G1 F1500 X101.15 Y121.514 E1135.05949
G0 F7500 X101.15 Y122.08
G1 F1500 X193.818 Y214.749 E1141.59776
G0 F7500 X193.252 Y214.749
G1 F1500 X101.15 Y122.646 E1148.09609
G0 F7500 X101.15 Y123.211
G1 F1500 X192.687 Y214.749 E1154.55455
G0 F7500 X192.121 Y214.749
G1 F1500 X101.15 Y123.777 E1160.97308
G0 F7500 X101.15 Y124.343
G1 F1500 X191.555 Y214.749 E1167.35168
G0 F7500 X190.99 Y214.749
G1 F1500 X101.15 Y124.908 E1173.69041
G0 F7500 X101.15 Y125.474
G1 F1500 X190.424 Y214.749 E1179.98921
G0 F7500 X189.858 Y214.749
G1 F1500 X101.15 Y126.04 E1186.24807
G0 F7500 X101.15 Y126.606
G1 F1500 X189.293 Y214.749 E1192.46704
G0 F7500 X188.727 Y214.749
G1 F1500 X101.15 Y127.171 E1198.6461
G0 F7500 X101.15 Y127.737
G1 F1500 X188.161 Y214.749 E1204.78524
G0 F7500 X187.596 Y214.749
G1 F1500 X101.15 Y128.303 E1210.88447
G0 F7500 X101.15 Y128.868
G1 F1500 X187.03 Y214.749 E1216.9438
G0 F7500 X186.464 Y214.749
G1 F1500 X101.15 Y129.434 E1222.9632
G0 F7500 X101.15 Y130
G1 F1500 X185.899 Y214.749 E1228.9427
G0 F7500 X185.333 Y214.749
G1 F1500 X101.15 Y130.565 E1234.8823
G0 F7500 X101.15 Y131.131
G1 F1500 X184.767 Y214.749 E1240.78197
G0 F7500 X184.202 Y214.749
G1 F1500 X101.15 Y131.697 E1246.64173
G0 F7500 X101.15 Y132.262
G1 F1500 X183.636 Y214.749 E1252.4616
G0 F7500 X183.07 Y214.749
G1 F1500 X101.15 Y132.828 E1258.24153
G0 F7500 X101.15 Y133.394
G1 F1500 X182.504 Y214.749 E1263.98153
G0 F7500 X181.939 Y214.749
G1 F1500 X101.15 Y133.959 E1269.68167
G0 F7500 X101.15 Y134.525
G1 F1500 X181.373 Y214.749 E1275.34187
G0 F7500 X180.807 Y214.749
G1 F1500 X101.15 Y135.091 E1280.96214
G0 F7500 X101.15 Y135.657
G1 F1500 X180.242 Y214.749 E1286.54251
G0 F7500 X179.676 Y214.749
G1 F1500 X101.15 Y136.222 E1292.08297
G0 F7500 X101.15 Y136.788
G1 F1500 X179.11 Y214.749 E1297.58351
G0 F7500 X178.545 Y214.749
G1 F1500 X101.15 Y137.354 E1303.04414
G0 F7500 X101.15 Y137.919
G1 F1500 X177.979 Y214.749 E1308.46488
G0 F7500 X177.413 Y214.749
G1 F1500 X101.15 Y138.485 E1313.84568
G0 F7500 X101.15 Y139.051
G1 F1500 X176.848 Y214.749 E1319.18658
G0 F7500 X176.282 Y214.749
G1 F1500 X101.15 Y139.616 E1324.48759
G0 F7500 X101.15 Y140.182
G1 F1500 X175.716 Y214.749 E1329.74866
G0 F7500 X175.151 Y214.749
G1 F1500 X101.15 Y140.748 E1334.96983
G0 F7500 X101.15 Y141.313
G1 F1500 X174.585 Y214.749 E1340.1511
G0 F7500 X174.019 Y214.749
G1 F1500 X101.15 Y141.879 E1345.29244
G0 F7500 X101.15 Y142.445
G1 F1500 X173.454 Y214.749 E1350.39387
G0 F7500 X172.888 Y214.749
G1 F1500 X101.15 Y143.01 E1355.45541
G0 F7500 X101.15 Y143.576
G1 F1500 X172.322 Y214.749 E1360.47702
G0 F7500 X171.756 Y214.749
G1 F1500 X101.15 Y144.142 E1365.45869
G0 F7500 X101.15 Y144.707
G1 F1500 X171.191 Y214.749 E1370.40049
G0 F7500 X170.625 Y214.749
G1 F1500 X101.15 Y145.273 E1375.30236
G0 F7500 X101.15 Y145.839
G1 F1500 X170.059 Y214.749 E1380.1643
G0 F7500 X169.494 Y214.749
G1 F1500 X101.15 Y146.405 E1384.98634
G0 F7500 X101.15 Y146.97
G1 F1500 X168.928 Y214.749 E1389.76848
G0 F7500 X168.362 Y214.749
G1 F1500 X101.15 Y147.536 E1394.51068
G0 F7500 X101.15 Y148.102
G1 F1500 X167.797 Y214.749 E1399.21299
G0 F7500 X167.231 Y214.749
G1 F1500 X101.15 Y148.667 E1403.8754
G0 F7500 X101.15 Y149.233
G1 F1500 X166.665 Y214.749 E1408.49787
G0 F7500 X166.1 Y214.749
G1 F1500 X101.15 Y149.799 E1413.08044
G0 F7500 X101.15 Y150.364
G1 F1500 X165.534 Y214.749 E1417.62312
G0 F7500 X164.968 Y214.749
G1 F1500 X101.15 Y150.93 E1422.12586
G0 F7500 X101.15 Y151.496
G1 F1500 X164.403 Y214.749 E1426.5887
G0 F7500 X163.837 Y214.749
G1 F1500 X101.15 Y152.061 E1431.01164
G0 F7500 X101.15 Y152.627
G1 F1500 X163.271 Y214.749 E1435.39465
G0 F7500 X162.705 Y214.749
G1 F1500 X101.15 Y153.193 E1439.73772
G0 F7500 X101.15 Y153.758
G1 F1500 X162.14 Y214.749 E1444.04093
G0 F7500 X161.574 Y214.749
G1 F1500 X101.15 Y154.324 E1448.3042
G0 F7500 X101.15 Y154.89
G1 F1500 X161.008 Y214.749 E1452.52754
G0 F7500 X160.443 Y214.749
G1 F1500 X101.15 Y155.456 E1456.71099
G0 F7500 X101.15 Y156.021
G1 F1500 X159.877 Y214.749 E1460.85453
G0 F7500 X159.311 Y214.749
G1 F1500 X101.15 Y156.587 E1464.95814
G0 F7500 X101.15 Y157.153
G1 F1500 X158.746 Y214.749 E1469.02184
G0 F7500 X158.18 Y214.749
G1 F1500 X101.15 Y157.718 E1473.04565
G0 F7500 X101.15 Y158.284
G1 F1500 X157.614 Y214.749 E1477.02953
G0 F7500 X157.049 Y214.749
G1 F1500 X101.15 Y158.85 E1480.97351
G0 F7500 X101.15 Y159.415
G1 F1500 X156.483 Y214.749 E1484.87758
G0 F7500 X155.917 Y214.749
G1 F1500 X101.15 Y159.981 E1488.74173
G0 F7500 X101.15 Y160.547
G1 F1500 X155.352 Y214.749 E1492.56597
G0 F7500 X154.786 Y214.749
G1 F1500 X101.15 Y161.112 E1496.35031
G0 F7500 X101.15 Y161.678
G1 F1500 X154.22 Y214.749 E1500.09473
G0 F7500 X153.655 Y214.749
G1 F1500 X101.15 Y162.244 E1503.79924
G0 F7500 X101.15 Y162.809
G1 F1500 X153.089 Y214.749 E1507.46385
G0 F7500 X152.523 Y214.749
G1 F1500 X101.15 Y163.375 E1511.08853
G0 F7500 X101.15 Y163.941
G1 F1500 X151.957 Y214.749 E1514.67327
G0 F7500 X151.392 Y214.749
G1 F1500 X101.15 Y164.506 E1518.21815
G0 F7500 X101.15 Y165.072
G1 F1500 X150.826 Y214.749 E1521.7231
G0 F7500 X150.26 Y214.749
G1 F1500 X101.15 Y165.638 E1525.18811
G0 F7500 X101.15 Y166.204
G1 F1500 X149.695 Y214.749 E1528.61322
G0 F7500 X149.129 Y214.749
G1 F1500 X101.15 Y166.769 E1531.99843
G0 F7500 X101.15 Y167.335
G1 F1500 X148.563 Y214.749 E1535.34371
G0 F7500 X147.998 Y214.749
G1 F1500 X101.15 Y167.901 E1538.64909
G0 F7500 X101.15 Y168.466
G1 F1500 X147.432 Y214.749 E1541.91457
G0 F7500 X146.866 Y214.749
G1 F1500 X101.15 Y169.032 E1545.14012
G0 F7500 X101.15 Y169.598
G1 F1500 X146.301 Y214.749 E1548.32576
G0 F7500 X145.735 Y214.749
G1 F1500 X101.15 Y170.163 E1551.47151
G0 F7500 X101.15 Y170.729
G1 F1500 X145.169 Y214.749 E1554.57732
G0 F7500 X144.604 Y214.749
G1 F1500 X101.15 Y171.295 E1557.64324
G0 F7500 X101.15 Y171.86
G1 F1500 X144.038 Y214.749 E1560.66925
G0 F7500 X143.472 Y214.749
G1 F1500 X101.15 Y172.426 E1563.65533
G0 F7500 X101.15 Y172.992
G1 F1500 X142.906 Y214.749 E1566.60148
G0 F7500 X142.341 Y214.749
G1 F1500 X101.15 Y173.557 E1569.50776
G0 F7500 X101.15 Y174.123
G1 F1500 X141.775 Y214.749 E1572.37411
G0 F7500 X141.209 Y214.749
G1 F1500 X101.15 Y174.689 E1575.20053
G0 F7500 X101.15 Y175.255
G1 F1500 X140.644 Y214.749 E1577.98704
G0 F7500 X140.078 Y214.749
G1 F1500 X101.15 Y175.82 E1580.73366
G0 F7500 X101.15 Y176.386
G1 F1500 X139.512 Y214.749 E1583.44034
G0 F7500 X138.947 Y214.749
G1 F1500 X101.15 Y176.952 E1586.10712
G0 F7500 X101.15 Y177.517
G1 F1500 X138.381 Y214.749 E1588.734
G0 F7500 X137.815 Y214.749
G1 F1500 X101.15 Y178.083 E1591.32095
G0 F7500 X101.15 Y178.649
G1 F1500 X137.25 Y214.749 E1593.868
G0 F7500 X136.684 Y214.749
G1 F1500 X101.15 Y179.214 E1596.37515
G0 F7500 X101.15 Y179.78
G1 F1500 X136.118 Y214.749 E1598.84237
G0 F7500 X135.553 Y214.749
G1 F1500 X101.15 Y180.346 E1601.26969
G0 F7500 X101.15 Y180.911
G1 F1500 X134.987 Y214.749 E1603.65711
G0 F7500 X134.421 Y214.749
G1 F1500 X101.15 Y181.477 E1606.00459
G0 F7500 X101.15 Y182.043
G1 F1500 X133.856 Y214.749 E1608.31218
G0 F7500 X133.29 Y214.749
G1 F1500 X101.15 Y182.608 E1610.57986
G0 F7500 X101.15 Y183.174
G1 F1500 X132.724 Y214.749 E1612.80761
G0 F7500 X132.158 Y214.749
G1 F1500 X101.15 Y183.74 E1614.99543
G0 F7500 X101.15 Y184.305
G1 F1500 X131.593 Y214.749 E1617.14338
G0 F7500 X131.027 Y214.749
G1 F1500 X101.15 Y184.871 E1619.2514
G0 F7500 X101.15 Y185.437
G1 F1500 X130.461 Y214.749 E1621.31949
G0 F7500 X129.896 Y214.749
G1 F1500 X101.15 Y186.003 E1623.34767
G0 F7500 X101.15 Y186.568
G1 F1500 X129.33 Y214.749 E1625.33596
G0 F7500 X128.764 Y214.749
G1 F1500 X101.15 Y187.134 E1627.28431
G0 F7500 X101.15 Y187.7
G1 F1500 X128.199 Y214.749 E1629.19276
G0 F7500 X127.633 Y214.749
G1 F1500 X101.15 Y188.265 E1631.06132
G0 F7500 X101.15 Y188.831
G1 F1500 X127.067 Y214.749 E1632.88994
G0 F7500 X126.502 Y214.749
G1 F1500 X101.15 Y189.397 E1634.67866
G0 F7500 X101.15 Y189.962
G1 F1500 X125.936 Y214.749 E1636.42748
G0 F7500 X125.37 Y214.749
G1 F1500 X101.15 Y190.528 E1638.13637
G0 F7500 X101.15 Y191.094
G1 F1500 X124.805 Y214.749 E1639.80536
G0 F7500 X124.239 Y214.749
G1 F1500 X101.15 Y191.659 E1641.43444
G0 F7500 X101.15 Y192.225
G1 F1500 X123.673 Y214.749 E1643.0236
G0 F7500 X123.107 Y214.749
G1 F1500 X101.15 Y192.791 E1644.57282
G0 F7500 X101.15 Y193.356
G1 F1500 X122.542 Y214.749 E1646.08218
G0 F7500 X121.976 Y214.749
G1 F1500 X101.15 Y193.922 E1647.5516
G0 F7500 X101.15 Y194.488
G1 F1500 X121.41 Y214.749 E1648.98109
G0 F7500 X120.845 Y214.749
G1 F1500 X101.15 Y195.053 E1650.37071
G0 F7500 X101.15 Y195.619
G1 F1500 X120.279 Y214.749 E1651.7204
G0 F7500 X119.713 Y214.749
G1 F1500 X101.15 Y196.185 E1653.03015
G0 F7500 X101.15 Y196.751
G1 F1500 X119.148 Y214.749 E1654.30001
G0 F7500 X118.582 Y214.749
G1 F1500 X101.15 Y197.316 E1655.52997
G0 F7500 X101.15 Y197.882
G1 F1500 X118.016 Y214.749 E1656.71999
G0 F7500 X117.451 Y214.749
G1 F1500 X101.15 Y198.448 E1657.87011
G0 F7500 X101.15 Y199.013
G1 F1500 X116.885 Y214.749 E1658.98034
G0 F7500 X116.319 Y214.749
G1 F1500 X101.15 Y199.579 E1660.05063
G0 F7500 X101.15 Y200.145
G1 F1500 X115.754 Y214.749 E1661.08102
G0 F7500 X115.188 Y214.749
G1 F1500 X101.15 Y200.71 E1662.07151
G0 F7500 X101.15 Y201.276
G1 F1500 X114.622 Y214.749 E1663.02207
G0 F7500 X114.057 Y214.749
G1 F1500 X101.15 Y201.842 E1663.93273
G0 F7500 X101.15 Y202.407
G1 F1500 X113.491 Y214.749 E1664.80349
G0 F7500 X112.925 Y214.749
G1 F1500 X101.15 Y202.973 E1665.63431
G0 F7500 X101.15 Y203.539
G1 F1500 X112.359 Y214.749 E1666.4252
G0 F7500 X111.794 Y214.749
G1 F1500 X101.15 Y204.104 E1667.17623
G0 F7500 X101.15 Y204.67
G1 F1500 X111.228 Y214.749 E1667.88732
G0 F7500 X110.662 Y214.749
G1 F1500 X101.15 Y205.236 E1668.55848
G0 F7500 X101.15 Y205.802
G1 F1500 X110.097 Y214.749 E1669.18974
G0 F7500 X109.531 Y214.749
G1 F1500 X101.15 Y206.367 E1669.7811
G0 F7500 X101.15 Y206.933
G1 F1500 X108.965 Y214.749 E1670.33253
G0 F7500 X108.4 Y214.749
G1 F1500 X101.15 Y207.499 E1670.84405
G0 F7500 X101.15 Y208.064
G1 F1500 X107.834 Y214.749 E1671.31568
G0 F7500 X107.268 Y214.749
G1 F1500 X101.15 Y208.63 E1671.74737
G0 F7500 X101.15 Y209.196
G1 F1500 X106.703 Y214.749 E1672.13917
G0 F7500 X106.137 Y214.749
G1 F1500 X101.15 Y209.761 E1672.49106
G0 F7500 X101.15 Y210.327
G1 F1500 X105.571 Y214.749 E1672.80302
G0 F7500 X105.006 Y214.749
G1 F1500 X101.15 Y210.893 E1673.07508
G0 F7500 X101.15 Y211.458
G1 F1500 X104.44 Y214.749 E1673.30725
G0 F7500 X103.874 Y214.749
G1 F1500 X101.15 Y212.024 E1673.49948
G0 F7500 X101.15 Y212.59
G1 F1500 X103.309 Y214.749 E1673.6518
G0 F7500 X102.743 Y214.749
G1 F1500 X101.15 Y213.155 E1673.76423
G0 F7500 X101.15 Y213.721
G1 F1500 X102.177 Y214.749 E1673.83673
G0 F7500 X101.611 Y214.749
G1 F1500 X101.15 Y214.287 E1673.86929
G0 F7500 X100.8 Y214.287
G1 F1500 E1667.36929
;MESH:NONMESH
G0 F300 X100.8 Y214.287 Z0.9
G0 F7500 X100.71 Y214.287
G0 X100.782 Y215.118
G0 X199.4 Y215.3
;TIME_ELAPSED:1381.580747
;LAYER:1
M106 S85
;TYPE:WALL-INNER
;MESH:PrinterTest.stl
G1 F1500 E1673.86929
G1 X100.6 Y215.3 E1683.7276
G1 X100.6 Y116.5 E1693.5859
G1 X199.4 Y116.5 E1703.4442
G1 X199.4 Y215.3 E1713.30251
G0 F8250 X199.8 Y215.7
;TYPE:WALL-OUTER
G1 F1500 X100.2 Y215.7 E1723.24064
G1 X100.2 Y116.1 E1733.17876
G1 X199.8 Y116.1 E1743.11689
G1 X199.8 Y215.7 E1753.05502
G0 F8250 X199.6 Y215.7
G0 X199.36 Y215.26
G0 X199.01 Y214.91
;TYPE:SKIN
G1 F1500 X100.99 Y214.91 E1762.8355
G1 X100.99 Y116.89 E1772.61597
G1 X199.01 Y116.89 E1782.39645
G1 X199.01 Y214.91 E1792.17692
G0 F8250 X198.766 Y214.749
G1 F1500 X198.849 Y214.666 E1792.18863
G0 F8250 X198.849 Y214.1
G1 F1500 X198.2 Y214.749 E1792.28022
G0 F8250 X197.634 Y214.749
G1 F1500 X198.849 Y213.534 E1792.45167
G0 F8250 X198.849 Y212.969
G1 F1500 X197.069 Y214.749 E1792.70284
G0 F8250 X196.503 Y214.749
G1 F1500 X198.849 Y212.403 E1793.03389
G0 F8250 X198.849 Y211.837
G1 F1500 X195.937 Y214.749 E1793.4448
G0 F8250 X195.372 Y214.749
G1 F1500 X198.849 Y211.272 E1793.93545
G0 F8250 X198.849 Y210.706
G1 F1500 X194.806 Y214.749 E1794.50596
G0 F8250 X194.24 Y214.749
G1 F1500 X198.849 Y210.14 E1795.15634
G0 F8250 X198.849 Y209.575
G1 F1500 X193.675 Y214.749 E1795.88644
G0 F8250 X193.109 Y214.749
G1 F1500 X198.849 Y209.009 E1796.69642
G0 F8250 X198.849 Y208.443
G1 F1500 X192.543 Y214.749 E1797.58626
G0 F8250 X191.978 Y214.749
G1 F1500 X198.849 Y207.878 E1798.55584
G0 F8250 X198.849 Y207.312
G1 F1500 X191.412 Y214.749 E1799.60528
G0 F8250 X190.846 Y214.749
G1 F1500 X198.849 Y206.746 E1800.73459
G0 F8250 X198.849 Y206.181
G1 F1500 X190.281 Y214.749 E1801.94362
G0 F8250 X189.715 Y214.749
G1 F1500 X198.849 Y205.615 E1803.23253
G0 F8250 X198.849 Y205.049
G1 F1500 X189.149 Y214.749 E1804.60131
G0 F8250 X188.583 Y214.749
G1 F1500 X198.849 Y204.483 E1806.04995
G0 F8250 X198.849 Y203.918
G1 F1500 X188.018 Y214.749 E1807.57832
G0 F8250 X187.452 Y214.749
G1 F1500 X198.849 Y203.352 E1809.18656
G0 F8250 X198.849 Y202.786
G1 F1500 X186.886 Y214.749 E1810.87467
G0 F8250 X186.321 Y214.749
G1 F1500 X198.849 Y202.221 E1812.6425
G0 F8250 X198.849 Y201.655
G1 F1500 X185.755 Y214.749 E1814.49021
G0 F8250 X185.189 Y214.749
G1 F1500 X198.849 Y201.089 E1816.41778
G0 F8250 X198.849 Y200.524
G1 F1500 X184.624 Y214.749 E1818.42508
G0 F8250 X184.058 Y214.749
G1 F1500 X198.849 Y199.958 E1820.51225
G0 F8250 X198.849 Y199.392
G1 F1500 X183.492 Y214.749 E1822.67929
G0 F8250 X182.927 Y214.749
G1 F1500 X198.849 Y198.827 E1824.92606
G0 F8250 X198.849 Y198.261
G1 F1500 X182.361 Y214.749 E1827.25269
G0 F8250 X181.795 Y214.749
G1 F1500 X198.849 Y197.695 E1829.6592
G0 F8250 X198.849 Y197.13
G1 F1500 X181.23 Y214.749 E1832.14543
G0 F8250 X180.664 Y214.749
G1 F1500 X198.849 Y196.564 E1834.71153
G0 F8250 X198.849 Y195.998
G1 F1500 X180.098 Y214.749 E1837.3575
G0 F8250 X179.532 Y214.749
G1 F1500 X198.849 Y195.433 E1840.08326
G0 F8250 X198.849 Y194.867
G1 F1500 X178.967 Y214.749 E1842.88883
G0 F8250 X178.401 Y214.749
G1 F1500 X198.849 Y194.301 E1845.77426
G0 F8250 X198.849 Y193.735
G1 F1500 X177.835 Y214.749 E1848.73956
G0 F8250 X177.27 Y214.749
G1 F1500 X198.849 Y193.17 E1851.78459
G0 F8250 X198.849 Y192.604
G1 F1500 X176.704 Y214.749 E1854.90949
G0 F8250 X176.138 Y214.749
G1 F1500 X198.849 Y192.038 E1858.11426
G0 F8250 X198.849 Y191.473
G1 F1500 X175.573 Y214.749 E1861.39876
G0 F8250 X175.007 Y214.749
G1 F1500 X198.849 Y190.907 E1864.76312
G0 F8250 X198.849 Y190.341
G1 F1500 X174.441 Y214.749 E1868.20735
G0 F8250 X173.876 Y214.749
G1 F1500 X198.849 Y189.776 E1871.73131
G0 F8250 X198.849 Y189.21
G1 F1500 X173.31 Y214.749 E1875.33514
G0 F8250 X172.744 Y214.749
G1 F1500 X198.849 Y188.644 E1879.01884
G0 F8250 X198.849 Y188.079
G1 F1500 X172.179 Y214.749 E1882.78226
G0 F8250 X171.613 Y214.749
G1 F1500 X198.849 Y187.513 E1886.62556
G0 F8250 X198.849 Y186.947
G1 F1500 X171.047 Y214.749 E1890.54872
G0 F8250 X170.482 Y214.749
G1 F1500 X198.849 Y186.382 E1894.55161
G0 F8250 X198.849 Y185.816
G1 F1500 X169.916 Y214.749 E1898.63437
G0 F8250 X169.35 Y214.749
G1 F1500 X198.849 Y185.25 E1902.797
G0 F8250 X198.849 Y184.684
G1 F1500 X168.784 Y214.749 E1907.03949
G0 F8250 X168.219 Y214.749
G1 F1500 X198.849 Y184.119 E1911.36172
G0 F8250 X198.849 Y183.553
G1 F1500 X167.653 Y214.749 E1915.76381
G0 F8250 X167.087 Y214.749
G1 F1500 X198.849 Y182.987 E1920.24577
G0 F8250 X198.849 Y182.422
G1 F1500 X166.522 Y214.749 E1924.80746
G0 F8250 X165.956 Y214.749
G1 F1500 X198.849 Y181.856 E1929.44902
G0 F8250 X198.849 Y181.29
G1 F1500 X165.39 Y214.749 E1934.17044
G0 F8250 X164.825 Y214.749
G1 F1500 X198.849 Y180.725 E1938.9716
G0 F8250 X198.849 Y180.159
G1 F1500 X164.259 Y214.749 E1943.85262
G0 F8250 X163.693 Y214.749
G1 F1500 X198.849 Y179.593 E1948.81351
G0 F8250 X198.849 Y179.028
G1 F1500 X163.128 Y214.749 E1953.85413
G0 F8250 X162.562 Y214.749
G1 F1500 X198.849 Y178.462 E1958.97462
G0 F8250 X198.849 Y177.896
G1 F1500 X161.996 Y214.749 E1964.17497
G0 F8250 X161.431 Y214.749
G1 F1500 X198.849 Y177.331 E1969.45506
G0 F8250 X198.849 Y176.765
G1 F1500 X160.865 Y214.749 E1974.81501
G0 F8250 X160.299 Y214.749
G1 F1500 X198.849 Y176.199 E1980.25483
G0 F8250 X198.849 Y175.634
G1 F1500 X159.734 Y214.749 E1985.77438
G0 F8250 X159.168 Y214.749
G1 F1500 X198.849 Y175.068 E1991.3738
G0 F8250 X198.849 Y174.502
G1 F1500 X158.602 Y214.749 E1997.05309
G0 F8250 X158.036 Y214.749
G1 F1500 X198.849 Y173.936 E2002.81224
G0 F8250 X198.849 Y173.371
G1 F1500 X157.471 Y214.749 E2008.65112
G0 F8250 X156.905 Y214.749
G1 F1500 X198.849 Y172.805 E2014.56987
G0 F8250 X198.849 Y172.239
G1 F1500 X156.339 Y214.749 E2020.5685
G0 F8250 X155.774 Y214.749
G1 F1500 X198.849 Y171.674 E2026.64684
G0 F8250 X198.849 Y171.108
G1 F1500 X155.208 Y214.749 E2032.80506
G0 F8250 X154.642 Y214.749
G1 F1500 X198.849 Y170.542 E2039.04314
G0 F8250 X198.849 Y169.977
G1 F1500 X154.077 Y214.749 E2045.36096
G0 F8250 X153.511 Y214.749
G1 F1500 X198.849 Y169.411 E2051.75864
G0 F8250 X198.849 Y168.845
G1 F1500 X152.945 Y214.749 E2058.23619
G0 F8250 X152.38 Y214.749
G1 F1500 X198.849 Y168.28 E2064.79347
G0 F8250 X198.849 Y167.714
G1 F1500 X151.814 Y214.749 E2071.43061
G0 F8250 X151.248 Y214.749
G1 F1500 X198.849 Y167.148 E2078.14763
G0 F8250 X198.849 Y166.583
G1 F1500 X150.683 Y214.749 E2084.94437
G0 F8250 X150.117 Y214.749
G1 F1500 X198.849 Y166.017 E2091.82098
G0 F8250 X198.849 Y165.451
G1 F1500 X149.551 Y214.749 E2098.77746
G0 F8250 X148.985 Y214.749
G1 F1500 X198.849 Y164.885 E2105.81381
G0 F8250 X198.849 Y164.32
G1 F1500 X148.42 Y214.749 E2112.92989
G0 F8250 X147.854 Y214.749
G1 F1500 X198.849 Y163.754 E2120.12583
G0 F8250 X198.849 Y163.188
G1 F1500 X147.288 Y214.749 E2127.40165
G0 F8250 X146.723 Y214.749
G1 F1500 X198.849 Y162.623 E2134.75719
G0 F8250 X198.849 Y162.057
G1 F1500 X146.157 Y214.749 E2142.1926
G0 F8250 X145.591 Y214.749
G1 F1500 X198.849 Y161.491 E2149.70788
G0 F8250 X198.849 Y160.926
G1 F1500 X145.026 Y214.749 E2157.30289
G0 F8250 X144.46 Y214.749
G1 F1500 X198.849 Y160.36 E2164.97776
G0 F8250 X198.849 Y159.794
G1 F1500 X143.894 Y214.749 E2172.73251
G0 F8250 X143.329 Y214.749
G1 F1500 X198.849 Y159.229 E2180.56698
G0 F8250 X198.849 Y158.663
G1 F1500 X142.763 Y214.749 E2188.48132
G0 F8250 X142.197 Y214.749
G1 F1500 X198.849 Y158.097 E2196.47553
G0 F8250 X198.849 Y157.532
G1 F1500 X141.632 Y214.749 E2204.54946
G0 F8250 X141.066 Y214.749
G1 F1500 X198.849 Y156.966 E2212.70327
G0 F8250 X198.849 Y156.4
G1 F1500 X140.5 Y214.749 E2220.93694
G0 F8250 X139.935 Y214.749
G1 F1500 X198.849 Y155.835 E2229.25035
G0 F8250 X198.849 Y155.269
G1 F1500 X139.369 Y214.749 E2237.64362
G0 F8250 X138.803 Y214.749
G1 F1500 X198.849 Y154.703 E2246.11676
G0 F8250 X198.849 Y154.137
G1 F1500 X138.237 Y214.749 E2254.66976
G0 F8250 X137.672 Y214.749
G1 F1500 X198.849 Y153.572 E2263.3025
G0 F8250 X198.849 Y153.006
G1 F1500 X137.106 Y214.749 E2272.0151
G0 F8250 X136.54 Y214.749
G1 F1500 X198.849 Y152.44 E2280.80758
G0 F8250 X198.849 Y151.875
G1 F1500 X135.975 Y214.749 E2289.67978
G0 F8250 X135.409 Y214.749
G1 F1500 X198.849 Y151.309 E2298.63185
G0 F8250 X198.849 Y150.743
G1 F1500 X134.843 Y214.749 E2307.66378
G0 F8250 X134.278 Y214.749
G1 F1500 X198.849 Y150.178 E2316.77545
G0 F8250 X198.849 Y149.612
G1 F1500 X133.712 Y214.749 E2325.96698
G0 F8250 X133.146 Y214.749
G1 F1500 X198.849 Y149.046 E2335.23839
G0 F8250 X198.849 Y148.481
G1 F1500 X132.581 Y214.749 E2344.58952
G0 F8250 X132.015 Y214.749
G1 F1500 X198.849 Y147.915 E2354.02052
G0 F8250 X198.849 Y147.349
G1 F1500 X131.449 Y214.749 E2363.53139
G0 F8250 X130.884 Y214.749
G1 F1500 X198.849 Y146.784 E2373.12198
G0 F8250 X198.849 Y146.218
G1 F1500 X130.318 Y214.749 E2382.79245
G0 F8250 X129.752 Y214.749
G1 F1500 X198.849 Y145.652 E2392.54278
G0 F8250 X198.849 Y145.086
G1 F1500 X129.186 Y214.749 E2402.37298
G0 F8250 X128.621 Y214.749
G1 F1500 X198.849 Y144.521 E2412.28291
G0 F8250 X198.849 Y143.955
G1 F1500 X128.055 Y214.749 E2422.27271
G0 F8250 X127.489 Y214.749
G1 F1500 X198.849 Y143.389 E2432.34237
G0 F8250 X198.849 Y142.824
G1 F1500 X126.924 Y214.749 E2442.49177
G0 F8250 X126.358 Y214.749
G1 F1500 X198.849 Y142.258 E2452.72103
G0 F8250 X198.849 Y141.692
G1 F1500 X125.792 Y214.749 E2463.03016
G0 F8250 X125.227 Y214.749
G1 F1500 X198.849 Y141.127 E2473.41902
G0 F8250 X198.849 Y140.561
G1 F1500 X124.661 Y214.749 E2483.88775
G0 F8250 X124.095 Y214.749
G1 F1500 X198.849 Y139.995 E2494.43635
G0 F8250 X198.849 Y139.43
G1 F1500 X123.53 Y214.749 E2505.06467
G0 F8250 X122.964 Y214.749
G1 F1500 X198.849 Y138.864 E2515.77287
G0 F8250 X198.849 Y138.298
G1 F1500 X122.398 Y214.749 E2526.56093
G0 F8250 X121.833 Y214.749
G1 F1500 X198.849 Y137.733 E2537.42872
G0 F8250 X198.849 Y137.167
G1 F1500 X121.267 Y214.749 E2548.37638
G0 F8250 X120.701 Y214.749
G1 F1500 X198.849 Y136.601 E2559.4039
G0 F8250 X198.849 Y136.036
G1 F1500 X120.136 Y214.749 E2570.51116
G0 F8250 X119.57 Y214.749
G1 F1500 X198.849 Y135.47 E2581.69828
G0 F8250 X198.849 Y134.904
G1 F1500 X119.004 Y214.749 E2592.96527
G0 F8250 X118.438 Y214.749
G1 F1500 X198.849 Y134.338 E2604.31213
G0 F8250 X198.849 Y133.773
G1 F1500 X117.873 Y214.749 E2615.73872
G0 F8250 X117.307 Y214.749
G1 F1500 X198.849 Y133.207 E2627.24518
G0 F8250 X198.849 Y132.641
G1 F1500 X116.741 Y214.749 E2638.83151
G0 F8250 X116.176 Y214.749
G1 F1500 X198.849 Y132.076 E2650.49756
G0 F8250 X198.849 Y131.51
G1 F1500 X115.61 Y214.749 E2662.24348
G0 F8250 X115.044 Y214.749
G1 F1500 X198.849 Y130.944 E2674.06927
G0 F8250 X198.849 Y130.379
G1 F1500 X114.479 Y214.749 E2685.97479
G0 F8250 X113.913 Y214.749
G1 F1500 X198.849 Y129.813 E2697.96018
G0 F8250 X198.849 Y129.247
G1 F1500 X113.347 Y214.749 E2710.02543
G0 F8250 X112.782 Y214.749
G1 F1500 X198.849 Y128.682 E2722.17042
G0 F8250 X198.849 Y128.116
G1 F1500 X112.216 Y214.749 E2734.39527
G0 F8250 X111.65 Y214.749
G1 F1500 X198.849 Y127.55 E2746.69999
G0 F8250 X198.849 Y126.985
G1 F1500 X111.085 Y214.749 E2759.08444
G0 F8250 X110.519 Y214.749
G1 F1500 X198.849 Y126.419 E2771.54875
G0 F8250 X198.849 Y125.853
G1 F1500 X109.953 Y214.749 E2784.09294
G0 F8250 X109.388 Y214.749
G1 F1500 X198.849 Y125.288 E2796.71685
G0 F8250 X198.849 Y124.722
G1 F1500 X108.822 Y214.749 E2809.42064
G0 F8250 X108.256 Y214.749
G1 F1500 X198.849 Y124.156 E2822.20429
G0 F8250 X198.849 Y123.59
G1 F1500 X107.69 Y214.749 E2835.06781
G0 F8250 X107.125 Y214.749
G1 F1500 X198.849 Y123.025 E2848.01105
G0 F8250 X198.849 Y122.459
G1 F1500 X106.559 Y214.749 E2861.03417
G0 F8250 X105.993 Y214.749
G1 F1500 X198.849 Y121.893 E2874.13715
G0 F8250 X198.849 Y121.328
G1 F1500 X105.428 Y214.749 E2887.31987
G0 F8250 X104.862 Y214.749
G1 F1500 X198.849 Y120.762 E2900.58245
G0 F8250 X198.849 Y120.196
G1 F1500 X104.296 Y214.749 E2913.9249
G0 F8250 X103.731 Y214.749
G1 F1500 X198.849 Y119.631 E2927.34707
G0 F8250 X198.849 Y119.065
G1 F1500 X103.165 Y214.749 E2940.84912
G0 F8250 X102.599 Y214.749
G1 F1500 X198.849 Y118.499 E2954.43104
G0 F8250 X198.849 Y117.934
G1 F1500 X102.034 Y214.749 E2968.09268
G0 F8250 X101.468 Y214.749
G1 F1500 X198.849 Y117.368 E2981.83419
G0 F8250 X198.602 Y117.049
G1 F1500 X101.15 Y214.502 E2995.58579
G0 F8250 X101.15 Y213.936
G1 F1500 X198.037 Y117.049 E3009.25759
G0 F8250 X197.471 Y117.049
G1 F1500 X101.15 Y213.37 E3022.84952
G0 F8250 X101.15 Y212.805
G1 F1500 X196.905 Y117.049 E3036.36166
G0 F8250 X196.34 Y117.049
G1 F1500 X101.15 Y212.239 E3049.794
G0 F8250 X101.15 Y211.673
G1 F1500 X195.774 Y117.049 E3063.14647
G0 F8250 X195.208 Y117.049
G1 F1500 X101.15 Y211.108 E3076.41914
G0 F8250 X101.15 Y210.542
G1 F1500 X194.643 Y117.049 E3089.61201
G0 F8250 X194.077 Y117.049
G1 F1500 X101.15 Y209.976 E3102.72501
G0 F8250 X101.15 Y209.411
G1 F1500 X193.511 Y117.049 E3115.75822
G0 F8250 X192.946 Y117.049
G1 F1500 X101.15 Y208.845 E3128.71162
G0 F8250 X101.15 Y208.279
G1 F1500 X192.38 Y117.049 E3141.58516
G0 F8250 X191.814 Y117.049
G1 F1500 X101.15 Y207.714 E3154.3789
G0 F8250 X101.15 Y207.148
G1 F1500 X191.249 Y117.049 E3167.09285
G0 F8250 X190.683 Y117.049
G1 F1500 X101.15 Y206.582 E3179.72692
G0 F8250 X101.15 Y206.016
G1 F1500 X190.117 Y117.049 E3192.28112
G0 F8250 X189.551 Y117.049
G1 F1500 X101.15 Y205.451 E3204.75553
G0 F8250 X101.15 Y204.885
G1 F1500 X188.986 Y117.049 E3217.15014
G0 F8250 X188.42 Y117.049
G1 F1500 X101.15 Y204.319 E3229.46488
G0 F8250 X101.15 Y203.754
G1 F1500 X187.854 Y117.049 E3241.69982
G0 F8250 X187.289 Y117.049
G1 F1500 X101.15 Y203.188 E3253.85496
G0 F8250 X101.15 Y202.622
G1 F1500 X186.723 Y117.049 E3265.93024
G0 F8250 X186.157 Y117.049
G1 F1500 X101.15 Y202.057 E3277.92571
G0 F8250 X101.15 Y201.491
G1 F1500 X185.592 Y117.049 E3289.84139
G0 F8250 X185.026 Y117.049
G1 F1500 X101.15 Y200.925 E3301.6772
G0 F8250 X101.15 Y200.36
G1 F1500 X184.46 Y117.049 E3313.43321
G0 F8250 X183.895 Y117.049
G1 F1500 X101.15 Y199.794 E3325.10943
G0 F8250 X101.15 Y199.228
G1 F1500 X183.329 Y117.049 E3336.70577
G0 F8250 X182.763 Y117.049
G1 F1500 X101.15 Y198.663 E3348.22232
G0 F8250 X101.15 Y198.097
G1 F1500 X182.198 Y117.049 E3359.65907
G0 F8250 X181.632 Y117.049
G1 F1500 X101.15 Y197.531 E3371.01595
G0 F8250 X101.15 Y196.966
G1 F1500 X181.066 Y117.049 E3382.29303
G0 F8250 X180.501 Y117.049
G1 F1500 X101.15 Y196.4 E3393.49031
G0 F8250 X101.15 Y195.834
G1 F1500 X179.935 Y117.049 E3404.60773
G0 F8250 X179.369 Y117.049
G1 F1500 X101.15 Y195.268 E3415.64527
G0 F8250 X101.15 Y194.703
G1 F1500 X178.803 Y117.049 E3426.60302
G0 F8250 X178.238 Y117.049
G1 F1500 X101.15 Y194.137 E3437.48097
G0 F8250 X101.15 Y193.571
G1 F1500 X177.672 Y117.049 E3448.27905
G0 F8250 X177.106 Y117.049
G1 F1500 X101.15 Y193.006 E3458.99733
G0 F8250 X101.15 Y192.44
G1 F1500 X176.541 Y117.049 E3469.63582
G0 F8250 X175.975 Y117.049
G1 F1500 X101.15 Y191.874 E3480.19443
G0 F8250 X101.15 Y191.309
G1 F1500 X175.409 Y117.049 E3490.67325
G0 F8250 X174.844 Y117.049
G1 F1500 X101.15 Y190.743 E3501.07227
G0 F8250 X101.15 Y190.177
G1 F1500 X174.278 Y117.049 E3511.39142
G0 F8250 X173.712 Y117.049
G1 F1500 X101.15 Y189.612 E3521.63077
G0 F8250 X101.15 Y189.046
G1 F1500 X173.147 Y117.049 E3531.79033
G0 F8250 X172.581 Y117.049
G1 F1500 X101.15 Y188.48 E3541.87001
G0 F8250 X101.15 Y187.915
G1 F1500 X172.015 Y117.049 E3551.8699
G0 F8250 X171.45 Y117.049
G1 F1500 X101.15 Y187.349 E3561.78999
G0 F8250 X101.15 Y186.783
G1 F1500 X170.884 Y117.049 E3571.63021
G0 F8250 X170.318 Y117.049
G1 F1500 X101.15 Y186.217 E3581.39056
G0 F8250 X101.15 Y185.652
G1 F1500 X169.753 Y117.049 E3591.07119
G0 F8250 X169.187 Y117.049
G1 F1500 X101.15 Y185.086 E3600.67194
G0 F8250 X101.15 Y184.52
G1 F1500 X168.621 Y117.049 E3610.19283
G0 F8250 X168.055 Y117.049
G1 F1500 X101.15 Y183.955 E3619.63392
G0 F8250 X101.15 Y183.389
G1 F1500 X167.49 Y117.049 E3628.99521
G0 F8250 X166.924 Y117.049
G1 F1500 X101.15 Y182.823 E3638.27663
G0 F8250 X101.15 Y182.258
G1 F1500 X166.358 Y117.049 E3647.47825
G0 F8250 X165.793 Y117.049
G1 F1500 X101.15 Y181.692 E3656.60008
G0 F8250 X101.15 Y181.126
G1 F1500 X165.227 Y117.049 E3665.64204
G0 F8250 X164.661 Y117.049
G1 F1500 X101.15 Y180.561 E3674.6042
G0 F8250 X101.15 Y179.995
G1 F1500 X164.096 Y117.049 E3683.48656
G0 F8250 X163.53 Y117.049
G1 F1500 X101.15 Y179.429 E3692.28905
G0 F8250 X101.15 Y178.864
G1 F1500 X162.964 Y117.049 E3701.01174
G0 F8250 X162.399 Y117.049
G1 F1500 X101.15 Y178.298 E3709.65464
G0 F8250 X101.15 Y177.732
G1 F1500 X161.833 Y117.049 E3718.21766
G0 F8250 X161.267 Y117.049
G1 F1500 X101.15 Y177.167 E3726.70089
G0 F8250 X101.15 Y176.601
G1 F1500 X160.702 Y117.049 E3735.10432
G0 F8250 X160.136 Y117.049
G1 F1500 X101.15 Y176.035 E3743.42789
G0 F8250 X101.15 Y175.469
G1 F1500 X159.57 Y117.049 E3751.67158
G0 F8250 X159.004 Y117.049
G1 F1500 X101.15 Y174.904 E3759.83547
G0 F8250 X101.15 Y174.338
G1 F1500 X158.439 Y117.049 E3767.91957
G0 F8250 X157.873 Y117.049
G1 F1500 X101.15 Y173.772 E3775.9238
G0 F8250 X101.15 Y173.207
G1 F1500 X157.307 Y117.049 E3783.84823
G0 F8250 X156.742 Y117.049
G1 F1500 X101.15 Y172.641 E3791.69286
G0 F8250 X101.15 Y172.075
G1 F1500 X156.176 Y117.049 E3799.45762
G0 F8250 X155.61 Y117.049
G1 F1500 X101.15 Y171.51 E3807.14259
G0 F8250 X101.15 Y170.944
G1 F1500 X155.045 Y117.049 E3814.74775
G0 F8250 X154.479 Y117.049
G1 F1500 X101.15 Y170.378 E3822.27305
G0 F8250 X101.15 Y169.813
G1 F1500 X153.913 Y117.049 E3829.71855
G0 F8250 X153.348 Y117.049
G1 F1500 X101.15 Y169.247 E3837.08425
G0 F8250 X101.15 Y168.681
G1 F1500 X152.782 Y117.049 E3844.37009
G0 F8250 X152.216 Y117.049
G1 F1500 X101.15 Y168.116 E3851.57612
G0 F8250 X101.15 Y167.55
G1 F1500 X151.651 Y117.049 E3858.70236
G0 F8250 X151.085 Y117.049
G1 F1500 X101.15 Y166.984 E3865.74873
G0 F8250 X101.15 Y166.418
G1 F1500 X150.519 Y117.049 E3872.71523
G0 F8250 X149.954 Y117.048
G1 F1500 X101.15 Y165.853 E3879.60207
G0 F8250 X101.15 Y165.287
G1 F1500 X149.389 Y117.048 E3886.40911
G0 F8250 X148.823 Y117.048
G1 F1500 X101.15 Y164.721 E3893.13629
G0 F8250 X101.15 Y164.156
G1 F1500 X148.257 Y117.048 E3899.78366
G0 F8250 X147.691 Y117.048
G1 F1500 X101.15 Y163.59 E3906.35117
G0 F8250 X101.15 Y163.024
G1 F1500 X147.126 Y117.048 E3912.83888
G0 F8250 X146.56 Y117.048
G1 F1500 X101.15 Y162.459 E3919.24679
G0 F8250 X101.15 Y161.893
G1 F1500 X145.994 Y117.048 E3925.57484
G0 F8250 X145.429 Y117.048
G1 F1500 X101.15 Y161.327 E3931.82308
G0 F8250 X101.15 Y160.762
G1 F1500 X144.863 Y117.048 E3937.99153
G0 F8250 X144.297 Y117.048
G1 F1500 X101.15 Y160.196 E3944.08011
G0 F8250 X101.15 Y159.63
G1 F1500 X143.732 Y117.048 E3950.08889
G0 F8250 X143.166 Y117.048
G1 F1500 X101.15 Y159.065 E3956.01787
G0 F8250 X101.15 Y158.499
G1 F1500 X142.6 Y117.048 E3961.86698
G0 F8250 X142.035 Y117.048
G1 F1500 X101.15 Y157.933 E3967.6363
G0 F8250 X101.15 Y157.368
G1 F1500 X141.469 Y117.048 E3973.32582
G0 F8250 X140.903 Y117.048
G1 F1500 X101.15 Y156.802 E3978.93546
G0 F8250 X101.15 Y156.236
G1 F1500 X140.338 Y117.048 E3984.46531
G0 F8250 X139.772 Y117.048
G1 F1500 X101.15 Y155.67 E3989.9153
G0 F8250 X101.15 Y155.105
G1 F1500 X139.206 Y117.048 E3995.28548
G0 F8250 X138.641 Y117.048
G1 F1500 X101.15 Y154.539 E4000.57586
G0 F8250 X101.15 Y153.973
G1 F1500 X138.075 Y117.048 E4005.78638
G0 F8250 X137.509 Y117.048
G1 F1500 X101.15 Y153.408 E4010.9171
G0 F8250 X101.15 Y152.842
G1 F1500 X136.943 Y117.048 E4015.96795
G0 F8250 X136.378 Y117.048
G1 F1500 X101.15 Y152.276 E4020.939
G0 F8250 X101.15 Y151.711
G1 F1500 X135.812 Y117.048 E4025.83025
G0 F8250 X135.246 Y117.048
G1 F1500 X101.15 Y151.145 E4030.64164
G0 F8250 X101.15 Y150.579
G1 F1500 X134.681 Y117.048 E4035.37322
G0 F8250 X134.115 Y117.048
G1 F1500 X101.15 Y150.014 E4040.02501
G0 F8250 X101.15 Y149.448
G1 F1500 X133.549 Y117.048 E4044.59693
G0 F8250 X132.984 Y117.048
G1 F1500 X101.15 Y148.882 E4049.08905
G0 F8250 X101.15 Y148.317
G1 F1500 X132.418 Y117.048 E4053.50138
G0 F8250 X131.852 Y117.048
G1 F1500 X101.15 Y147.751 E4057.83383
G0 F8250 X101.15 Y147.185
G1 F1500 X131.287 Y117.048 E4062.08649
G0 F8250 X130.721 Y117.048
G1 F1500 X101.15 Y146.62 E4066.25934
G0 F8250 X101.15 Y146.054
G1 F1500 X130.155 Y117.048 E4070.35233
G0 F8250 X129.59 Y117.048
G1 F1500 X101.15 Y145.488 E4074.36552
G0 F8250 X101.15 Y144.922
G1 F1500 X129.024 Y117.048 E4078.29885
G0 F8250 X128.458 Y117.048
G1 F1500 X101.15 Y144.357 E4082.15237
G0 F8250 X101.15 Y143.791
G1 F1500 X127.892 Y117.048 E4085.92603
G0 F8250 X127.327 Y117.048
G1 F1500 X101.15 Y143.225 E4089.61988
G0 F8250 X101.15 Y142.66
G1 F1500 X126.761 Y117.048 E4093.23394
G0 F8250 X126.195 Y117.048
G1 F1500 X101.15 Y142.094 E4096.76813
G0 F8250 X101.15 Y141.528
G1 F1500 X125.63 Y117.048 E4100.22253
G0 F8250 X125.064 Y117.048
G1 F1500 X101.15 Y140.963 E4103.59712
G0 F8250 X101.15 Y140.397
G1 F1500 X124.498 Y117.048 E4106.89185
G0 F8250 X123.933 Y117.048
G1 F1500 X101.15 Y139.831 E4110.10677
G0 F8250 X101.15 Y139.266
G1 F1500 X123.367 Y117.048 E4113.2419
G0 F8250 X122.801 Y117.048
G1 F1500 X101.15 Y138.7 E4116.29716
G0 F8250 X101.15 Y138.134
G1 F1500 X122.236 Y117.048 E4119.27263
G0 F8250 X121.67 Y117.048
G1 F1500 X101.15 Y137.569 E4122.16829
G0 F8250 X101.15 Y137.003
G1 F1500 X121.104 Y117.048 E4124.98409
G0 F8250 X120.539 Y117.048
G1 F1500 X101.15 Y136.437 E4127.72008
G0 F8250 X101.15 Y135.871
G1 F1500 X119.973 Y117.048 E4130.37621
G0 F8250 X119.407 Y117.048
G1 F1500 X101.15 Y135.306 E4132.95254
G0 F8250 X101.15 Y134.74
G1 F1500 X118.842 Y117.048 E4135.44907
G0 F8250 X118.276 Y117.048
G1 F1500 X101.15 Y134.174 E4137.86574
G0 F8250 X101.15 Y133.609
G1 F1500 X117.71 Y117.048 E4140.2026
G0 F8250 X117.144 Y117.048
G1 F1500 X101.15 Y133.043 E4142.4596
G0 F8250 X101.15 Y132.477
G1 F1500 X116.579 Y117.048 E4144.6368
G0 F8250 X116.013 Y117.048
G1 F1500 X101.15 Y131.912 E4146.7342
G0 F8250 X101.15 Y131.346
G1 F1500 X115.447 Y117.048 E4148.75173
G0 F8250 X114.882 Y117.048
G1 F1500 X101.15 Y130.78 E4150.68946
G0 F8250 X101.15 Y130.215
G1 F1500 X114.316 Y117.048 E4152.5474
G0 F8250 X113.75 Y117.048
G1 F1500 X101.15 Y129.649 E4154.32547
G0 F8250 X101.15 Y129.083
G1 F1500 X113.185 Y117.048 E4156.02374
G0 F8250 X112.619 Y117.048
G1 F1500 X101.15 Y128.518 E4157.64221
G0 F8250 X101.15 Y127.952
G92 E0
G1 F1500 X112.053 Y117.048 E1.5386
G0 F8250 X111.488 Y117.048
G1 F1500 X101.15 Y127.386 E2.99741
G0 F8250 X101.15 Y126.821
G1 F1500 X110.922 Y117.048 E4.37641
G0 F8250 X110.356 Y117.048
G1 F1500 X101.15 Y126.255 E5.67555
G0 F8250 X101.15 Y125.689
G1 F1500 X109.791 Y117.048 E6.89489
G0 F8250 X109.225 Y117.048
G1 F1500 X101.15 Y125.123 E8.03436
G0 F8250 X101.15 Y124.558
G1 F1500 X108.659 Y117.048 E9.09403
G0 F8250 X108.093 Y117.048
G1 F1500 X101.15 Y123.992 E10.07383
G0 F8250 X101.15 Y123.426
G1 F1500 X107.528 Y117.048 E10.97383
G0 F8250 X106.962 Y117.048
G1 F1500 X101.15 Y122.861 E11.79404
G0 F8250 X101.15 Y122.295
G1 F1500 X106.396 Y117.048 E12.53438
G0 F8250 X105.831 Y117.048
G1 F1500 X101.15 Y121.729 E13.19492
G0 F8250 X101.15 Y121.164
G1 F1500 X105.265 Y117.048 E13.77566
G0 F8250 X104.699 Y117.048
G1 F1500 X101.15 Y120.598 E14.27653
G0 F8250 X101.15 Y120.032
G1 F1500 X104.134 Y117.048 E14.69761
G0 F8250 X103.568 Y117.048
G1 F1500 X101.15 Y119.467 E15.03888
G0 F8250 X101.15 Y118.901
G1 F1500 X103.002 Y117.048 E15.30029
G0 F8250 X102.437 Y117.048
G1 F1500 X101.15 Y118.335 E15.4819
G0 F8250 X101.15 Y117.77
G1 F1500 X101.871 Y117.048 E15.58371
G0 F8250 X101.305 Y117.048
G1 F1500 X101.15 Y117.204 E15.60566
G0 F8250 X100.8 Y117.204
G1 F1500 E9.10566
;MESH:NONMESH
G0 F300 X100.8 Y117.204 Z1.5
G0 F8250 X100.71 Y117.204
G0 X100.782 Y215.118
G0 X199.4 Y215.3
;TIME_ELAPSED:2496.770578
;LAYER:2
M106 S170
;TYPE:WALL-INNER
;MESH:PrinterTest.stl
G1 F1500 E15.60566
G1 X100.6 Y215.3 E25.46396
G1 X100.6 Y116.5 E35.32226
G1 X199.4 Y116.5 E45.18057
G1 X199.4 Y215.3 E55.03887
G0 F9000 X199.8 Y215.7
;TYPE:WALL-OUTER
G1 F1500 X100.2 Y215.7 E64.977
G1 X100.2 Y116.1 E74.91513
G1 X199.8 Y116.1 E84.85326
G1 X199.8 Y215.7 E94.79138
G0 F9000 X199.6 Y215.7
G0 X199.36 Y215.26
G0 X199.01 Y214.91
;TYPE:SKIN
G1 F1500 X100.99 Y214.91 E104.57186
G1 X100.99 Y116.89 E114.35234
G1 X199.01 Y116.89 E124.13281
G1 X199.01 Y214.91 E133.91329
G1 F1500 E127.41329
G0 F9000 X199.29 Y214.91
G0 X199.29 Y117.391
G1 F1500 E133.91329
G0 F9000 X198.85 Y117.391
G1 F1500 X198.508 Y117.05 E133.96148
G0 F9000 X197.943 Y117.05
G1 F1500 X198.85 Y117.957 E134.08946
G0 F9000 X198.85 Y118.523
G1 F1500 X197.377 Y117.05 E134.29732
G0 F9000 X196.811 Y117.05
G1 F1500 X198.85 Y119.088 E134.58497
G0 F9000 X198.85 Y119.654
G1 F1500 X196.246 Y117.05 E134.95243
G0 F9000 X195.68 Y117.05
G1 F1500 X198.85 Y120.22 E135.39975
G0 F9000 X198.85 Y120.785
G1 F1500 X195.114 Y117.05 E135.92687
G0 F9000 X194.549 Y117.05
G1 F1500 X198.85 Y121.351 E136.53378
G0 F9000 X198.85 Y121.917
G1 F1500 X193.983 Y117.05 E137.22057
G0 F9000 X193.417 Y117.05
G1 F1500 X198.85 Y122.482 E137.98716
G0 F9000 X198.85 Y123.048
G1 F1500 X192.852 Y117.05 E138.83354
G0 F9000 X192.286 Y117.05
G1 F1500 X198.85 Y123.614 E139.75979
G0 F9000 X198.85 Y124.179
G1 F1500 X191.72 Y117.05 E140.76584
G0 F9000 X191.155 Y117.05
G1 F1500 X198.85 Y124.745 E141.85169
G0 F9000 X198.85 Y125.311
G1 F1500 X190.589 Y117.05 E143.0174
G0 F9000 X190.023 Y117.05
G1 F1500 X198.85 Y125.877 E144.26299
G0 F9000 X198.85 Y126.442
G1 F1500 X189.457 Y117.05 E145.58837
G0 F9000 X188.892 Y117.05
G1 F1500 X198.85 Y127.008 E146.99355
G0 F9000 X198.85 Y127.574
G1 F1500 X188.326 Y117.05 E148.4786
G0 F9000 X187.76 Y117.05
G1 F1500 X198.85 Y128.139 E150.04345
G0 F9000 X198.85 Y128.705
G1 F1500 X187.195 Y117.05 E151.6881
G0 F9000 X186.629 Y117.05
G1 F1500 X198.85 Y129.271 E153.41261
G0 F9000 X198.85 Y129.836
G1 F1500 X186.063 Y117.05 E155.21693
G0 F9000 X185.498 Y117.05
G1 F1500 X198.85 Y130.402 E157.10104
G0 F9000 X198.85 Y130.968
G1 F1500 X184.932 Y117.05 E159.06502
G0 F9000 X184.366 Y117.05
G1 F1500 X198.85 Y131.533 E161.1088
G0 F9000 X198.85 Y132.099
G1 F1500 X183.801 Y117.05 E163.23237
G0 F9000 X183.235 Y117.05
G1 F1500 X198.85 Y132.665 E165.43582
G0 F9000 X198.85 Y133.23
G1 F1500 X182.669 Y117.05 E167.71906
G0 F9000 X182.104 Y117.05
G1 F1500 X198.85 Y133.796 E170.0821
G0 F9000 X198.85 Y134.362
G1 F1500 X181.538 Y117.05 E172.52501
G0 F9000 X180.972 Y117.05
G1 F1500 X198.85 Y134.927 E175.04772
G0 F9000 X198.85 Y135.493
G1 F1500 X180.406 Y117.05 E177.6503
G0 F9000 X179.841 Y117.05
G1 F1500 X198.85 Y136.059 E180.33267
G0 F9000 X198.85 Y136.625
G1 F1500 X179.275 Y117.05 E183.09492
G0 F9000 X178.709 Y117.05
G1 F1500 X198.85 Y137.19 E185.93696
G0 F9000 X198.85 Y137.756
G1 F1500 X178.144 Y117.05 E188.8588
G0 F9000 X177.578 Y117.05
G1 F1500 X198.85 Y138.322 E191.86051
G0 F9000 X198.85 Y138.887
G1 F1500 X177.012 Y117.05 E194.94201
G0 F9000 X176.447 Y117.05
G1 F1500 X198.85 Y139.453 E198.10332
G0 F9000 X198.85 Y140.019
G1 F1500 X175.881 Y117.05 E201.34449
G0 F9000 X175.315 Y117.05
G1 F1500 X198.85 Y140.584 E204.66547
G0 F9000 X198.85 Y141.15
G1 F1500 X174.75 Y117.05 E208.06624
G0 F9000 X174.184 Y117.05
G1 F1500 X198.85 Y141.716 E211.54688
G0 F9000 X198.85 Y142.281
G1 F1500 X173.618 Y117.05 E215.10731
G0 F9000 X173.053 Y117.05
G1 F1500 X198.85 Y142.847 E218.74755
G0 F9000 X198.85 Y143.413
G1 F1500 X172.487 Y117.05 E222.46765
G0 F9000 X171.921 Y117.05
G1 F1500 X198.85 Y143.978 E226.26755
G0 F9000 X198.85 Y144.544
G1 F1500 X171.356 Y117.05 E230.14726
G0 F9000 X170.79 Y117.05
G1 F1500 X198.85 Y145.11 E234.10682
G0 F9000 X198.85 Y145.676
G1 F1500 X170.224 Y117.05 E238.14626
G0 F9000 X169.658 Y117.05
G1 F1500 X198.85 Y146.241 E242.2655
G0 F9000 X198.85 Y146.807
G1 F1500 X169.093 Y117.05 E246.46453
G0 F9000 X168.527 Y117.05
G1 F1500 X198.85 Y147.373 E250.74344
G0 F9000 X198.85 Y147.938
G1 F1500 X167.961 Y117.05 E255.10214
G0 F9000 X167.396 Y117.05
G1 F1500 X198.85 Y148.504 E259.54064
G0 F9000 X198.85 Y149.07
G1 F1500 X166.83 Y117.05 E264.059
G0 F9000 X166.264 Y117.05
G1 F1500 X198.85 Y149.635 E268.65717
G0 F9000 X198.85 Y150.201
G1 F1500 X165.699 Y117.05 E273.33513
G0 F9000 X165.133 Y117.05
G1 F1500 X198.85 Y150.767 E278.09297
G0 F9000 X198.85 Y151.332
G1 F1500 X164.567 Y117.05 E282.9306
G0 F9000 X164.002 Y117.05
G1 F1500 X198.85 Y151.898 E287.84803
G0 F9000 X198.85 Y152.464
G1 F1500 X163.436 Y117.05 E292.84532
G0 F9000 X162.87 Y117.05
G1 F1500 X198.85 Y153.029 E297.92242
G0 F9000 X198.85 Y153.595
G1 F1500 X162.305 Y117.05 E303.07931
G0 F9000 X161.739 Y117.05
G1 F1500 X198.85 Y154.161 E308.31608
G0 F9000 X198.85 Y154.726
G1 F1500 X161.173 Y117.05 E313.63264
G0 F9000 X160.607 Y117.05
G1 F1500 X198.85 Y155.292 E319.02907
G0 F9000 X198.85 Y155.858
G1 F1500 X160.042 Y117.05 E324.5053
G0 F9000 X159.476 Y117.05
G1 F1500 X198.85 Y156.424 E330.06139
G0 F9000 X198.85 Y156.989
G1 F1500 X158.91 Y117.05 E335.69729
G0 F9000 X158.345 Y117.05
G1 F1500 X198.85 Y157.555 E341.41298
G0 F9000 X198.85 Y158.121
G1 F1500 X157.779 Y117.05 E347.20854
G0 F9000 X157.213 Y117.05
G1 F1500 X198.85 Y158.686 E353.0839
G0 F9000 X198.85 Y159.252
G1 F1500 X156.648 Y117.05 E359.03906
G0 F9000 X156.082 Y117.05
G1 F1500 X198.85 Y159.818 E365.07409
G0 F9000 X198.85 Y160.383
G1 F1500 X155.516 Y117.05 E371.18891
G0 F9000 X154.951 Y117.05
G1 F1500 X198.85 Y160.949 E377.38354
G0 F9000 X198.85 Y161.515
G1 F1500 X154.385 Y117.05 E383.65803
G0 F9000 X153.819 Y117.05
G1 F1500 X198.85 Y162.08 E390.01232
G0 F9000 X198.85 Y162.646
G1 F1500 X153.254 Y117.05 E396.44641
G0 F9000 X152.688 Y117.05
G1 F1500 X198.85 Y163.212 E402.96036
G0 F9000 X198.85 Y163.777
G1 F1500 X152.122 Y117.05 E409.55412
G0 F9000 X151.557 Y117.05
G1 F1500 X198.85 Y164.343 E416.22767
G0 F9000 X198.85 Y164.909
G1 F1500 X150.991 Y117.05 E422.98109
G0 F9000 X150.425 Y117.05
G1 F1500 X198.85 Y165.475 E429.81438
G0 F9000 X198.85 Y166.04
G1 F1500 X149.859 Y117.049 E436.72754
G0 F9000 X149.293 Y117.049
G1 F1500 X198.85 Y166.606 E443.72057
G0 F9000 X198.85 Y167.172
G1 F1500 X148.727 Y117.049 E450.79347
G0 F9000 X148.162 Y117.049
G1 F1500 X198.85 Y167.737 E457.94609
G0 F9000 X198.85 Y168.303
G1 F1500 X147.596 Y117.049 E465.17859
G0 F9000 X147.03 Y117.049
G1 F1500 X198.85 Y168.869 E472.49095
G0 F9000 X198.85 Y169.434
G1 F1500 X146.465 Y117.049 E479.88304
G0 F9000 X145.899 Y117.049
G1 F1500 X198.85 Y170 E487.35499
G0 F9000 X198.85 Y170.566
G1 F1500 X145.333 Y117.049 E494.90682
G0 F9000 X144.768 Y117.049
G1 F1500 X198.85 Y171.131 E502.53838
G0 F9000 X198.85 Y171.697
G1 F1500 X144.202 Y117.049 E510.2498
G0 F9000 X143.636 Y117.049
G1 F1500 X198.85 Y172.263 E518.04109
G0 F9000 X198.85 Y172.828
G1 F1500 X143.071 Y117.049 E525.91211
G0 F9000 X142.505 Y117.049
G1 F1500 X198.85 Y173.394 E533.863
G0 F9000 X198.85 Y173.96
G1 F1500 X141.939 Y117.049 E541.89375
G0 F9000 X141.373 Y117.049
G1 F1500 X198.85 Y174.525 E550.00431
G0 F9000 X198.85 Y175.091
G1 F1500 X140.808 Y117.049 E558.19466
G0 F9000 X140.242 Y117.049
G1 F1500 X198.85 Y175.657 E566.46488
G0 F9000 X198.85 Y176.223
G1 F1500 X139.676 Y117.049 E574.81498
G0 F9000 X139.111 Y117.049
G1 F1500 X198.85 Y176.788 E583.24479
G0 F9000 X198.85 Y177.354
G1 F1500 X138.545 Y117.049 E591.75448
G0 F9000 X137.979 Y117.049
G1 F1500 X198.85 Y177.92 E600.34404
G0 F9000 X198.85 Y178.485
G1 F1500 X137.414 Y117.049 E609.01332
G0 F9000 X136.848 Y117.049
G1 F1500 X198.85 Y179.051 E617.76247
G0 F9000 X198.85 Y179.617
G1 F1500 X136.282 Y117.049 E626.59149
G0 F9000 X135.717 Y117.049
G1 F1500 X198.85 Y180.182 E635.50024
G0 F9000 X198.85 Y180.748
G1 F1500 X135.151 Y117.049 E644.48886
G0 F9000 X134.585 Y117.049
G1 F1500 X198.85 Y181.314 E653.55734
G0 F9000 X198.85 Y181.879
G1 F1500 X134.02 Y117.049 E662.70556
G0 F9000 X133.454 Y117.049
G1 F1500 X198.85 Y182.445 E671.93364
G0 F9000 X198.85 Y183.011
G1 F1500 X132.888 Y117.049 E681.24159
G0 F9000 X132.323 Y117.049
G1 F1500 X198.85 Y183.576 E690.62927
G0 F9000 X198.85 Y184.142
G1 F1500 X131.757 Y117.049 E700.09681
G0 F9000 X131.191 Y117.049
G1 F1500 X198.85 Y184.708 E709.64423
G0 F9000 X198.85 Y185.273
G1 F1500 X130.625 Y117.049 E719.27144
G0 F9000 X130.06 Y117.049
G1 F1500 X198.85 Y185.839 E728.97846
G0 F9000 X198.85 Y186.405
G1 F1500 X129.494 Y117.049 E738.76534
G0 F9000 X128.928 Y117.049
G1 F1500 X198.85 Y186.971 E748.63209
G0 F9000 X198.85 Y187.536
G1 F1500 X128.363 Y117.049 E758.57856
G0 F9000 X127.797 Y117.049
G1 F1500 X198.85 Y188.102 E768.60491
G0 F9000 X198.85 Y188.668
G1 F1500 X127.231 Y117.049 E778.71112
G0 F9000 X126.666 Y117.049
G1 F1500 X198.85 Y189.233 E788.89707
G0 F9000 X198.85 Y189.799
G1 F1500 X126.1 Y117.049 E799.16288
G0 F9000 X125.534 Y117.049
G1 F1500 X198.85 Y190.365 E809.50856
G0 F9000 X198.85 Y190.93
G1 F1500 X124.969 Y117.049 E819.93396
G0 F9000 X124.403 Y117.049
G1 F1500 X198.85 Y191.496 E830.43924
G0 F9000 X198.85 Y192.062
G1 F1500 X123.837 Y117.049 E841.02438
G0 F9000 X123.272 Y117.049
G1 F1500 X198.85 Y192.627 E851.68926
G0 F9000 X198.85 Y193.193
G1 F1500 X122.706 Y117.049 E862.434
G0 F9000 X122.14 Y117.049
G1 F1500 X198.85 Y193.759 E873.25861
G0 F9000 X198.85 Y194.324
G1 F1500 X121.574 Y117.049 E884.16302
G0 F9000 X121.009 Y117.049
G1 F1500 X198.85 Y194.89 E895.14722
G0 F9000 X198.85 Y195.456
G1 F1500 X120.443 Y117.049 E906.2113
G0 F9000 X119.877 Y117.049
G1 F1500 X198.85 Y196.022 E917.35524
G0 F9000 X198.85 Y196.587
G1 F1500 X119.312 Y117.049 E928.57891
G0 F9000 X118.746 Y117.049
G1 F1500 X198.85 Y197.153 E939.88245
G0 F9000 X198.85 Y197.719
G1 F1500 X118.18 Y117.049 E951.26586
G0 F9000 X117.615 Y117.049
G1 F1500 X198.85 Y198.284 E962.72899
G0 F9000 X198.85 Y198.85
G1 F1500 X117.049 Y117.049 E974.272
G0 F9000 X116.483 Y117.049
G1 F1500 X198.85 Y199.416 E985.89487
G0 F9000 X198.85 Y199.981
G1 F1500 X115.918 Y117.049 E997.59747
G0 F9000 X115.352 Y117.049
G1 F1500 X198.85 Y200.547 E1009.37994
G0 F9000 X198.85 Y201.113
G1 F1500 X114.786 Y117.049 E1021.24228
G0 F9000 X114.221 Y117.049
G1 F1500 X198.85 Y201.678 E1033.18435
G0 F9000 X198.85 Y202.244
G1 F1500 X113.655 Y117.049 E1045.20628
G0 F9000 X113.089 Y117.049
G1 F1500 X198.85 Y202.81 E1057.30809
G0 F9000 X198.85 Y203.375
G1 F1500 X112.524 Y117.049 E1069.48962
G0 F9000 X111.958 Y117.049
G1 F1500 X198.85 Y203.941 E1081.75102
G0 F9000 X198.85 Y204.507
G1 F1500 X111.392 Y117.049 E1094.09229
G0 F9000 X110.826 Y117.049
G1 F1500 X198.85 Y205.072 E1106.51335
G0 F9000 X198.85 Y205.638
G1 F1500 X110.261 Y117.049 E1119.01422
G0 F9000 X109.695 Y117.049
G1 F1500 X198.85 Y206.204 E1131.59495
G0 F9000 X198.85 Y206.77
G1 F1500 X109.129 Y117.049 E1144.25555
G0 F9000 X108.564 Y117.049
G1 F1500 X198.85 Y207.335 E1156.99588
G0 F9000 X198.85 Y207.901
G1 F1500 X107.998 Y117.049 E1169.81608
G0 F9000 X107.432 Y117.049
G1 F1500 X198.85 Y208.467 E1182.71615
G0 F9000 X198.85 Y209.032
G1 F1500 X106.867 Y117.049 E1195.69594
G0 F9000 X106.301 Y117.049
G1 F1500 X198.85 Y209.598 E1208.75561
G0 F9000 X198.85 Y210.164
G1 F1500 X105.735 Y117.049 E1221.89514
G0 F9000 X105.17 Y117.049
G1 F1500 X198.85 Y210.729 E1235.1144
G0 F9000 X198.85 Y211.295
G1 F1500 X104.604 Y117.049 E1248.41353
G0 F9000 X104.038 Y117.049
G1 F1500 X198.85 Y211.861 E1261.79253
G0 F9000 X198.85 Y212.426
G1 F1500 X103.473 Y117.049 E1275.25125
G0 F9000 X102.907 Y117.049
G1 F1500 X198.85 Y212.992 E1288.78984
G0 F9000 X198.85 Y213.558
G1 F1500 X102.341 Y117.049 E1302.40831
G0 F9000 X101.776 Y117.049
G1 F1500 X198.85 Y214.123 E1316.1065
G0 F9000 X198.85 Y214.689
G1 F1500 X101.21 Y117.049 E1329.88456
G0 F9000 X101.15 Y117.555
G1 F1500 X198.344 Y214.749 E1343.59968
G0 F9000 X197.778 Y214.749
G1 F1500 X101.15 Y118.12 E1357.235
G0 F9000 X101.15 Y118.686
G1 F1500 X197.212 Y214.749 E1370.79046
G0 F9000 X196.647 Y214.749
G1 F1500 X101.15 Y119.252 E1384.26612
G0 F9000 X101.15 Y119.817
G1 F1500 X196.081 Y214.749 E1397.66198
G0 F9000 X195.515 Y214.749
G1 F1500 X101.15 Y120.383 E1410.97797
G0 F9000 X101.15 Y120.949
G1 F1500 X194.95 Y214.749 E1424.21416
G0 F9000 X194.384 Y214.749
G1 F1500 X101.15 Y121.514 E1437.37056
G0 F9000 X101.15 Y122.08
G1 F1500 X193.818 Y214.749 E1450.44708
G0 F9000 X193.252 Y214.749
G1 F1500 X101.15 Y122.646 E1463.44374
G0 F9000 X101.15 Y123.211
G1 F1500 X192.687 Y214.749 E1476.36067
G0 F9000 X192.121 Y214.749
G1 F1500 X101.15 Y123.777 E1489.19773
G0 F9000 X101.15 Y124.343
G1 F1500 X191.555 Y214.749 E1501.95493
G0 F9000 X190.99 Y214.749
G1 F1500 X101.15 Y124.908 E1514.63239
G0 F9000 X101.15 Y125.474
G1 F1500 X190.424 Y214.749 E1527.22999
G0 F9000 X189.858 Y214.749
G1 F1500 X101.15 Y126.04 E1539.74772
G0 F9000 X101.15 Y126.606
G1 F1500 X189.293 Y214.749 E1552.18564
G0 F9000 X188.727 Y214.749
G1 F1500 X101.15 Y127.171 E1564.54378
G0 F9000 X101.15 Y127.737
G1 F1500 X188.161 Y214.749 E1576.82204
G0 F9000 X187.596 Y214.749
G1 F1500 X101.15 Y128.303 E1589.0205
G0 F9000 X101.15 Y128.868
G1 F1500 X187.03 Y214.749 E1601.13917
G0 F9000 X186.464 Y214.749
G1 F1500 X101.15 Y129.434 E1613.17797
G0 F9000 X101.15 Y130
G1 F1500 X185.899 Y214.749 E1625.13697
G0 F9000 X185.333 Y214.749
G1 F1500 X101.15 Y130.565 E1637.01617
G0 F9000 X101.15 Y131.131
G1 F1500 X184.767 Y214.749 E1648.8155
G0 F9000 X184.202 Y214.749
G1 F1500 X101.15 Y131.697 E1660.53503
G0 F9000 X101.15 Y132.262
G1 F1500 X183.636 Y214.749 E1672.17477
G0 F9000 X183.07 Y214.749
G1 F1500 X101.15 Y132.828 E1683.73464
G0 F9000 X101.15 Y133.394
G1 F1500 X182.504 Y214.749 E1695.21464
G0 F9000 X181.939 Y214.749
G1 F1500 X101.15 Y133.959 E1706.61491
G0 F9000 X101.15 Y134.525
G1 F1500 X181.373 Y214.749 E1717.93531
G0 F9000 X180.807 Y214.749
G1 F1500 X101.15 Y135.091 E1729.17584
G0 F9000 X101.15 Y135.657
G1 F1500 X180.242 Y214.749 E1740.33658
G0 F9000 X179.676 Y214.749
G1 F1500 X101.15 Y136.222 E1751.41752
G0 F9000 X101.15 Y136.788
G1 F1500 X179.11 Y214.749 E1762.41859
G0 F9000 X178.545 Y214.749
G1 F1500 X101.15 Y137.354 E1773.33986
G0 F9000 X101.15 Y137.919
G1 F1500 X177.979 Y214.749 E1784.18133
G0 F9000 X177.413 Y214.749
G1 F1500 X101.15 Y138.485 E1794.94293
G0 F9000 X101.15 Y139.051
G1 F1500 X176.848 Y214.749 E1805.62474
G0 F9000 X176.282 Y214.749
G1 F1500 X101.15 Y139.616 E1816.22675
G0 F9000 X101.15 Y140.182
G1 F1500 X175.716 Y214.749 E1826.74888
G0 F9000 X175.151 Y214.749
G1 F1500 X101.15 Y140.748 E1837.19122
G0 F9000 X101.15 Y141.313
G1 F1500 X174.585 Y214.749 E1847.55377
G0 F9000 X174.019 Y214.749
G1 F1500 X101.15 Y141.879 E1857.83644
G0 F9000 X101.15 Y142.445
G1 F1500 X173.454 Y214.749 E1868.03932
G0 F9000 X172.888 Y214.749
G1 F1500 X101.15 Y143.01 E1878.16239
G0 F9000 X101.15 Y143.576
G1 F1500 X172.322 Y214.749 E1888.2056
G0 F9000 X171.756 Y214.749
G1 F1500 X101.15 Y144.142 E1898.16894
G0 F9000 X101.15 Y144.707
G1 F1500 X171.191 Y214.749 E1908.05255
G0 F9000 X170.625 Y214.749
G1 F1500 X101.15 Y145.273 E1917.8563
G0 F9000 X101.15 Y145.839
G1 F1500 X170.059 Y214.749 E1927.58017
G0 F9000 X169.494 Y214.749
G1 F1500 X101.15 Y146.405 E1937.22425
G0 F9000 X101.15 Y146.97
G1 F1500 X168.928 Y214.749 E1946.78853
G0 F9000 X168.362 Y214.749
G1 F1500 X101.15 Y147.536 E1956.27294
G0 F9000 X101.15 Y148.102
G1 F1500 X167.797 Y214.749 E1965.67755
G0 F9000 X167.231 Y214.749
G1 F1500 X101.15 Y148.667 E1975.00236
G0 F9000 X101.15 Y149.233
G1 F1500 X166.665 Y214.749 E1984.24731
G0 F9000 X166.1 Y214.749
G1 F1500 X101.15 Y149.799 E1993.41245
G0 F9000 X101.15 Y150.364
G1 F1500 X165.534 Y214.749 E2002.4978
G0 F9000 X164.968 Y214.749
G1 F1500 X101.15 Y150.93 E2011.50328
G0 F9000 X101.15 Y151.496
G1 F1500 X164.403 Y214.749 E2020.42896
G0 F9000 X163.837 Y214.749
G1 F1500 X101.15 Y152.061 E2029.27485
G0 F9000 X101.15 Y152.627
G1 F1500 X163.271 Y214.749 E2038.04086
G0 F9000 X162.705 Y214.749
G1 F1500 X101.15 Y153.193 E2046.72701
G0 F9000 X101.15 Y153.758
G1 F1500 X162.14 Y214.749 E2055.33343
G0 F9000 X161.574 Y214.749
G1 F1500 X101.15 Y154.324 E2063.85998
G0 F9000 X101.15 Y154.89
G1 F1500 X161.008 Y214.749 E2072.30666
G0 F9000 X160.443 Y214.749
G1 F1500 X101.15 Y155.456 E2080.67354
G0 F9000 X101.15 Y156.021
G1 F1500 X159.877 Y214.749 E2088.96062
G0 F9000 X159.311 Y214.749
G1 F1500 X101.15 Y156.587 E2097.16784
G0 F9000 X101.15 Y157.153
G1 F1500 X158.746 Y214.749 E2105.29526
G0 F9000 X158.18 Y214.749
G1 F1500 X101.15 Y157.718 E2113.34288
G0 F9000 X101.15 Y158.284
G1 F1500 X157.614 Y214.749 E2121.31063
G0 F9000 X157.049 Y214.749
G1 F1500 X101.15 Y158.85 E2129.19858
G0 F9000 X101.15 Y159.415
G1 F1500 X156.483 Y214.749 E2137.00674
G0 F9000 X155.917 Y214.749
G1 F1500 X101.15 Y159.981 E2144.73502
G0 F9000 X101.15 Y160.547
G1 F1500 X155.352 Y214.749 E2152.38351
G0 F9000 X154.786 Y214.749
G1 F1500 X101.15 Y161.112 E2159.9522
G0 F9000 X101.15 Y161.678
G1 F1500 X154.22 Y214.749 E2167.44102
G0 F9000 X153.655 Y214.749
G1 F1500 X101.15 Y162.244 E2174.85004
G0 F9000 X101.15 Y162.809
G1 F1500 X153.089 Y214.749 E2182.17927
G0 F9000 X152.523 Y214.749
G1 F1500 X101.15 Y163.375 E2189.42862
G0 F9000 X101.15 Y163.941
G1 F1500 X151.957 Y214.749 E2196.59811
G0 F9000 X151.392 Y214.749
G1 F1500 X101.15 Y164.506 E2203.68787
G0 F9000 X101.15 Y165.072
G1 F1500 X150.826 Y214.749 E2210.69776
G0 F9000 X150.26 Y214.749
G1 F1500 X101.15 Y165.638 E2217.62778
G0 F9000 X101.15 Y166.204
G1 F1500 X149.695 Y214.749 E2224.47801
G0 F9000 X149.129 Y214.749
G1 F1500 X101.15 Y166.769 E2231.24843
G0 F9000 X101.15 Y167.335
G1 F1500 X148.563 Y214.749 E2237.93899
G0 F9000 X147.998 Y214.749
G1 F1500 X101.15 Y167.901 E2244.54975
G0 F9000 X101.15 Y168.466
G1 F1500 X147.432 Y214.749 E2251.08071
G0 F9000 X146.866 Y214.749
G1 F1500 X101.15 Y169.032 E2257.5318
G0 F9000 X101.15 Y169.598
G1 F1500 X146.301 Y214.749 E2263.90309
G0 F9000 X145.735 Y214.749
G1 F1500 X101.15 Y170.163 E2270.19459
G0 F9000 X101.15 Y170.729
G1 F1500 X145.169 Y214.749 E2276.40622
G0 F9000 X144.604 Y214.749
G1 F1500 X101.15 Y171.295 E2282.53805
G0 F9000 X101.15 Y171.86
G1 F1500 X144.038 Y214.749 E2288.59008
G0 F9000 X143.472 Y214.749
G1 F1500 X101.15 Y172.426 E2294.56224
G0 F9000 X101.15 Y172.992
G1 F1500 X142.906 Y214.749 E2300.45453
G0 F9000 X142.341 Y214.749
G1 F1500 X101.15 Y173.557 E2306.2671
G0 F9000 X101.15 Y174.123
G1 F1500 X141.775 Y214.749 E2311.99979
G0 F9000 X141.209 Y214.749
G1 F1500 X101.15 Y174.689 E2317.65262
G0 F9000 X101.15 Y175.255
G1 F1500 X140.644 Y214.749 E2323.22565
G0 F9000 X140.078 Y214.749
G1 F1500 X101.15 Y175.82 E2328.71888
G0 F9000 X101.15 Y176.386
G1 F1500 X139.512 Y214.749 E2334.13225
G0 F9000 X138.947 Y214.749
G1 F1500 X101.15 Y176.952 E2339.46581
G0 F9000 X101.15 Y177.517
G1 F1500 X138.381 Y214.749 E2344.71958
G0 F9000 X137.815 Y214.749
G1 F1500 X101.15 Y178.083 E2349.89348
G0 F9000 X101.15 Y178.649
G1 F1500 X137.25 Y214.749 E2354.98758
G0 F9000 X136.684 Y214.749
G1 F1500 X101.15 Y179.214 E2360.00188
G0 F9000 X101.15 Y179.78
G1 F1500 X136.118 Y214.749 E2364.93631
G0 F9000 X135.553 Y214.749
G1 F1500 X101.15 Y180.346 E2369.79095
G0 F9000 X101.15 Y180.911
G1 F1500 X134.987 Y214.749 E2374.56578
G0 F9000 X134.421 Y214.749
G1 F1500 X101.15 Y181.477 E2379.26075
G0 F9000 X101.15 Y182.043
G1 F1500 X133.856 Y214.749 E2383.87592
G0 F9000 X133.29 Y214.749
G1 F1500 X101.15 Y182.608 E2388.41129
G0 F9000 X101.15 Y183.174
G1 F1500 X132.724 Y214.749 E2392.8668
G0 F9000 X132.158 Y214.749
G1 F1500 X101.15 Y183.74 E2397.24243
G0 F9000 X101.15 Y184.305
G1 F1500 X131.593 Y214.749 E2401.53834
G0 F9000 X131.027 Y214.749
G1 F1500 X101.15 Y184.871 E2405.75437
G0 F9000 X101.15 Y185.437
G1 F1500 X130.461 Y214.749 E2409.89054
G0 F9000 X129.896 Y214.749
G1 F1500 X101.15 Y186.003 E2413.94692
G0 F9000 X101.15 Y186.568
G1 F1500 X129.33 Y214.749 E2417.92349
G0 F9000 X128.764 Y214.749
G1 F1500 X101.15 Y187.134 E2421.82019
G0 F9000 X101.15 Y187.7
G1 F1500 X128.199 Y214.749 E2425.6371
G0 F9000 X127.633 Y214.749
G1 F1500 X101.15 Y188.265 E2429.37421
G0 F9000 X101.15 Y188.831
G1 F1500 X127.067 Y214.749 E2433.03145
G0 F9000 X126.502 Y214.749
G1 F1500 X101.15 Y189.397 E2436.60889
G0 F9000 X101.15 Y189.962
G1 F1500 X125.936 Y214.749 E2440.10653
G0 F9000 X125.37 Y214.749
G1 F1500 X101.15 Y190.528 E2443.5243
G0 F9000 X101.15 Y191.094
G1 F1500 X124.805 Y214.749 E2446.86228
G0 F9000 X124.239 Y214.749
G1 F1500 X101.15 Y191.659 E2450.12046
G0 F9000 X101.15 Y192.225
G1 F1500 X123.673 Y214.749 E2453.29877
G0 F9000 X123.107 Y214.749
G1 F1500 X101.15 Y192.791 E2456.39721
G0 F9000 X101.15 Y193.356
G1 F1500 X122.542 Y214.749 E2459.41592
G0 F9000 X121.976 Y214.749
G1 F1500 X101.15 Y193.922 E2462.35476
G0 F9000 X101.15 Y194.488
G1 F1500 X121.41 Y214.749 E2465.21374
G0 F9000 X120.845 Y214.749
G1 F1500 X101.15 Y195.053 E2467.99299
G0 F9000 X101.15 Y195.619
G1 F1500 X120.279 Y214.749 E2470.69237
G0 F9000 X119.713 Y214.749
G1 F1500 X101.15 Y196.185 E2473.31188
G0 F9000 X101.15 Y196.751
G1 F1500 X119.148 Y214.749 E2475.85159
G0 F9000 X118.582 Y214.749
G1 F1500 X101.15 Y197.316 E2478.3115
G0 F9000 X101.15 Y197.882
G1 F1500 X118.016 Y214.749 E2480.69155
G0 F9000 X117.451 Y214.749
G1 F1500 X101.15 Y198.448 E2482.9918
G0 F9000 X101.15 Y199.013
G1 F1500 X116.885 Y214.749 E2485.21224
G0 F9000 X116.319 Y214.749
G1 F1500 X101.15 Y199.579 E2487.35283
G0 F9000 X101.15 Y200.145
G1 F1500 X115.754 Y214.749 E2489.41361
G0 F9000 X115.188 Y214.749
G1 F1500 X101.15 Y200.71 E2491.39459
G0 F9000 X101.15 Y201.276
G1 F1500 X114.622 Y214.749 E2493.29571
G0 F9000 X114.057 Y214.749
G1 F1500 X101.15 Y201.842 E2495.11702
G0 F9000 X101.15 Y202.407
G1 F1500 X113.491 Y214.749 E2496.85854
G0 F9000 X112.925 Y214.749
G1 F1500 X101.15 Y202.973 E2498.52019
G0 F9000 X101.15 Y203.539
G1 F1500 X112.359 Y214.749 E2500.10197
G0 F9000 X111.794 Y214.749
G1 F1500 X101.15 Y204.104 E2501.60403
G0 F9000 X101.15 Y204.67
G1 F1500 X111.228 Y214.749 E2503.02621
G0 F9000 X110.662 Y214.749
G1 F1500 X101.15 Y205.236 E2504.36853
G0 F9000 X101.15 Y205.802
G1 F1500 X110.097 Y214.749 E2505.63105
G0 F9000 X109.531 Y214.749
G1 F1500 X101.15 Y206.367 E2506.81377
G0 F9000 X101.15 Y206.933
G1 F1500 X108.965 Y214.749 E2507.91662
G0 F9000 X108.4 Y214.749
G1 F1500 X101.15 Y207.499 E2508.93967
G0 F9000 X101.15 Y208.064
G1 F1500 X107.834 Y214.749 E2509.88293
G0 F9000 X107.268 Y214.749
G1 F1500 X101.15 Y208.63 E2510.74631
G0 F9000 X101.15 Y209.196
G1 F1500 X106.703 Y214.749 E2511.5299
G0 F9000 X106.137 Y214.749
G1 F1500 X101.15 Y209.761 E2512.23369
G0 F9000 X101.15 Y210.327
G1 F1500 X105.571 Y214.749 E2512.85761
G0 F9000 X105.006 Y214.749
G1 F1500 X101.15 Y210.893 E2513.40174
G0 F9000 X101.15 Y211.458
G1 F1500 X104.44 Y214.749 E2513.86606
G0 F9000 X103.874 Y214.749
G1 F1500 X101.15 Y212.024 E2514.25052
G0 F9000 X101.15 Y212.59
G1 F1500 X103.309 Y214.749 E2514.55518
G0 F9000 X102.743 Y214.749
G1 F1500 X101.15 Y213.155 E2514.78004
G0 F9000 X101.15 Y213.721
G1 F1500 X102.177 Y214.749 E2514.92503
G0 F9000 X101.611 Y214.749
G1 F1500 X101.15 Y214.287 E2514.99015
G0 F9000 X100.8 Y214.287
G1 F1500 E2508.49015
;MESH:NONMESH
G0 F300 X100.8 Y214.287 Z2.1
G0 F9000 X100.71 Y214.287
G0 X100.782 Y215.118
G0 X199.4 Y215.3
;TIME_ELAPSED:3530.199806
;LAYER:3
M106 S255
;TYPE:WALL-INNER
;MESH:PrinterTest.stl
G1 F1500 E2514.99015
G1 X100.6 Y215.3 E2524.84846
G1 X100.6 Y116.5 E2534.70676
G1 X199.4 Y116.5 E2544.56506
G1 X199.4 Y215.3 E2554.42337
G0 F9000 X199.8 Y215.7
;TYPE:WALL-OUTER
G1 F1500 X100.2 Y215.7 E2564.3615
G1 X100.2 Y116.1 E2574.29962
G1 X199.8 Y116.1 E2584.23775
G1 X199.8 Y215.7 E2594.17588
G0 F9000 X199.6 Y215.7
G0 X199.36 Y215.26
G0 X199.01 Y214.91
;TYPE:SKIN
G1 F1500 X100.99 Y214.91 E2603.95636
G1 X100.99 Y116.89 E2613.73683
G1 X199.01 Y116.89 E2623.51731
G1 X199.01 Y214.91 E2633.29778
G0 F9000 X198.766 Y214.749
G1 F1500 X198.849 Y214.666 E2633.30949
G0 F9000 X198.849 Y214.1
G1 F1500 X198.2 Y214.749 E2633.40108
G0 F9000 X197.634 Y214.749
G1 F1500 X198.849 Y213.534 E2633.57253
G0 F9000 X198.849 Y212.969
G1 F1500 X197.069 Y214.749 E2633.8237
G0 F9000 X196.503 Y214.749
G1 F1500 X198.849 Y212.403 E2634.15475
G0 F9000 X198.849 Y211.837
G1 F1500 X195.937 Y214.749 E2634.56566
G0 F9000 X195.372 Y214.749
G1 F1500 X198.849 Y211.272 E2635.05631
G0 F9000 X198.849 Y210.706
G1 F1500 X194.806 Y214.749 E2635.62682
G0 F9000 X194.24 Y214.749
G1 F1500 X198.849 Y210.14 E2636.2772
G0 F9000 X198.849 Y209.575
G1 F1500 X193.675 Y214.749 E2637.0073
G0 F9000 X193.109 Y214.749
G1 F1500 X198.849 Y209.009 E2637.81728
G0 F9000 X198.849 Y208.443
G1 F1500 X192.543 Y214.749 E2638.70712
G0 F9000 X191.978 Y214.749
G1 F1500 X198.849 Y207.878 E2639.6767
G0 F9000 X198.849 Y207.312
G1 F1500 X191.412 Y214.749 E2640.72614
G0 F9000 X190.846 Y214.749
G1 F1500 X198.849 Y206.746 E2641.85545
G0 F9000 X198.849 Y206.181
G1 F1500 X190.281 Y214.749 E2643.06448
G0 F9000 X189.715 Y214.749
G1 F1500 X198.849 Y205.615 E2644.35339
G0 F9000 X198.849 Y205.049
G1 F1500 X189.149 Y214.749 E2645.72217
G0 F9000 X188.583 Y214.749
G1 F1500 X198.849 Y204.483 E2647.17081
G0 F9000 X198.849 Y203.918
G1 F1500 X188.018 Y214.749 E2648.69918
G0 F9000 X187.452 Y214.749
G1 F1500 X198.849 Y203.352 E2650.30742
G0 F9000 X198.849 Y202.786
G1 F1500 X186.886 Y214.749 E2651.99553
G0 F9000 X186.321 Y214.749
G1 F1500 X198.849 Y202.221 E2653.76336
G0 F9000 X198.849 Y201.655
G1 F1500 X185.755 Y214.749 E2655.61107
G0 F9000 X185.189 Y214.749
G1 F1500 X198.849 Y201.089 E2657.53864
G0 F9000 X198.849 Y200.524
G1 F1500 X184.624 Y214.749 E2659.54594
G0 F9000 X184.058 Y214.749
G1 F1500 X198.849 Y199.958 E2661.63311
G0 F9000 X198.849 Y199.392
G1 F1500 X183.492 Y214.749 E2663.80015
G0 F9000 X182.927 Y214.749
